zjykqj/-/step3_outputs/source_with_shared_pred.csv
intersection_id,time,hour,minute,flow,speed,occupancy,queue_length,signal_phase,green_time,cycle_length,lane_num,is_peak,peak_sensitivity,weather,has_bus_stop,near_school_hospital,target_queue,y_hat_shared,shared_residual
A,2026-06-01 06:00:00,6,0,158.01,39.66,0.402,12.74,1,25.24,90,4,0,1.0,sunny,0,0,0.0,4.8302,-4.8302
A,2026-06-01 06:05:00,6,5,125.94,46.11,0.324,0.0,3,39.4,90,4,0,1.0,sunny,0,0,0.0,0.0001,-0.0001
A,2026-06-01 06:10:00,6,10,125.81,45.68,0.327,0.0,1,30.21,90,4,0,1.0,sunny,0,0,0.0,0.0004,-0.0004
A,2026-06-01 06:15:00,6,15,167.45,44.48,0.338,0.0,3,34.23,90,4,0,1.0,sunny,0,0,0.0,0.0001,-0.0001
A,2026-06-01 06:20:00,6,20,151.25,44.52,0.319,0.0,3,45.71,90,4,0,1.0,sunny,0,0,0.0,0.0001,-0.0001
A,2026-06-01 06:25:00,6,25,165.58,43.47,0.323,0.0,3,34.43,90,4,0,1.0,sunny,0,0,0.0,0.0001,-0.0001
A,2026-06-01 06:30:00,6,30,153.86,46.19,0.338,0.0,4,36.16,90,4,0,1.0,sunny,0,0,0.0,0.0001,-0.0001
A,2026-06-01 06:35:00,6,35,156.58,47.19,0.347,0.0,4,35.34,90,4,0,1.0,sunny,0,0,0.0,0.0001,-0.0001
A,2026-06-01 06:40:00,6,40,169.34,41.26,0.398,0.0,3,33.62,90,4,0,1.0,rainy,0,0,0.0,0.0004,-0.0004
A,2026-06-01 06:45:00,6,45,136.3,47.86,0.331,0.0,3,35.81,90,4,0,1.0,sunny,0,0,0.0,0.0001,-0.0001
A,2026-06-01 06:50:00,6,50,133.75,43.98,0.272,0.0,4,34.04,90,4,0,1.0,sunny,0,0,0.0,0.0001,-0.0001
A,2026-06-01 06:55:00,6,55,145.85,46.73,0.312,0.0,1,38.45,90,4,0,1.0,sunny,0,0,0.0,0.0001,-0.0001
A,2026-06-01 07:00:00,7,0,412.14,33.69,0.633,0.0,2,40.18,90,4,1,1.0,sunny,0,0,0.0,0.0001,-0.0001
A,2026-06-01 07:05:00,7,5,403.25,38.87,0.647,0.0,1,44.4,90,4,1,1.0,sunny,0,0,0.0,0.0001,-0.0001
A,2026-06-01 07:10:00,7,10,401.41,35.43,0.592,0.0,3,34.76,90,4,1,1.0,sunny,0,0,0.0,0.0002,-0.0002
A,2026-06-01 07:15:00,7,15,496.19,36.64,0.735,0.0,2,48.5,90,4,1,1.0,rainy,0,0,0.0,0.006,-0.006
A,2026-06-01 07:20:00,7,20,384.0,40.65,0.559,0.0,2,46.2,90,4,1,1.0,sunny,0,0,0.0,0.0022,-0.0022
A,2026-06-01 07:25:00,7,25,374.08,39.37,0.583,0.0,4,42.36,90,4,1,1.0,sunny,0,0,0.0,0.0001,-0.0001
A,2026-06-01 07:30:00,7,30,398.21,41.31,0.634,0.0,3,42.9,90,4,1,1.0,sunny,0,0,0.0,0.0006,-0.0006
A,2026-06-01 07:35:00,7,35,432.27,34.03,0.65,0.0,1,36.06,90,4,1,1.0,sunny,0,0,0.0,0.0008,-0.0008
A,2026-06-01 07:40:00,7,40,415.7,38.63,0.618,0.0,2,34.65,90,4,1,1.0,sunny,0,0,0.0,0.0002,-0.0002
A,2026-06-01 07:45:00,7,45,461.28,29.74,0.674,0.0,1,44.07,90,4,1,1.0,sunny,0,0,0.0,0.0329,-0.0329
A,2026-06-01 07:50:00,7,50,394.69,37.11,0.656,0.0,4,41.3,90,4,1,1.0,sunny,0,0,0.0,0.0001,-0.0001
A,2026-06-01 07:55:00,7,55,369.51,43.73,0.592,0.0,2,39.57,90,4,1,1.0,sunny,0,0,0.0,0.0001,-0.0001
A,2026-06-01 08:00:00,8,0,393.01,44.59,0.6,0.0,4,37.17,90,4,1,1.0,sunny,0,0,0.0,0.0013,-0.0013
A,2026-06-01 08:05:00,8,5,417.18,35.99,0.662,0.0,1,46.66,90,4,1,1.0,cloudy,0,0,0.0,0.0001,-0.0001
A,2026-06-01 08:10:00,8,10,444.16,37.47,0.645,0.0,3,35.87,90,4,1,1.0,cloudy,0,0,0.0,0.002,-0.002
A,2026-06-01 08:15:00,8,15,432.87,35.82,0.709,0.0,1,43.43,90,4,1,1.0,cloudy,0,0,0.0,0.0009,-0.0009
A,2026-06-01 08:20:00,8,20,411.58,33.9,0.607,0.0,3,42.92,90,4,1,1.0,sunny,0,0,0.0,0.0001,-0.0001
A,2026-06-01 08:25:00,8,25,431.65,31.75,0.712,0.0,3,40.08,90,4,1,1.0,cloudy,0,0,0.0,0.0219,-0.0219
A,2026-06-01 08:30:00,8,30,495.86,38.08,0.755,0.0,2,41.18,90,4,1,1.0,rainy,0,0,0.0,0.0356,-0.0356
A,2026-06-01 08:35:00,8,35,462.75,32.3,0.68,0.0,3,41.76,90,4,1,1.0,rainy,0,0,0.0,0.0014,-0.0014
A,2026-06-01 08:40:00,8,40,453.56,34.98,0.68,0.0,1,42.15,90,4,1,1.0,cloudy,0,0,0.0,0.0004,-0.0004
A,2026-06-01 08:45:00,8,45,530.5,32.89,0.766,0.0,3,41.23,90,4,1,1.0,rainy,0,0,0.0,0.6042,-0.6042
A,2026-06-01 08:50:00,8,50,381.31,41.5,0.683,0.0,3,43.14,90,4,1,1.0,sunny,0,0,0.0,0.0007,-0.0007
A,2026-06-01 08:55:00,8,55,405.97,40.51,0.647,0.0,1,39.05,90,4,1,1.0,cloudy,0,0,0.0,0.0001,-0.0001
A,2026-06-01 09:00:00,9,0,460.8,33.13,0.687,0.0,2,36.69,90,4,1,1.0,rainy,0,0,0.0,0.0005,-0.0005
A,2026-06-01 09:05:00,9,5,405.9,34.95,0.598,0.0,3,52.65,90,4,1,1.0,cloudy,0,0,0.0,0.0001,-0.0001
A,2026-06-01 09:10:00,9,10,379.57,33.63,0.657,0.0,2,43.71,90,4,1,1.0,sunny,0,0,0.0,0.0001,-0.0001
A,2026-06-01 09:15:00,9,15,443.94,31.87,0.679,0.0,3,40.12,90,4,1,1.0,cloudy,0,0,0.0,0.0007,-0.0007
A,2026-06-01 09:20:00,9,20,407.64,36.72,0.67,0.0,4,44.36,90,4,1,1.0,sunny,0,0,0.0,0.0039,-0.0039
A,2026-06-01 09:25:00,9,25,403.0,36.7,0.643,0.0,1,38.39,90,4,1,1.0,sunny,0,0,0.0,0.0001,-0.0001
A,2026-06-01 09:30:00,9,30,410.72,36.79,0.679,0.0,2,36.44,90,4,1,1.0,sunny,0,0,0.0,0.0001,-0.0001
A,2026-06-01 09:35:00,9,35,421.55,36.15,0.623,0.0,1,44.27,90,4,1,1.0,sunny,0,0,0.0,0.0001,-0.0001
A,2026-06-01 09:40:00,9,40,397.16,41.74,0.631,0.0,3,40.74,90,4,1,1.0,sunny,0,0,0.0,0.0001,-0.0001
A,2026-06-01 09:45:00,9,45,406.53,32.18,0.627,0.0,1,43.48,90,4,1,1.0,sunny,0,0,0.0,0.0001,-0.0001
A,2026-06-01 09:50:00,9,50,372.32,35.18,0.595,0.0,3,40.36,90,4,1,1.0,sunny,0,0,0.0,0.0001,-0.0001
A,2026-06-01 09:55:00,9,55,446.89,36.11,0.722,0.0,2,50.66,90,4,1,1.0,cloudy,0,0,0.0,0.0077,-0.0077
A,2026-06-01 10:00:00,10,0,374.06,41.79,0.578,0.0,3,35.33,90,4,0,1.0,rainy,0,0,0.0,0.0011,-0.0011
A,2026-06-01 10:05:00,10,5,353.69,43.75,0.597,0.0,3,40.86,90,4,0,1.0,rainy,0,0,0.0,0.0001,-0.0001
A,2026-06-01 10:10:00,10,10,307.54,41.11,0.564,0.0,4,32.41,90,4,0,1.0,cloudy,0,0,0.0,0.0037,-0.0037
A,2026-06-01 10:15:00,10,15,309.54,41.9,0.501,0.0,4,28.92,90,4,0,1.0,cloudy,0,0,0.0,0.0067,-0.0067
A,2026-06-01 10:20:00,10,20,240.17,47.23,0.451,0.0,3,35.36,90,4,0,1.0,sunny,0,0,0.0,0.0001,-0.0001
A,2026-06-01 10:25:00,10,25,320.7,39.89,0.579,0.0,3,27.09,90,4,0,1.0,cloudy,0,0,0.0,0.0322,-0.0322
A,2026-06-01 10:30:00,10,30,373.78,38.86,0.606,0.0,3,36.16,90,4,0,1.0,rainy,0,0,0.0,0.0001,-0.0001
A,2026-06-01 10:35:00,10,35,282.95,37.28,0.52,0.0,2,36.92,90,4,0,1.0,sunny,0,0,0.0,0.0001,-0.0001
A,2026-06-01 10:40:00,10,40,342.63,38.61,0.586,0.0,4,36.01,90,4,0,1.0,rainy,0,0,0.0,0.0001,-0.0001
A,2026-06-01 10:45:00,10,45,374.34,35.65,0.669,0.0,4,37.77,90,4,0,1.0,rainy,0,0,0.0,0.0001,-0.0001
A,2026-06-01 10:50:00,10,50,276.85,39.09,0.434,0.0,3,41.55,90,4,0,1.0,sunny,0,0,0.0,0.0001,-0.0001
A,2026-06-01 10:55:00,10,55,294.79,36.42,0.512,0.0,1,37.62,90,4,0,1.0,sunny,0,0,0.0,0.0001,-0.0001
A,2026-06-01 11:00:00,11,0,299.44,42.9,0.513,0.0,4,38.51,90,4,0,1.0,cloudy,0,0,0.0,0.0001,-0.0001
A,2026-06-01 11:05:00,11,5,271.91,43.96,0.482,0.0,4,34.1,90,4,0,1.0,sunny,0,0,0.0,0.0001,-0.0001
A,2026-06-01 11:10:00,11,10,352.18,36.75,0.513,0.0,1,39.15,90,4,0,1.0,rainy,0,0,0.0,0.0001,-0.0001
A,2026-06-01 11:15:00,11,15,295.31,41.71,0.496,0.0,1,38.75,90,4,0,1.0,cloudy,0,0,0.0,0.0001,-0.0001
A,2026-06-01 11:20:00,11,20,307.5,39.61,0.56,0.0,1,34.51,90,4,0,1.0,cloudy,0,0,0.0,0.0036,-0.0036
A,2026-06-01 11:25:00,11,25,256.39,44.9,0.447,0.0,1,30.56,90,4,0,1.0,sunny,0,0,0.0,0.0018,-0.0018
A,2026-06-01 11:30:00,11,30,293.86,35.54,0.499,0.0,1,37.37,90,4,0,1.0,sunny,0,0,0.0,0.0001,-0.0001
A,2026-06-01 11:35:00,11,35,275.32,43.38,0.461,0.0,3,29.65,90,4,0,1.0,sunny,0,0,0.0,0.0041,-0.0041
A,2026-06-01 11:40:00,11,40,293.24,45.39,0.458,0.0,1,33.29,90,4,0,1.0,sunny,0,0,0.0,0.0001,-0.0001
A,2026-06-01 11:45:00,11,45,316.55,45.72,0.54,0.0,4,34.34,90,4,0,1.0,cloudy,0,0,0.0,0.0001,-0.0001
A,2026-06-01 11:50:00,11,50,289.2,40.73,0.507,0.0,1,30.77,90,4,0,1.0,sunny,0,0,0.0,0.0083,-0.0083
A,2026-06-01 11:55:00,11,55,254.21,41.82,0.422,0.0,2,24.64,90,4,0,1.0,sunny,0,0,0.0,0.0173,-0.0173
A,2026-06-01 12:00:00,12,0,308.12,39.94,0.508,0.0,1,36.74,90,4,0,1.0,sunny,0,0,0.0,0.0001,-0.0001
A,2026-06-01 12:05:00,12,5,279.21,42.4,0.451,0.0,3,40.32,90,4,0,1.0,sunny,0,0,0.0,0.0001,-0.0001
A,2026-06-01 12:10:00,12,10,314.66,39.76,0.526,0.0,3,37.9,90,4,0,1.0,sunny,0,0,0.0,0.0001,-0.0001
A,2026-06-01 12:15:00,12,15,268.97,41.95,0.505,0.0,4,38.33,90,4,0,1.0,sunny,0,0,0.0,0.0001,-0.0001
A,2026-06-01 12:20:00,12,20,279.83,35.71,0.476,0.0,3,25.84,90,4,0,1.0,sunny,0,0,0.0,0.0553,-0.0553
A,2026-06-01 12:25:00,12,25,303.9,32.96,0.47,0.0,2,31.4,90,4,0,1.0,sunny,0,0,0.0,0.0154,-0.0154
A,2026-06-01 12:30:00,12,30,317.58,40.55,0.484,0.0,2,37.33,90,4,0,1.0,cloudy,0,0,0.0,0.0001,-0.0001
A,2026-06-01 12:35:00,12,35,301.82,38.03,0.532,0.0,2,36.72,90,4,0,1.0,sunny,0,0,0.0,0.0001,-0.0001
A,2026-06-01 12:40:00,12,40,289.48,45.45,0.492,0.0,1,41.68,90,4,0,1.0,cloudy,0,0,0.0,0.0001,-0.0001
A,2026-06-01 12:45:00,12,45,288.63,38.7,0.543,0.0,4,36.29,90,4,0,1.0,sunny,0,0,0.0,0.0001,-0.0001
A,2026-06-01 12:50:00,12,50,317.93,44.01,0.515,0.0,3,38.19,90,4,0,1.0,cloudy,0,0,0.0,0.0001,-0.0001
A,2026-06-01 12:55:00,12,55,252.27,41.58,0.46,0.0,1,30.87,90,4,0,1.0,sunny,0,0,0.0,0.0009,-0.0009
A,2026-06-01 13:00:00,13,0,361.57,39.25,0.604,0.0,3,38.53,90,4,0,1.0,rainy,0,0,0.0,0.0005,-0.0005
A,2026-06-01 13:05:00,13,5,398.2,35.42,0.619,0.0,2,34.56,90,4,0,1.0,rainy,0,0,0.0,0.0026,-0.0026
A,2026-06-01 13:10:00,13,10,268.22,39.45,0.473,0.0,1,36.67,90,4,0,1.0,sunny,0,0,0.0,0.0001,-0.0001
A,2026-06-01 13:15:00,13,15,282.81,41.4,0.506,0.0,2,31.74,90,4,0,1.0,sunny,0,0,0.0,0.0016,-0.0016
A,2026-06-01 13:20:00,13,20,291.24,46.24,0.456,0.0,1,35.95,90,4,0,1.0,sunny,0,0,0.0,0.0001,-0.0001
A,2026-06-01 13:25:00,13,25,364.77,38.63,0.553,0.0,3,22.95,90,4,0,1.0,rainy,0,0,0.0,2.2006,-2.2006
A,2026-06-01 13:30:00,13,30,325.95,44.48,0.548,0.0,4,30.81,90,4,0,1.0,sunny,0,0,0.0,0.0074,-0.0074
A,2026-06-01 13:35:00,13,35,322.43,39.77,0.498,0.0,2,26.74,90,4,0,1.0,sunny,0,0,0.0,0.0745,-0.0745
A,2026-06-01 13:40:00,13,40,313.71,44.57,0.509,0.0,2,37.58,90,4,0,1.0,cloudy,0,0,0.0,0.0001,-0.0001
A,2026-06-01 13:45:00,13,45,319.7,34.62,0.547,0.0,4,38.81,90,4,0,1.0,cloudy,0,0,0.0,0.0001,-0.0001
A,2026-06-01 13:50:00,13,50,290.71,37.86,0.475,0.0,4,37.23,90,4,0,1.0,sunny,0,0,0.0,0.0001,-0.0001
A,2026-06-01 13:55:00,13,55,273.72,42.07,0.465,0.0,3,42.26,90,4,0,1.0,sunny,0,0,0.0,0.0001,-0.0001
A,2026-06-01 14:00:00,14,0,366.92,34.21,0.631,0.0,4,32.94,90,4,0,1.0,rainy,0,0,0.0,0.0019,-0.0019
A,2026-06-01 14:05:00,14,5,336.99,40.17,0.496,0.0,2,32.97,90,4,0,1.0,sunny,0,0,0.0,0.0006,-0.0006
A,2026-06-01 14:10:00,14,10,286.61,44.52,0.449,0.0,3,37.62,90,4,0,1.0,cloudy,0,0,0.0,0.0001,-0.0001
A,2026-06-01 14:15:00,14,15,279.25,35.71,0.504,0.0,1,34.29,90,4,0,1.0,sunny,0,0,0.0,0.0001,-0.0001
A,2026-06-01 14:20:00,14,20,345.84,41.87,0.532,0.0,2,43.34,90,4,0,1.0,cloudy,0,0,0.0,0.0001,-0.0001
A,2026-06-01 14:25:00,14,25,289.55,36.27,0.488,0.0,1,41.06,90,4,0,1.0,sunny,0,0,0.0,0.0001,-0.0001
A,2026-06-01 14:30:00,14,30,279.15,44.22,0.437,0.0,2,26.47,90,4,0,1.0,sunny,0,0,0.0,0.0144,-0.0144
A,2026-06-01 14:35:00,14,35,373.2,34.91,0.576,0.0,4,36.36,90,4,0,1.0,rainy,0,0,0.0,0.0001,-0.0001
A,2026-06-01 14:40:00,14,40,333.65,42.18,0.545,0.0,1,36.94,90,4,0,1.0,sunny,0,0,0.0,0.0001,-0.0001
A,2026-06-01 14:45:00,14,45,298.45,43.55,0.494,0.0,3,32.82,90,4,0,1.0,cloudy,0,0,0.0,0.0002,-0.0002
A,2026-06-01 14:50:00,14,50,349.0,31.52,0.597,0.0,4,33.77,90,4,0,1.0,rainy,0,0,0.0,0.0152,-0.0152
A,2026-06-01 14:55:00,14,55,239.59,42.92,0.41,0.0,3,30.18,90,4,0,1.0,sunny,0,0,0.0,0.0009,-0.0009
A,2026-06-01 15:00:00,15,0,265.38,39.97,0.439,0.0,3,40.25,90,4,0,1.0,sunny,0,0,0.0,0.0001,-0.0001
A,2026-06-01 15:05:00,15,5,298.95,37.06,0.53,0.0,2,34.93,90,4,0,1.0,sunny,0,0,0.0,0.0001,-0.0001
A,2026-06-01 15:10:00,15,10,261.68,39.24,0.453,0.0,1,38.43,90,4,0,1.0,sunny,0,0,0.0,0.0001,-0.0001
A,2026-06-01 15:15:00,15,15,240.39,47.88,0.411,0.0,2,27.52,90,4,0,1.0,sunny,0,0,0.0,0.0069,-0.0069
A,2026-06-01 15:20:00,15,20,286.08,42.79,0.495,0.0,2,37.24,90,4,0,1.0,cloudy,0,0,0.0,0.0001,-0.0001
A,2026-06-01 15:25:00,15,25,312.04,34.78,0.549,0.0,2,38.89,90,4,0,1.0,cloudy,0,0,0.0,0.0001,-0.0001
A,2026-06-01 15:30:00,15,30,309.75,43.1,0.525,0.0,1,25.7,90,4,0,1.0,sunny,0,0,0.0,0.1143,-0.1143
A,2026-06-01 15:35:00,15,35,278.57,40.53,0.485,0.0,3,30.53,90,4,0,1.0,sunny,0,0,0.0,0.0009,-0.0009
A,2026-06-01 15:40:00,15,40,321.7,41.19,0.562,0.0,1,30.4,90,4,0,1.0,sunny,0,0,0.0,0.0014,-0.0014
A,2026-06-01 15:45:00,15,45,298.71,41.25,0.528,0.0,2,38.7,90,4,0,1.0,sunny,0,0,0.0,0.0001,-0.0001
A,2026-06-01 15:50:00,15,50,274.88,44.19,0.532,0.0,3,43.41,90,4,0,1.0,sunny,0,0,0.0,0.0001,-0.0001
A,2026-06-01 15:55:00,15,55,286.24,43.29,0.461,0.0,3,36.01,90,4,0,1.0,sunny,0,0,0.0,0.0001,-0.0001
A,2026-06-01 16:00:00,16,0,307.86,39.74,0.546,0.0,4,43.99,90,4,0,1.0,cloudy,0,0,0.0,0.0001,-0.0001
A,2026-06-01 16:05:00,16,5,304.82,38.45,0.511,0.0,1,29.59,90,4,0,1.0,cloudy,0,0,0.0,0.0114,-0.0114
A,2026-06-01 16:10:00,16,10,293.83,43.27,0.532,0.0,4,34.39,90,4,0,1.0,sunny,0,0,0.0,0.0001,-0.0001
A,2026-06-01 16:15:00,16,15,269.1,42.61,0.483,0.0,4,29.58,90,4,0,1.0,sunny,0,0,0.0,0.0045,-0.0045
A,2026-06-01 16:20:00,16,20,283.36,40.49,0.497,0.0,3,33.4,90,4,0,1.0,sunny,0,0,0.0,0.0001,-0.0001
A,2026-06-01 16:25:00,16,25,275.92,40.06,0.49,0.0,4,31.86,90,4,0,1.0,sunny,0,0,0.0,0.0034,-0.0034
A,2026-06-01 16:30:00,16,30,263.21,36.58,0.431,0.0,2,42.19,90,4,0,1.0,sunny,0,0,0.0,0.0001,-0.0001
A,2026-06-01 16:35:00,16,35,309.5,31.36,0.558,0.0,1,34.41,90,4,0,1.0,cloudy,0,0,0.0,0.0139,-0.0139
A,2026-06-01 16:40:00,16,40,263.44,41.72,0.439,0.0,4,31.24,90,4,0,1.0,sunny,0,0,0.0,0.0101,-0.0101
A,2026-06-01 16:45:00,16,45,350.78,44.24,0.572,0.0,4,44.53,90,4,0,1.0,rainy,0,0,0.0,0.0001,-0.0001
A,2026-06-01 16:50:00,16,50,293.31,44.45,0.481,0.0,2,39.26,90,4,0,1.0,sunny,0,0,0.0,0.0001,-0.0001
A,2026-06-01 16:55:00,16,55,304.17,40.39,0.523,0.0,3,35.16,90,4,0,1.0,sunny,0,0,0.0,0.0001,-0.0001
A,2026-06-01 17:00:00,17,0,465.01,36.21,0.665,0.0,1,37.09,90,4,1,1.0,rainy,0,0,0.0,0.0016,-0.0016
A,2026-06-01 17:05:00,17,5,419.62,35.29,0.641,0.0,4,35.29,90,4,1,1.0,sunny,0,0,0.0,0.0001,-0.0001
A,2026-06-01 17:10:00,17,10,382.84,33.65,0.553,0.0,1,42.32,90,4,1,1.0,sunny,0,0,0.0,0.0001,-0.0001
A,2026-06-01 17:15:00,17,15,400.93,39.98,0.638,0.0,4,41.86,90,4,1,1.0,sunny,0,0,0.0,0.0006,-0.0006
A,2026-06-01 17:20:00,17,20,413.37,29.77,0.633,0.0,2,48.22,90,4,1,1.0,cloudy,0,0,0.0,0.0232,-0.0232
A,2026-06-01 17:25:00,17,25,391.85,36.67,0.621,0.0,1,39.96,90,4,1,1.0,sunny,0,0,0.0,0.0001,-0.0001
A,2026-06-01 17:30:00,17,30,385.75,37.82,0.625,0.0,3,34.32,90,4,1,1.0,sunny,0,0,0.0,0.0002,-0.0002
A,2026-06-01 17:35:00,17,35,390.56,34.04,0.612,0.0,2,52.3,90,4,1,1.0,sunny,0,0,0.0,0.0001,-0.0001
A,2026-06-01 17:40:00,17,40,420.2,40.17,0.636,0.0,3,44.78,90,4,1,1.0,cloudy,0,0,0.0,0.0001,-0.0001
A,2026-06-01 17:45:00,17,45,415.98,30.04,0.69,0.0,2,44.65,90,4,1,1.0,cloudy,0,0,0.0,0.0046,-0.0046
A,2026-06-01 17:50:00,17,50,437.62,34.01,0.732,0.0,1,41.17,90,4,1,1.0,cloudy,0,0,0.0,0.0165,-0.0165
A,2026-06-01 17:55:00,17,55,404.51,40.33,0.649,0.0,4,42.03,90,4,1,1.0,sunny,0,0,0.0,0.0001,-0.0001
A,2026-06-01 18:00:00,18,0,414.79,38.67,0.676,0.0,4,41.56,90,4,1,1.0,sunny,0,0,0.0,0.0001,-0.0001
A,2026-06-01 18:05:00,18,5,412.82,35.62,0.654,0.0,1,48.0,90,4,1,1.0,sunny,0,0,0.0,0.0001,-0.0001
A,2026-06-01 18:10:00,18,10,442.9,36.97,0.695,0.0,4,33.38,90,4,1,1.0,cloudy,0,0,0.0,0.0499,-0.0499
A,2026-06-01 18:15:00,18,15,430.41,34.45,0.734,0.0,3,39.58,90,4,1,1.0,sunny,0,0,0.0,0.0141,-0.0141
A,2026-06-01 18:20:00,18,20,405.62,33.11,0.636,0.0,3,41.45,90,4,1,1.0,sunny,0,0,0.0,0.0005,-0.0005
A,2026-06-01 18:25:00,18,25,421.49,36.56,0.647,0.0,2,42.17,90,4,1,1.0,sunny,0,0,0.0,0.0001,-0.0001
A,2026-06-01 18:30:00,18,30,415.25,32.94,0.636,0.0,2,47.52,90,4,1,1.0,cloudy,0,0,0.0,0.0001,-0.0001
A,2026-06-01 18:35:00,18,35,404.63,37.71,0.658,0.0,3,43.15,90,4,1,1.0,cloudy,0,0,0.0,0.0001,-0.0001
A,2026-06-01 18:40:00,18,40,409.62,35.84,0.632,0.0,3,45.02,90,4,1,1.0,sunny,0,0,0.0,0.0001,-0.0001
A,2026-06-01 18:45:00,18,45,471.13,36.12,0.712,0.0,3,48.57,90,4,1,1.0,cloudy,0,0,0.0,0.009,-0.009
A,2026-06-01 18:50:00,18,50,405.62,36.54,0.615,0.0,2,41.7,90,4,1,1.0,sunny,0,0,0.0,0.0001,-0.0001
A,2026-06-01 18:55:00,18,55,409.8,39.61,0.631,0.0,2,45.35,90,4,1,1.0,sunny,0,0,0.0,0.0001,-0.0001
A,2026-06-01 19:00:00,19,0,431.85,34.1,0.637,0.0,1,33.72,90,4,1,1.0,sunny,0,0,0.0,0.0186,-0.0186
A,2026-06-01 19:05:00,19,5,396.26,38.15,0.636,0.0,4,45.1,90,4,1,1.0,sunny,0,0,0.0,0.0001,-0.0001
A,2026-06-01 19:10:00,19,10,360.84,38.63,0.584,0.0,4,31.1,90,4,1,1.0,sunny,0,0,0.0,0.0059,-0.0059
A,2026-06-01 19:15:00,19,15,439.3,34.05,0.692,0.0,4,39.5,90,4,1,1.0,cloudy,0,0,0.0,0.0075,-0.0075
A,2026-06-01 19:20:00,19,20,391.84,41.36,0.592,0.0,1,45.39,90,4,1,1.0,sunny,0,0,0.0,0.0001,-0.0001
A,2026-06-01 19:25:00,19,25,387.75,39.85,0.599,0.0,4,37.7,90,4,1,1.0,sunny,0,0,0.0,0.0001,-0.0001
A,2026-06-01 19:30:00,19,30,410.4,30.82,0.716,0.0,4,42.55,90,4,1,1.0,cloudy,0,0,0.0,0.0131,-0.0131
A,2026-06-01 19:35:00,19,35,411.22,36.15,0.657,0.0,4,42.59,90,4,1,1.0,sunny,0,0,0.0,0.0001,-0.0001
A,2026-06-01 19:40:00,19,40,457.88,37.68,0.667,0.0,3,41.7,90,4,1,1.0,cloudy,0,0,0.0,0.005,-0.005
A,2026-06-01 19:45:00,19,45,399.06,32.81,0.622,0.0,1,36.43,90,4,1,1.0,sunny,0,0,0.0,0.0001,-0.0001
A,2026-06-01 19:50:00,19,50,429.38,35.9,0.708,0.0,2,39.07,90,4,1,1.0,sunny,0,0,0.0,0.0014,-0.0014
A,2026-06-01 19:55:00,19,55,504.99,29.98,0.744,0.0,3,42.55,90,4,1,1.0,rainy,0,0,0.0,0.0542,-0.0542
A,2026-06-01 20:00:00,20,0,215.47,43.43,0.432,0.0,3,35.04,90,4,0,1.0,sunny,0,0,0.0,0.0001,-0.0001
A,2026-06-01 20:05:00,20,5,237.34,45.33,0.45,0.0,3,42.9,90,4,0,1.0,cloudy,0,0,0.0,0.0001,-0.0001
A,2026-06-01 20:10:00,20,10,233.28,45.99,0.397,0.0,1,37.6,90,4,0,1.0,sunny,0,0,0.0,0.0001,-0.0001
A,2026-06-01 20:15:00,20,15,264.75,39.84,0.512,0.0,1,39.2,90,4,0,1.0,cloudy,0,0,0.0,0.0001,-0.0001
A,2026-06-01 20:20:00,20,20,240.72,44.07,0.428,0.0,3,40.67,90,4,0,1.0,cloudy,0,0,0.0,0.0001,-0.0001
A,2026-06-01 20:25:00,20,25,221.06,43.02,0.408,0.0,4,31.25,90,4,0,1.0,sunny,0,0,0.0,0.0137,-0.0137
A,2026-06-01 20:30:00,20,30,236.71,42.81,0.407,0.0,1,24.51,90,4,0,1.0,cloudy,0,0,0.0,0.0078,-0.0078
A,2026-06-01 20:35:00,20,35,217.7,43.55,0.413,0.0,1,41.44,90,4,0,1.0,sunny,0,0,0.0,0.0001,-0.0001
A,2026-06-01 20:40:00,20,40,310.63,40.86,0.506,0.0,2,24.99,90,4,0,1.0,rainy,0,0,0.0,0.2169,-0.2169
A,2026-06-01 20:45:00,20,45,213.32,43.32,0.437,0.0,2,40.1,90,4,0,1.0,sunny,0,0,0.0,0.0001,-0.0001
A,2026-06-01 20:50:00,20,50,209.77,48.17,0.402,0.0,1,35.55,90,4,0,1.0,sunny,0,0,0.0,0.0001,-0.0001
A,2026-06-01 20:55:00,20,55,197.26,39.86,0.379,0.0,2,33.18,90,4,0,1.0,sunny,0,0,0.0,0.0001,-0.0001
A,2026-06-01 21:00:00,21,0,270.15,38.58,0.463,0.0,2,32.94,90,4,0,1.0,sunny,0,0,0.0,0.0002,-0.0002
A,2026-06-01 21:05:00,21,5,201.04,43.1,0.343,0.0,3,34.58,90,4,0,1.0,sunny,0,0,0.0,0.0001,-0.0001
A,2026-06-01 21:10:00,21,10,229.35,45.66,0.401,0.0,1,39.27,90,4,0,1.0,sunny,0,0,0.0,0.0001,-0.0001
A,2026-06-01 21:15:00,21,15,214.68,42.65,0.426,0.0,2,36.83,90,4,0,1.0,sunny,0,0,0.0,0.0001,-0.0001
A,2026-06-01 21:20:00,21,20,215.87,38.22,0.468,0.0,2,44.67,90,4,0,1.0,sunny,0,0,0.0,0.0001,-0.0001
A,2026-06-01 21:25:00,21,25,199.83,45.75,0.375,0.0,1,28.39,90,4,0,1.0,sunny,0,0,0.0,0.0023,-0.0023
A,2026-06-01 21:30:00,21,30,225.2,42.21,0.489,0.0,2,30.6,90,4,0,1.0,cloudy,0,0,0.0,0.0016,-0.0016
A,2026-06-01 21:35:00,21,35,217.28,41.59,0.331,0.0,2,31.43,90,4,0,1.0,sunny,0,0,0.0,0.0015,-0.0015
A,2026-06-01 21:40:00,21,40,197.09,44.33,0.425,0.0,1,34.78,90,4,0,1.0,sunny,0,0,0.0,0.0001,-0.0001
A,2026-06-01 21:45:00,21,45,231.48,45.19,0.41,0.0,4,38.64,90,4,0,1.0,sunny,0,0,0.0,0.0001,-0.0001
A,2026-06-01 21:50:00,21,50,198.54,41.48,0.398,0.0,2,35.43,90,4,0,1.0,sunny,0,0,0.0,0.0001,-0.0001
A,2026-06-01 21:55:00,21,55,233.36,38.88,0.468,0.0,2,42.76,90,4,0,1.0,sunny,0,0,0.0,0.0001,-0.0001
A,2026-06-01 22:00:00,22,0,241.9,43.68,0.386,0.0,4,32.94,90,4,0,1.0,sunny,0,0,0.0,0.0002,-0.0002
A,2026-06-01 22:05:00,22,5,251.34,39.93,0.461,0.0,3,31.02,90,4,0,1.0,sunny,0,0,0.0,0.0009,-0.0009
A,2026-06-01 22:10:00,22,10,220.23,42.85,0.444,0.0,3,32.59,90,4,0,1.0,sunny,0,0,0.0,0.0002,-0.0002
A,2026-06-01 22:15:00,22,15,220.01,46.1,0.389,0.0,1,34.42,90,4,0,1.0,sunny,0,0,0.0,0.0001,-0.0001
A,2026-06-01 22:20:00,22,20,306.99,38.3,0.53,0.0,3,33.13,90,4,0,1.0,rainy,0,0,0.0,0.0004,-0.0004
A,2026-06-01 22:25:00,22,25,253.4,46.05,0.448,0.0,4,36.82,90,4,0,1.0,sunny,0,0,0.0,0.0001,-0.0001
A,2026-06-01 22:30:00,22,30,236.92,43.88,0.395,0.0,2,36.25,90,4,0,1.0,sunny,0,0,0.0,0.0001,-0.0001
A,2026-06-01 22:35:00,22,35,224.39,37.2,0.407,0.0,1,32.8,90,4,0,1.0,sunny,0,0,0.0,0.0002,-0.0002
A,2026-06-01 22:40:00,22,40,207.17,44.81,0.37,0.0,4,29.21,90,4,0,1.0,cloudy,0,0,0.0,0.0158,-0.0158
A,2026-06-01 22:45:00,22,45,253.76,41.37,0.38,0.0,4,33.74,90,4,0,1.0,cloudy,0,0,0.0,0.0001,-0.0001
A,2026-06-01 22:50:00,22,50,214.05,45.39,0.387,0.0,1,39.02,90,4,0,1.0,sunny,0,0,0.0,0.0001,-0.0001
A,2026-06-01 22:55:00,22,55,234.62,47.74,0.387,0.0,1,36.88,90,4,0,1.0,cloudy,0,0,0.0,0.0001,-0.0001
A,2026-06-01 23:00:00,23,0,178.31,44.88,0.393,0.0,4,36.14,90,4,0,1.0,rainy,0,0,0.0,0.0001,-0.0001
A,2026-06-01 23:05:00,23,5,157.84,49.03,0.307,0.0,3,25.61,90,4,0,1.0,sunny,0,0,0.0,0.0022,-0.0022
A,2026-06-01 23:10:00,23,10,191.63,41.44,0.461,0.0,1,38.29,90,4,0,1.0,cloudy,0,0,0.0,0.0001,-0.0001
A,2026-06-01 23:15:00,23,15,151.78,53.5,0.301,0.0,1,32.37,90,4,0,1.0,sunny,0,0,0.0,0.0001,-0.0001
A,2026-06-01 23:20:00,23,20,197.07,39.83,0.403,0.0,3,33.74,90,4,0,1.0,rainy,0,0,0.0,0.0001,-0.0001
A,2026-06-01 23:25:00,23,25,163.76,44.49,0.331,0.0,4,33.12,90,4,0,1.0,cloudy,0,0,0.0,0.0002,-0.0002
A,2026-06-01 23:30:00,23,30,161.33,46.83,0.332,0.0,1,39.31,90,4,0,1.0,sunny,0,0,0.0,0.0001,-0.0001
A,2026-06-01 23:35:00,23,35,167.91,48.92,0.306,0.0,4,39.8,90,4,0,1.0,sunny,0,0,0.0,0.0001,-0.0001
A,2026-06-01 23:40:00,23,40,153.95,46.35,0.34,0.0,4,37.78,90,4,0,1.0,cloudy,0,0,0.0,0.0001,-0.0001
A,2026-06-01 23:45:00,23,45,121.41,41.6,0.291,0.0,4,33.41,90,4,0,1.0,rainy,0,0,0.0,0.0004,-0.0004
A,2026-06-01 23:50:00,23,50,121.27,51.72,0.275,0.0,3,30.42,90,4,0,1.0,sunny,0,0,0.0,0.0006,-0.0006
A,2026-06-01 23:55:00,23,55,105.58,46.2,0.295,0.0,4,44.31,90,4,0,1.0,sunny,0,0,0.0,0.0001,-0.0001
A,2026-06-02 00:00:00,0,0,178.09,43.49,0.349,0.0,3,33.98,90,4,0,1.0,cloudy,0,0,0.0,0.0001,-0.0001
A,2026-06-02 00:05:00,0,5,167.47,43.49,0.366,0.0,1,34.96,90,4,0,1.0,cloudy,0,0,0.0,0.0001,-0.0001
A,2026-06-02 00:10:00,0,10,179.66,45.88,0.432,0.0,1,30.74,90,4,0,1.0,cloudy,0,0,0.0,0.0042,-0.0042
A,2026-06-02 00:15:00,0,15,138.66,50.02,0.328,0.0,2,33.95,90,4,0,1.0,sunny,0,0,0.0,0.0001,-0.0001
A,2026-06-02 00:20:00,0,20,195.24,42.8,0.407,0.0,4,38.27,90,4,0,1.0,rainy,0,0,0.0,0.0001,-0.0001
A,2026-06-02 00:25:00,0,25,110.29,45.84,0.28,0.0,1,36.18,90,4,0,1.0,sunny,0,0,0.0,0.0001,-0.0001
A,2026-06-02 00:30:00,0,30,165.42,50.73,0.307,0.0,4,36.8,90,4,0,1.0,sunny,0,0,0.0,0.0001,-0.0001
A,2026-06-02 00:35:00,0,35,189.52,42.91,0.368,0.0,2,42.58,90,4,0,1.0,sunny,0,0,0.0,0.0001,-0.0001
A,2026-06-02 00:40:00,0,40,152.34,52.68,0.329,0.0,3,42.34,90,4,0,1.0,cloudy,0,0,0.0,0.0001,-0.0001
A,2026-06-02 00:45:00,0,45,150.15,43.8,0.308,0.0,4,39.81,90,4,0,1.0,sunny,0,0,0.0,0.0001,-0.0001
A,2026-06-02 00:50:00,0,50,155.25,41.48,0.293,0.0,1,28.2,90,4,0,1.0,cloudy,0,0,0.0,0.0056,-0.0056
A,2026-06-02 00:55:00,0,55,142.73,45.68,0.316,0.0,3,23.7,90,4,0,1.0,sunny,0,0,0.0,0.0044,-0.0044
A,2026-06-02 01:00:00,1,0,146.63,45.74,0.343,0.0,2,37.25,90,4,0,1.0,cloudy,0,0,0.0,0.0001,-0.0001
A,2026-06-02 01:05:00,1,5,162.56,47.48,0.304,0.0,1,39.39,90,4,0,1.0,rainy,0,0,0.0,0.0001,-0.0001
A,2026-06-02 01:10:00,1,10,142.55,43.0,0.31,0.0,3,29.64,90,4,0,1.0,sunny,0,0,0.0,0.0001,-0.0001
A,2026-06-02 01:15:00,1,15,192.99,42.92,0.365,0.0,3,29.09,90,4,0,1.0,rainy,0,0,0.0,0.003,-0.003
A,2026-06-02 01:20:00,1,20,138.77,52.17,0.315,0.0,2,24.46,90,4,0,1.0,sunny,0,0,0.0,0.006,-0.006
A,2026-06-02 01:25:00,1,25,153.96,42.26,0.275,0.0,2,39.48,90,4,0,1.0,sunny,0,0,0.0,0.0001,-0.0001
A,2026-06-02 01:30:00,1,30,180.68,37.55,0.329,0.0,3,25.33,90,4,0,1.0,cloudy,0,0,0.0,0.092,-0.092
A,2026-06-02 01:35:00,1,35,145.95,44.38,0.361,0.0,3,40.39,90,4,0,1.0,cloudy,0,0,0.0,0.0001,-0.0001
A,2026-06-02 01:40:00,1,40,154.11,52.63,0.3,0.0,2,39.91,90,4,0,1.0,sunny,0,0,0.0,0.0001,-0.0001
A,2026-06-02 01:45:00,1,45,145.0,43.87,0.369,0.0,3,30.35,90,4,0,1.0,rainy,0,0,0.0,0.0086,-0.0086
A,2026-06-02 01:50:00,1,50,140.9,45.15,0.266,0.0,4,33.82,90,4,0,1.0,sunny,0,0,0.0,0.0001,-0.0001
A,2026-06-02 01:55:00,1,55,111.66,46.44,0.267,0.0,3,31.38,90,4,0,1.0,sunny,0,0,0.0,0.0015,-0.0015
A,2026-06-02 02:00:00,2,0,164.18,44.23,0.343,0.0,3,39.05,90,4,0,1.0,rainy,0,0,0.0,0.0001,-0.0001
A,2026-06-02 02:05:00,2,5,155.81,42.61,0.318,0.0,1,30.3,90,4,0,1.0,rainy,0,0,0.0,0.0006,-0.0006
A,2026-06-02 02:10:00,2,10,111.26,46.74,0.294,0.0,3,33.9,90,4,0,1.0,sunny,0,0,0.0,0.0001,-0.0001
A,2026-06-02 02:15:00,2,15,143.59,48.87,0.256,0.0,2,40.14,90,4,0,1.0,sunny,0,0,0.0,0.0001,-0.0001
A,2026-06-02 02:20:00,2,20,154.0,39.95,0.286,0.0,4,34.4,90,4,0,1.0,sunny,0,0,0.0,0.0001,-0.0001
A,2026-06-02 02:25:00,2,25,133.89,46.96,0.268,0.0,1,28.07,90,4,0,1.0,sunny,0,0,0.0,0.0007,-0.0007
A,2026-06-02 02:30:00,2,30,163.49,40.78,0.394,0.0,3,36.19,90,4,0,1.0,cloudy,0,0,0.0,0.0001,-0.0001
A,2026-06-02 02:35:00,2,35,168.29,49.48,0.343,0.0,2,27.89,90,4,0,1.0,sunny,0,0,0.0,0.0002,-0.0002
A,2026-06-02 02:40:00,2,40,174.4,45.02,0.352,0.0,3,36.44,90,4,0,1.0,rainy,0,0,0.0,0.0001,-0.0001
A,2026-06-02 02:45:00,2,45,165.08,47.72,0.295,0.0,4,49.57,90,4,0,1.0,cloudy,0,0,0.0,0.0001,-0.0001
A,2026-06-02 02:50:00,2,50,143.93,49.2,0.328,0.0,2,40.88,90,4,0,1.0,sunny,0,0,0.0,0.0001,-0.0001
A,2026-06-02 02:55:00,2,55,150.5,44.28,0.294,0.0,4,40.39,90,4,0,1.0,sunny,0,0,0.0,0.0001,-0.0001
A,2026-06-02 03:00:00,3,0,148.66,45.01,0.358,0.0,1,26.17,90,4,0,1.0,sunny,0,0,0.0,0.0018,-0.0018
A,2026-06-02 03:05:00,3,5,188.81,39.43,0.396,0.0,4,22.93,90,4,0,1.0,rainy,0,0,0.0,0.1947,-0.1947
A,2026-06-02 03:10:00,3,10,166.39,49.45,0.334,0.0,4,31.53,90,4,0,1.0,sunny,0,0,0.0,0.0009,-0.0009
A,2026-06-02 03:15:00,3,15,174.02,39.35,0.37,0.0,2,27.16,90,4,0,1.0,rainy,0,0,0.0,0.0002,-0.0002
A,2026-06-02 03:20:00,3,20,202.18,46.07,0.447,0.0,2,34.49,90,4,0,1.0,cloudy,0,0,0.0,0.0001,-0.0001
A,2026-06-02 03:25:00,3,25,143.04,46.31,0.301,0.0,2,36.41,90,4,0,1.0,sunny,0,0,0.0,0.0001,-0.0001
A,2026-06-02 03:30:00,3,30,163.44,45.57,0.376,0.0,1,26.92,90,4,0,1.0,cloudy,0,0,0.0,0.0008,-0.0008
A,2026-06-02 03:35:00,3,35,112.99,51.14,0.269,0.0,4,29.87,90,4,0,1.0,sunny,0,0,0.0,0.0013,-0.0013
A,2026-06-02 03:40:00,3,40,132.23,44.02,0.335,0.0,4,34.29,90,4,0,1.0,sunny,0,0,0.0,0.0001,-0.0001
A,2026-06-02 03:45:00,3,45,143.8,44.23,0.335,0.0,1,28.75,90,4,0,1.0,cloudy,0,0,0.0,0.0056,-0.0056
A,2026-06-02 03:50:00,3,50,147.07,38.76,0.331,0.0,2,32.53,90,4,0,1.0,sunny,0,0,0.0,0.0002,-0.0002
A,2026-06-02 03:55:00,3,55,133.93,44.95,0.341,0.0,4,36.3,90,4,0,1.0,sunny,0,0,0.0,0.0001,-0.0001
A,2026-06-02 04:00:00,4,0,155.82,43.71,0.341,0.0,1,29.94,90,4,0,1.0,sunny,0,0,0.0,0.0001,-0.0001
A,2026-06-02 04:05:00,4,5,116.23,46.08,0.248,0.0,1,40.24,90,4,0,1.0,sunny,0,0,0.0,0.0001,-0.0001
A,2026-06-02 04:10:00,4,10,144.95,45.98,0.326,0.0,3,32.35,90,4,0,1.0,sunny,0,0,0.0,0.0001,-0.0001
A,2026-06-02 04:15:00,4,15,138.71,49.32,0.301,0.0,4,27.79,90,4,0,1.0,sunny,0,0,0.0,0.0002,-0.0002
A,2026-06-02 04:20:00,4,20,126.6,46.82,0.346,0.0,4,33.06,90,4,0,1.0,sunny,0,0,0.0,0.0002,-0.0002
A,2026-06-02 04:25:00,4,25,163.26,43.58,0.355,0.0,2,32.12,90,4,0,1.0,rainy,0,0,0.0,0.0024,-0.0024
A,2026-06-02 04:30:00,4,30,166.37,46.17,0.383,0.0,1,32.17,90,4,0,1.0,rainy,0,0,0.0,0.0024,-0.0024
A,2026-06-02 04:35:00,4,35,122.39,45.34,0.262,0.0,2,35.35,90,4,0,1.0,sunny,0,0,0.0,0.0001,-0.0001
A,2026-06-02 04:40:00,4,40,121.96,43.24,0.322,0.0,1,28.92,90,4,0,1.0,sunny,0,0,0.0,0.0001,-0.0001
A,2026-06-02 04:45:00,4,45,136.78,42.26,0.316,0.0,2,32.74,90,4,0,1.0,sunny,0,0,0.0,0.0002,-0.0002
A,2026-06-02 04:50:00,4,50,148.94,51.12,0.295,0.0,4,36.05,90,4,0,1.0,sunny,0,0,0.0,0.0001,-0.0001
A,2026-06-02 04:55:00,4,55,94.27,50.69,0.284,0.0,2,30.08,90,4,0,1.0,sunny,0,0,0.0,0.0038,-0.0038
A,2026-06-02 05:00:00,5,0,149.03,46.62,0.329,0.0,2,26.71,90,4,0,1.0,sunny,0,0,0.0,0.0154,-0.0154
A,2026-06-02 05:05:00,5,5,172.24,43.45,0.352,0.0,1,33.36,90,4,0,1.0,rainy,0,0,0.0,0.0004,-0.0004
A,2026-06-02 05:10:00,5,10,151.85,39.86,0.335,0.0,2,32.95,90,4,0,1.0,sunny,0,0,0.0,0.0002,-0.0002
A,2026-06-02 05:15:00,5,15,143.79,41.69,0.264,0.0,3,39.8,90,4,0,1.0,sunny,0,0,0.0,0.0001,-0.0001
A,2026-06-02 05:20:00,5,20,146.4,46.55,0.354,0.0,3,38.32,90,4,0,1.0,sunny,0,0,0.0,0.0001,-0.0001
A,2026-06-02 05:25:00,5,25,169.82,41.91,0.373,0.0,3,41.11,90,4,0,1.0,cloudy,0,0,0.0,0.0001,-0.0001
A,2026-06-02 05:30:00,5,30,174.18,44.49,0.381,0.0,2,33.87,90,4,0,1.0,sunny,0,0,0.0,0.0001,-0.0001
A,2026-06-02 05:35:00,5,35,154.57,44.65,0.342,0.0,4,35.44,90,4,0,1.0,sunny,0,0,0.0,0.0001,-0.0001
A,2026-06-02 05:40:00,5,40,131.25,43.72,0.263,0.0,3,39.39,90,4,0,1.0,sunny,0,0,0.0,0.0001,-0.0001
A,2026-06-02 05:45:00,5,45,156.38,43.07,0.358,0.0,1,33.08,90,4,0,1.0,rainy,0,0,0.0,0.0004,-0.0004
A,2026-06-02 05:50:00,5,50,156.44,48.82,0.333,0.0,1,31.54,90,4,0,1.0,sunny,0,0,0.0,0.0009,-0.0009
A,2026-06-02 05:55:00,5,55,156.11,47.44,0.38,0.0,1,29.58,90,4,0,1.0,sunny,0,0,0.0,0.0001,-0.0001
A,2026-06-02 06:00:00,6,0,138.82,48.55,0.324,0.0,3,33.15,90,4,0,1.0,sunny,0,0,0.0,0.0001,-0.0001
A,2026-06-02 06:05:00,6,5,154.86,49.32,0.281,0.0,4,29.68,90,4,0,1.0,rainy,0,0,0.0,0.0001,-0.0001
A,2026-06-02 06:10:00,6,10,110.48,47.78,0.269,0.0,3,42.11,90,4,0,1.0,sunny,0,0,0.0,0.0001,-0.0001
A,2026-06-02 06:15:00,6,15,121.73,49.65,0.249,0.0,1,36.0,90,4,0,1.0,sunny,0,0,0.0,0.0001,-0.0001
A,2026-06-02 06:20:00,6,20,120.26,42.59,0.277,0.0,3,33.67,90,4,0,1.0,sunny,0,0,0.0,0.0001,-0.0001
A,2026-06-02 06:25:00,6,25,121.49,47.63,0.328,0.0,1,32.23,90,4,0,1.0,sunny,0,0,0.0,0.001,-0.001
A,2026-06-02 06:30:00,6,30,131.22,48.09,0.293,0.0,3,35.74,90,4,0,1.0,cloudy,0,0,0.0,0.0001,-0.0001
A,2026-06-02 06:35:00,6,35,154.04,35.48,0.371,0.0,1,20.41,90,4,0,1.0,sunny,0,0,0.0,0.3335,-0.3335
A,2026-06-02 06:40:00,6,40,136.65,39.58,0.345,0.0,3,29.53,90,4,0,1.0,sunny,0,0,0.0,0.0,-0.0
A,2026-06-02 06:45:00,6,45,119.15,50.25,0.262,0.0,3,32.08,90,4,0,1.0,sunny,0,0,0.0,0.001,-0.001
A,2026-06-02 06:50:00,6,50,134.93,52.21,0.271,0.0,3,41.47,90,4,0,1.0,sunny,0,0,0.0,0.0001,-0.0001
A,2026-06-02 06:55:00,6,55,140.89,47.42,0.281,0.0,4,30.99,90,4,0,1.0,cloudy,0,0,0.0,0.0009,-0.0009
A,2026-06-02 07:00:00,7,0,427.65,34.58,0.636,0.0,2,38.24,90,4,1,1.0,cloudy,0,0,0.0,0.0006,-0.0006
A,2026-06-02 07:05:00,7,5,508.66,34.9,0.741,0.0,1,33.12,90,4,1,1.0,rainy,0,0,0.0,1.8496,-1.8496
A,2026-06-02 07:10:00,7,10,378.95,36.01,0.61,0.0,2,39.07,90,4,1,1.0,sunny,0,0,0.0,0.0001,-0.0001
A,2026-06-02 07:15:00,7,15,388.31,37.29,0.623,0.0,3,44.43,90,4,1,1.0,sunny,0,0,0.0,0.0001,-0.0001
A,2026-06-02 07:20:00,7,20,398.28,31.97,0.679,0.0,2,42.52,90,4,1,1.0,sunny,0,0,0.0,0.0001,-0.0001
A,2026-06-02 07:25:00,7,25,407.35,37.21,0.653,0.0,2,49.88,90,4,1,1.0,sunny,0,0,0.0,0.0039,-0.0039
A,2026-06-02 07:30:00,7,30,397.96,34.96,0.634,0.0,1,40.55,90,4,1,1.0,sunny,0,0,0.0,0.0001,-0.0001
A,2026-06-02 07:35:00,7,35,410.81,39.7,0.65,0.0,3,44.73,90,4,1,1.0,sunny,0,0,0.0,0.0001,-0.0001
A,2026-06-02 07:40:00,7,40,409.08,33.84,0.707,0.0,3,39.35,90,4,1,1.0,sunny,0,0,0.0,0.0012,-0.0012
A,2026-06-02 07:45:00,7,45,408.04,35.86,0.673,0.0,3,34.98,90,4,1,1.0,sunny,0,0,0.0,0.004,-0.004
A,2026-06-02 07:50:00,7,50,447.75,35.17,0.707,0.0,1,50.89,90,4,1,1.0,cloudy,0,0,0.0,0.0005,-0.0005
A,2026-06-02 07:55:00,7,55,402.44,38.22,0.65,0.0,2,38.7,90,4,1,1.0,sunny,0,0,0.0,0.0005,-0.0005
A,2026-06-02 08:00:00,8,0,437.84,39.02,0.631,0.0,4,35.33,90,4,1,1.0,cloudy,0,0,0.0,0.009,-0.009
A,2026-06-02 08:05:00,8,5,393.44,39.97,0.607,0.0,3,48.54,90,4,1,1.0,sunny,0,0,0.0,0.0001,-0.0001
A,2026-06-02 08:10:00,8,10,417.74,38.48,0.621,0.0,3,46.98,90,4,1,1.0,sunny,0,0,0.0,0.0001,-0.0001
A,2026-06-02 08:15:00,8,15,441.33,34.15,0.638,0.0,3,38.18,90,4,1,1.0,sunny,0,0,0.0,0.0004,-0.0004
A,2026-06-02 08:20:00,8,20,405.05,41.7,0.599,0.0,2,45.83,90,4,1,1.0,sunny,0,0,0.0,0.0001,-0.0001
A,2026-06-02 08:25:00,8,25,504.83,28.82,0.741,0.0,2,44.92,90,4,1,1.0,rainy,0,0,0.0,0.1309,-0.1309
A,2026-06-02 08:30:00,8,30,474.81,33.6,0.731,0.0,2,43.36,90,4,1,1.0,rainy,0,0,0.0,0.0015,-0.0015
A,2026-06-02 08:35:00,8,35,402.35,36.42,0.627,0.0,2,44.65,90,4,1,1.0,sunny,0,0,0.0,0.0005,-0.0005
A,2026-06-02 08:40:00,8,40,397.77,38.41,0.589,0.0,4,39.13,90,4,1,1.0,sunny,0,0,0.0,0.0001,-0.0001
A,2026-06-02 08:45:00,8,45,384.7,34.09,0.623,0.0,1,44.04,90,4,1,1.0,sunny,0,0,0.0,0.0001,-0.0001
A,2026-06-02 08:50:00,8,50,450.78,37.59,0.672,0.0,1,39.66,90,4,1,1.0,cloudy,0,0,0.0,0.0004,-0.0004
A,2026-06-02 08:55:00,8,55,437.88,38.36,0.678,0.0,3,46.09,90,4,1,1.0,cloudy,0,0,0.0,0.0048,-0.0048
A,2026-06-02 09:00:00,9,0,399.08,36.69,0.577,0.0,4,43.28,90,4,1,1.0,cloudy,0,0,0.0,0.0001,-0.0001
A,2026-06-02 09:05:00,9,5,493.51,32.7,0.711,0.0,4,49.0,90,4,1,1.0,rainy,0,0,0.0,0.0094,-0.0094
A,2026-06-02 09:10:00,9,10,412.93,35.74,0.66,0.0,3,42.99,90,4,1,1.0,sunny,0,0,0.0,0.0001,-0.0001
A,2026-06-02 09:15:00,9,15,407.3,36.78,0.655,0.0,2,45.86,90,4,1,1.0,sunny,0,0,0.0,0.0001,-0.0001
A,2026-06-02 09:20:00,9,20,402.44,38.98,0.617,0.0,1,53.03,90,4,1,1.0,sunny,0,0,0.0,0.0005,-0.0005
A,2026-06-02 09:25:00,9,25,449.76,33.02,0.699,0.0,1,40.11,90,4,1,1.0,sunny,0,0,0.0,0.0008,-0.0008
A,2026-06-02 09:30:00,9,30,419.93,35.77,0.651,0.0,1,48.3,90,4,1,1.0,sunny,0,0,0.0,0.0001,-0.0001
A,2026-06-02 09:35:00,9,35,388.61,41.34,0.588,0.0,4,38.53,90,4,1,1.0,sunny,0,0,0.0,0.0001,-0.0001
A,2026-06-02 09:40:00,9,40,401.73,38.88,0.6,0.0,1,37.77,90,4,1,1.0,sunny,0,0,0.0,0.0005,-0.0005
A,2026-06-02 09:45:00,9,45,386.81,36.86,0.592,0.0,3,45.39,90,4,1,1.0,sunny,0,0,0.0,0.0001,-0.0001
A,2026-06-02 09:50:00,9,50,446.82,39.02,0.704,0.0,2,45.17,90,4,1,1.0,cloudy,0,0,0.0,0.0005,-0.0005
A,2026-06-02 09:55:00,9,55,420.47,34.15,0.629,0.0,4,38.92,90,4,1,1.0,cloudy,0,0,0.0,0.0001,-0.0001
A,2026-06-02 10:00:00,10,0,292.7,42.35,0.516,0.0,4,37.41,90,4,0,1.0,sunny,0,0,0.0,0.0001,-0.0001
A,2026-06-02 10:05:00,10,5,290.69,36.65,0.469,0.0,2,25.69,90,4,0,1.0,sunny,0,0,0.0,0.0724,-0.0724
A,2026-06-02 10:10:00,10,10,276.63,38.1,0.504,0.0,4,37.74,90,4,0,1.0,sunny,0,0,0.0,0.0001,-0.0001
A,2026-06-02 10:15:00,10,15,289.46,41.27,0.492,0.0,2,25.72,90,4,0,1.0,sunny,0,0,0.0,0.0273,-0.0273
A,2026-06-02 10:20:00,10,20,275.21,44.29,0.498,0.0,4,35.45,90,4,0,1.0,sunny,0,0,0.0,0.0001,-0.0001
A,2026-06-02 10:25:00,10,25,317.63,42.86,0.518,0.0,4,38.05,90,4,0,1.0,cloudy,0,0,0.0,0.0001,-0.0001
A,2026-06-02 10:30:00,10,30,321.57,39.69,0.536,0.0,2,35.07,90,4,0,1.0,sunny,0,0,0.0,0.0001,-0.0001
A,2026-06-02 10:35:00,10,35,310.73,37.9,0.525,0.0,3,31.16,90,4,0,1.0,cloudy,0,0,0.0,0.0051,-0.0051
A,2026-06-02 10:40:00,10,40,289.02,42.31,0.505,0.0,3,45.93,90,4,0,1.0,sunny,0,0,0.0,0.0001,-0.0001
A,2026-06-02 10:45:00,10,45,317.66,40.89,0.5,0.0,1,30.38,90,4,0,1.0,sunny,0,0,0.0,0.0017,-0.0017
A,2026-06-02 10:50:00,10,50,279.9,45.39,0.444,0.0,1,30.97,90,4,0,1.0,sunny,0,0,0.0,0.0009,-0.0009
A,2026-06-02 10:55:00,10,55,254.36,45.8,0.454,0.0,4,31.28,90,4,0,1.0,sunny,0,0,0.0,0.0028,-0.0028
A,2026-06-02 11:00:00,11,0,371.0,40.32,0.56,0.0,1,40.17,90,4,0,1.0,rainy,0,0,0.0,0.0001,-0.0001
A,2026-06-02 11:05:00,11,5,297.02,41.89,0.483,0.0,2,23.11,90,4,0,1.0,sunny,0,0,0.0,0.1704,-0.1704
A,2026-06-02 11:10:00,11,10,301.79,40.84,0.457,0.0,2,33.93,90,4,0,1.0,sunny,0,0,0.0,0.0001,-0.0001
A,2026-06-02 11:15:00,11,15,298.63,31.47,0.512,0.0,1,39.54,90,4,0,1.0,sunny,0,0,0.0,0.0199,-0.0199
A,2026-06-02 11:20:00,11,20,275.07,44.86,0.48,0.0,2,41.18,90,4,0,1.0,sunny,0,0,0.0,0.0001,-0.0001
A,2026-06-02 11:25:00,11,25,293.26,41.95,0.57,0.0,2,38.49,90,4,0,1.0,sunny,0,0,0.0,0.0036,-0.0036
A,2026-06-02 11:30:00,11,30,308.83,42.23,0.556,0.0,3,32.87,90,4,0,1.0,sunny,0,0,0.0,0.0002,-0.0002
A,2026-06-02 11:35:00,11,35,298.73,38.5,0.494,0.0,3,33.47,90,4,0,1.0,cloudy,0,0,0.0,0.0001,-0.0001
A,2026-06-02 11:40:00,11,40,293.39,44.8,0.502,0.0,2,44.68,90,4,0,1.0,sunny,0,0,0.0,0.0001,-0.0001
A,2026-06-02 11:45:00,11,45,314.46,41.68,0.529,0.0,4,41.84,90,4,0,1.0,cloudy,0,0,0.0,0.0001,-0.0001
A,2026-06-02 11:50:00,11,50,294.1,44.34,0.516,0.0,1,33.65,90,4,0,1.0,sunny,0,0,0.0,0.0001,-0.0001
A,2026-06-02 11:55:00,11,55,238.33,49.07,0.369,0.0,2,37.58,90,4,0,1.0,sunny,0,0,0.0,0.0001,-0.0001
A,2026-06-02 12:00:00,12,0,339.46,37.95,0.556,0.0,1,36.3,90,4,0,1.0,rainy,0,0,0.0,0.0001,-0.0001
A,2026-06-02 12:05:00,12,5,325.57,43.59,0.566,0.0,1,40.25,90,4,0,1.0,cloudy,0,0,0.0,0.0001,-0.0001
A,2026-06-02 12:10:00,12,10,282.23,39.39,0.483,0.0,2,30.15,90,4,0,1.0,sunny,0,0,0.0,0.0019,-0.0019
A,2026-06-02 12:15:00,12,15,299.03,41.38,0.508,0.0,3,38.11,90,4,0,1.0,sunny,0,0,0.0,0.0001,-0.0001
A,2026-06-02 12:20:00,12,20,289.0,44.48,0.544,0.0,3,41.05,90,4,0,1.0,sunny,0,0,0.0,0.0001,-0.0001
A,2026-06-02 12:25:00,12,25,295.61,42.98,0.549,0.0,2,47.66,90,4,0,1.0,sunny,0,0,0.0,0.0001,-0.0001
A,2026-06-02 12:30:00,12,30,301.78,45.54,0.509,0.0,4,33.81,90,4,0,1.0,sunny,0,0,0.0,0.0001,-0.0001
A,2026-06-02 12:35:00,12,35,367.59,38.15,0.592,0.0,1,31.5,90,4,0,1.0,rainy,0,0,0.0,0.005,-0.005
A,2026-06-02 12:40:00,12,40,326.84,35.51,0.524,0.0,2,38.42,90,4,0,1.0,rainy,0,0,0.0,0.0001,-0.0001
A,2026-06-02 12:45:00,12,45,285.1,35.65,0.513,0.0,2,25.2,90,4,0,1.0,sunny,0,0,0.0,0.3234,-0.3234
A,2026-06-02 12:50:00,12,50,262.8,44.28,0.446,0.0,1,34.08,90,4,0,1.0,sunny,0,0,0.0,0.0001,-0.0001
A,2026-06-02 12:55:00,12,55,363.12,34.38,0.56,0.0,1,31.51,90,4,0,1.0,rainy,0,0,0.0,0.0054,-0.0054
A,2026-06-02 13:00:00,13,0,238.56,36.35,0.484,0.0,3,30.49,90,4,0,1.0,sunny,0,0,0.0,0.0009,-0.0009
A,2026-06-02 13:05:00,13,5,336.02,41.89,0.534,0.0,3,31.28,90,4,0,1.0,cloudy,0,0,0.0,0.0047,-0.0047
A,2026-06-02 13:10:00,13,10,351.89,42.29,0.575,0.0,2,32.82,90,4,0,1.0,rainy,0,0,0.0,0.0008,-0.0008
A,2026-06-02 13:15:00,13,15,308.54,44.79,0.475,0.0,2,44.11,90,4,0,1.0,cloudy,0,0,0.0,0.0001,-0.0001
A,2026-06-02 13:20:00,13,20,281.15,44.11,0.496,0.0,4,30.08,90,4,0,1.0,sunny,0,0,0.0,0.0049,-0.0049
A,2026-06-02 13:25:00,13,25,320.3,41.87,0.557,0.0,4,30.14,90,4,0,1.0,cloudy,0,0,0.0,0.0031,-0.0031
A,2026-06-02 13:30:00,13,30,276.84,40.74,0.466,0.0,4,39.1,90,4,0,1.0,sunny,0,0,0.0,0.0001,-0.0001
A,2026-06-02 13:35:00,13,35,300.67,38.05,0.541,0.0,4,35.45,90,4,0,1.0,cloudy,0,0,0.0,0.0001,-0.0001
A,2026-06-02 13:40:00,13,40,260.81,40.93,0.427,0.0,2,34.23,90,4,0,1.0,sunny,0,0,0.0,0.0001,-0.0001
A,2026-06-02 13:45:00,13,45,312.45,38.91,0.525,0.0,4,38.31,90,4,0,1.0,sunny,0,0,0.0,0.0001,-0.0001
A,2026-06-02 13:50:00,13,50,320.56,42.37,0.474,0.0,4,35.18,90,4,0,1.0,cloudy,0,0,0.0,0.0001,-0.0001
A,2026-06-02 13:55:00,13,55,322.33,39.68,0.543,0.0,4,30.59,90,4,0,1.0,sunny,0,0,0.0,0.0015,-0.0015
A,2026-06-02 14:00:00,14,0,288.14,43.57,0.496,0.0,1,41.89,90,4,0,1.0,sunny,0,0,0.0,0.0001,-0.0001
A,2026-06-02 14:05:00,14,5,270.76,39.48,0.541,0.0,2,40.45,90,4,0,1.0,sunny,0,0,0.0,0.0001,-0.0001
A,2026-06-02 14:10:00,14,10,310.64,40.97,0.553,0.0,4,36.24,90,4,0,1.0,sunny,0,0,0.0,0.0001,-0.0001
A,2026-06-02 14:15:00,14,15,387.93,36.08,0.643,0.0,1,36.79,90,4,0,1.0,rainy,0,0,0.0,0.0015,-0.0015
A,2026-06-02 14:20:00,14,20,290.32,41.57,0.481,0.0,1,35.62,90,4,0,1.0,sunny,0,0,0.0,0.0001,-0.0001
A,2026-06-02 14:25:00,14,25,251.77,40.2,0.506,0.0,4,33.92,90,4,0,1.0,sunny,0,0,0.0,0.0001,-0.0001
A,2026-06-02 14:30:00,14,30,299.65,38.2,0.542,0.0,2,33.14,90,4,0,1.0,sunny,0,0,0.0,0.0001,-0.0001
A,2026-06-02 14:35:00,14,35,290.89,44.31,0.494,0.0,1,35.73,90,4,0,1.0,sunny,0,0,0.0,0.0001,-0.0001
A,2026-06-02 14:40:00,14,40,298.29,39.47,0.52,0.0,4,37.4,90,4,0,1.0,sunny,0,0,0.0,0.0001,-0.0001
A,2026-06-02 14:45:00,14,45,347.76,32.21,0.628,0.0,4,33.44,90,4,0,1.0,rainy,0,0,0.0,0.0088,-0.0088
A,2026-06-02 14:50:00,14,50,283.84,39.8,0.502,0.0,4,24.57,90,4,0,1.0,sunny,0,0,0.0,0.1738,-0.1738
A,2026-06-02 14:55:00,14,55,314.7,40.06,0.538,0.0,4,42.45,90,4,0,1.0,sunny,0,0,0.0,0.0001,-0.0001
A,2026-06-02 15:00:00,15,0,308.67,34.63,0.534,0.0,4,36.01,90,4,0,1.0,sunny,0,0,0.0,0.0001,-0.0001
A,2026-06-02 15:05:00,15,5,298.8,40.39,0.514,0.0,3,42.37,90,4,0,1.0,sunny,0,0,0.0,0.0001,-0.0001
A,2026-06-02 15:10:00,15,10,266.72,45.57,0.44,0.0,3,41.86,90,4,0,1.0,sunny,0,0,0.0,0.0001,-0.0001
A,2026-06-02 15:15:00,15,15,295.2,45.04,0.507,0.0,1,39.97,90,4,0,1.0,sunny,0,0,0.0,0.0001,-0.0001
A,2026-06-02 15:20:00,15,20,340.83,33.92,0.58,0.0,1,37.35,90,4,0,1.0,rainy,0,0,0.0,0.0001,-0.0001
A,2026-06-02 15:25:00,15,25,314.62,37.73,0.559,0.0,4,25.43,90,4,0,1.0,cloudy,0,0,0.0,0.1723,-0.1723
A,2026-06-02 15:30:00,15,30,290.09,41.3,0.468,0.0,3,30.51,90,4,0,1.0,sunny,0,0,0.0,0.0006,-0.0006
A,2026-06-02 15:35:00,15,35,252.64,41.64,0.435,0.0,1,39.12,90,4,0,1.0,sunny,0,0,0.0,0.0001,-0.0001
A,2026-06-02 15:40:00,15,40,285.85,37.75,0.543,0.0,1,31.14,90,4,0,1.0,sunny,0,0,0.0,0.0044,-0.0044
A,2026-06-02 15:45:00,15,45,313.11,44.47,0.521,0.0,2,32.24,90,4,0,1.0,cloudy,0,0,0.0,0.0012,-0.0012
A,2026-06-02 15:50:00,15,50,356.65,38.88,0.576,0.0,2,30.07,90,4,0,1.0,rainy,0,0,0.0,0.0041,-0.0041
A,2026-06-02 15:55:00,15,55,322.63,39.59,0.527,0.0,3,41.04,90,4,0,1.0,cloudy,0,0,0.0,0.0001,-0.0001
A,2026-06-02 16:00:00,16,0,369.27,43.54,0.564,0.0,1,30.15,90,4,0,1.0,rainy,0,0,0.0,0.0028,-0.0028
A,2026-06-02 16:05:00,16,5,275.73,36.35,0.553,0.0,2,36.46,90,4,0,1.0,sunny,0,0,0.0,0.0036,-0.0036
A,2026-06-02 16:10:00,16,10,292.34,37.9,0.509,0.0,2,32.07,90,4,0,1.0,cloudy,0,0,0.0,0.001,-0.001
A,2026-06-02 16:15:00,16,15,288.71,37.1,0.486,0.0,3,31.5,90,4,0,1.0,cloudy,0,0,0.0,0.0041,-0.0041
A,2026-06-02 16:20:00,16,20,278.01,44.08,0.464,0.0,3,34.9,90,4,0,1.0,sunny,0,0,0.0,0.0001,-0.0001
A,2026-06-02 16:25:00,16,25,295.7,45.25,0.516,0.0,4,33.8,90,4,0,1.0,sunny,0,0,0.0,0.0001,-0.0001
A,2026-06-02 16:30:00,16,30,295.08,37.98,0.534,0.0,3,33.89,90,4,0,1.0,sunny,0,0,0.0,0.0006,-0.0006
A,2026-06-02 16:35:00,16,35,250.87,35.56,0.49,0.0,1,33.8,90,4,0,1.0,sunny,0,0,0.0,0.0001,-0.0001
A,2026-06-02 16:40:00,16,40,284.73,41.92,0.52,0.0,2,42.0,90,4,0,1.0,sunny,0,0,0.0,0.0001,-0.0001
A,2026-06-02 16:45:00,16,45,340.26,42.81,0.525,0.0,4,39.29,90,4,0,1.0,rainy,0,0,0.0,0.0001,-0.0001
A,2026-06-02 16:50:00,16,50,282.48,40.71,0.498,0.0,1,20.69,90,4,0,1.0,sunny,0,0,0.0,0.1312,-0.1312
A,2026-06-02 16:55:00,16,55,284.5,41.56,0.487,0.0,4,29.3,90,4,0,1.0,sunny,0,0,0.0,0.0024,-0.0024
A,2026-06-02 17:00:00,17,0,423.79,30.27,0.697,0.0,4,42.88,90,4,1,1.0,sunny,0,0,0.0,0.0087,-0.0087
A,2026-06-02 17:05:00,17,5,496.34,39.79,0.741,0.0,1,37.48,90,4,1,1.0,rainy,0,0,0.0,0.0268,-0.0268
A,2026-06-02 17:10:00,17,10,477.71,33.56,0.722,0.0,4,39.69,90,4,1,1.0,rainy,0,0,0.0,0.0021,-0.0021
A,2026-06-02 17:15:00,17,15,552.91,34.88,0.788,0.0,4,48.96,90,4,1,1.0,rainy,0,0,0.0,1.3995,-1.3995
A,2026-06-02 17:20:00,17,20,423.39,36.47,0.644,0.0,3,47.23,90,4,1,1.0,sunny,0,0,0.0,0.0001,-0.0001
A,2026-06-02 17:25:00,17,25,395.13,40.67,0.628,0.0,3,33.9,90,4,1,1.0,sunny,0,0,0.0,0.0006,-0.0006
A,2026-06-02 17:30:00,17,30,441.87,31.69,0.659,0.0,3,46.36,90,4,1,1.0,cloudy,0,0,0.0,0.0065,-0.0065
A,2026-06-02 17:35:00,17,35,392.16,44.41,0.566,0.0,3,38.53,90,4,1,1.0,sunny,0,0,0.0,0.0013,-0.0013
A,2026-06-02 17:40:00,17,40,422.35,35.46,0.652,0.0,4,40.78,90,4,1,1.0,sunny,0,0,0.0,0.0001,-0.0001
A,2026-06-02 17:45:00,17,45,393.72,42.93,0.592,0.0,3,44.33,90,4,1,1.0,sunny,0,0,0.0,0.0005,-0.0005
A,2026-06-02 17:50:00,17,50,424.32,36.36,0.66,0.0,3,42.47,90,4,1,1.0,sunny,0,0,0.0,0.0001,-0.0001
A,2026-06-02 17:55:00,17,55,464.83,34.29,0.684,0.0,1,41.46,90,4,1,1.0,cloudy,0,0,0.0,0.0005,-0.0005
A,2026-06-02 18:00:00,18,0,492.29,31.85,0.758,0.0,4,40.71,90,4,1,1.0,rainy,0,0,0.0,0.0437,-0.0437
A,2026-06-02 18:05:00,18,5,420.49,37.72,0.629,0.0,2,37.09,90,4,1,1.0,sunny,0,0,0.0,0.0001,-0.0001
A,2026-06-02 18:10:00,18,10,408.57,36.51,0.621,0.0,2,39.15,90,4,1,1.0,sunny,0,0,0.0,0.0043,-0.0043
A,2026-06-02 18:15:00,18,15,403.14,40.82,0.59,0.0,1,39.32,90,4,1,1.0,sunny,0,0,0.0,0.0001,-0.0001
A,2026-06-02 18:20:00,18,20,372.19,39.19,0.566,0.0,2,45.38,90,4,1,1.0,sunny,0,0,0.0,0.0001,-0.0001
A,2026-06-02 18:25:00,18,25,473.73,30.04,0.793,0.0,1,33.68,90,4,1,1.0,cloudy,0,0,0.51,1.3134,-0.8034
A,2026-06-02 18:30:00,18,30,383.09,37.86,0.63,0.51,3,41.46,90,4,1,1.0,sunny,0,0,0.0,0.0612,-0.0612
A,2026-06-02 18:35:00,18,35,399.64,39.08,0.647,0.0,2,47.48,90,4,1,1.0,sunny,0,0,0.0,0.0001,-0.0001
A,2026-06-02 18:40:00,18,40,492.4,32.97,0.77,0.0,3,45.93,90,4,1,1.0,rainy,0,0,0.0,0.0577,-0.0577
A,2026-06-02 18:45:00,18,45,440.11,34.51,0.725,0.0,3,37.89,90,4,1,1.0,cloudy,0,0,0.0,0.0142,-0.0142
A,2026-06-02 18:50:00,18,50,485.95,44.31,0.71,0.0,1,45.16,90,4,1,1.0,rainy,0,0,0.0,0.003,-0.003
A,2026-06-02 18:55:00,18,55,413.2,38.58,0.648,0.0,3,49.65,90,4,1,1.0,sunny,0,0,0.0,0.0001,-0.0001
A,2026-06-02 19:00:00,19,0,381.53,35.9,0.541,0.0,4,42.58,90,4,1,1.0,sunny,0,0,0.0,0.0001,-0.0001
A,2026-06-02 19:05:00,19,5,410.93,38.5,0.67,0.0,1,43.53,90,4,1,1.0,sunny,0,0,0.0,0.0001,-0.0001
A,2026-06-02 19:10:00,19,10,441.31,35.31,0.668,0.0,1,42.71,90,4,1,1.0,cloudy,0,0,0.0,0.0004,-0.0004
A,2026-06-02 19:15:00,19,15,401.12,34.25,0.611,0.0,4,38.68,90,4,1,1.0,sunny,0,0,0.0,0.0001,-0.0001
A,2026-06-02 19:20:00,19,20,385.74,42.08,0.571,0.0,2,39.2,90,4,1,1.0,sunny,0,0,0.0,0.0001,-0.0001
A,2026-06-02 19:25:00,19,25,504.57,30.23,0.756,0.0,2,47.71,90,4,1,1.0,rainy,0,0,0.0,0.0414,-0.0414
A,2026-06-02 19:30:00,19,30,541.51,38.14,0.811,0.0,3,30.82,90,4,1,1.0,rainy,0,0,11.49,9.8121,1.6779
A,2026-06-02 19:35:00,19,35,382.6,32.63,0.679,11.49,4,46.56,90,4,1,1.0,sunny,0,0,0.0,3.542,-3.542
A,2026-06-02 19:40:00,19,40,490.23,30.04,0.747,0.0,1,46.0,90,4,1,1.0,rainy,0,0,0.0,0.0064,-0.0064
A,2026-06-02 19:45:00,19,45,420.39,33.52,0.686,0.0,2,47.89,90,4,1,1.0,sunny,0,0,0.0,0.0002,-0.0002
A,2026-06-02 19:50:00,19,50,532.18,35.33,0.838,0.0,2,38.25,90,4,1,1.0,rainy,0,0,0.0,2.0276,-2.0276
A,2026-06-02 19:55:00,19,55,400.36,37.27,0.678,0.0,4,43.14,90,4,1,1.0,sunny,0,0,0.0,0.0001,-0.0001
A,2026-06-02 20:00:00,20,0,215.29,39.3,0.333,0.0,3,33.53,90,4,0,1.0,cloudy,0,0,0.0,0.0001,-0.0001
A,2026-06-02 20:05:00,20,5,223.28,37.85,0.476,0.0,2,35.92,90,4,0,1.0,sunny,0,0,0.0,0.0001,-0.0001
A,2026-06-02 20:10:00,20,10,261.52,38.78,0.506,0.0,2,27.0,90,4,0,1.0,rainy,0,0,0.0,0.0275,-0.0275
A,2026-06-02 20:15:00,20,15,241.56,40.96,0.439,0.0,2,34.73,90,4,0,1.0,sunny,0,0,0.0,0.0001,-0.0001
A,2026-06-02 20:20:00,20,20,205.31,41.7,0.465,0.0,2,31.95,90,4,0,1.0,sunny,0,0,0.0,0.001,-0.001
A,2026-06-02 20:25:00,20,25,226.19,44.21,0.408,0.0,3,28.39,90,4,0,1.0,sunny,0,0,0.0,0.0023,-0.0023
A,2026-06-02 20:30:00,20,30,248.67,49.66,0.447,0.0,4,43.14,90,4,0,1.0,sunny,0,0,0.0,0.0001,-0.0001
A,2026-06-02 20:35:00,20,35,196.8,42.5,0.411,0.0,2,46.66,90,4,0,1.0,sunny,0,0,0.0,0.0001,-0.0001
A,2026-06-02 20:40:00,20,40,278.0,35.93,0.47,0.0,1,33.67,90,4,0,1.0,cloudy,0,0,0.0,0.0001,-0.0001
A,2026-06-02 20:45:00,20,45,235.79,41.91,0.422,0.0,4,46.8,90,4,0,1.0,sunny,0,0,0.0,0.0001,-0.0001
A,2026-06-02 20:50:00,20,50,209.67,37.3,0.413,0.0,2,40.29,90,4,0,1.0,sunny,0,0,0.0,0.0001,-0.0001
A,2026-06-02 20:55:00,20,55,229.04,43.29,0.42,0.0,2,31.19,90,4,0,1.0,sunny,0,0,0.0,0.001,-0.001
A,2026-06-02 21:00:00,21,0,204.18,39.77,0.412,0.0,3,34.5,90,4,0,1.0,sunny,0,0,0.0,0.0001,-0.0001
A,2026-06-02 21:05:00,21,5,230.74,40.62,0.424,0.0,4,35.7,90,4,0,1.0,sunny,0,0,0.0,0.0001,-0.0001
A,2026-06-02 21:10:00,21,10,218.62,42.17,0.418,0.0,1,32.54,90,4,0,1.0,sunny,0,0,0.0,0.0002,-0.0002
A,2026-06-02 21:15:00,21,15,238.78,39.14,0.466,0.0,1,42.12,90,4,0,1.0,sunny,0,0,0.0,0.0001,-0.0001
A,2026-06-02 21:20:00,21,20,211.98,42.06,0.39,0.0,3,32.79,90,4,0,1.0,sunny,0,0,0.0,0.0002,-0.0002
A,2026-06-02 21:25:00,21,25,280.23,40.37,0.491,0.0,4,47.36,90,4,0,1.0,rainy,0,0,0.0,0.0001,-0.0001
A,2026-06-02 21:30:00,21,30,229.71,42.98,0.451,0.0,2,30.77,90,4,0,1.0,sunny,0,0,0.0,0.005,-0.005
A,2026-06-02 21:35:00,21,35,301.6,35.5,0.512,0.0,4,30.71,90,4,0,1.0,rainy,0,0,0.0,0.0136,-0.0136
A,2026-06-02 21:40:00,21,40,211.67,42.71,0.388,0.0,2,36.15,90,4,0,1.0,sunny,0,0,0.0,0.0001,-0.0001
A,2026-06-02 21:45:00,21,45,220.57,46.29,0.444,0.0,2,35.77,90,4,0,1.0,cloudy,0,0,0.0,0.0001,-0.0001
A,2026-06-02 21:50:00,21,50,205.32,40.82,0.436,0.0,3,29.33,90,4,0,1.0,sunny,0,0,0.0,0.0001,-0.0001
A,2026-06-02 21:55:00,21,55,218.36,45.96,0.435,0.0,1,32.39,90,4,0,1.0,cloudy,0,0,0.0,0.0061,-0.0061
A,2026-06-02 22:00:00,22,0,236.17,44.25,0.409,0.0,4,28.53,90,4,0,1.0,sunny,0,0,0.0,0.0001,-0.0001
A,2026-06-02 22:05:00,22,5,291.84,38.36,0.523,0.0,2,36.44,90,4,0,1.0,rainy,0,0,0.0,0.0001,-0.0001
A,2026-06-02 22:10:00,22,10,196.03,45.27,0.406,0.0,1,35.93,90,4,0,1.0,sunny,0,0,0.0,0.0001,-0.0001
A,2026-06-02 22:15:00,22,15,237.83,44.53,0.414,0.0,3,37.06,90,4,0,1.0,cloudy,0,0,0.0,0.0001,-0.0001
A,2026-06-02 22:20:00,22,20,222.04,48.08,0.383,0.0,1,32.37,90,4,0,1.0,sunny,0,0,0.0,0.0001,-0.0001
A,2026-06-02 22:25:00,22,25,315.69,36.96,0.62,0.0,1,34.05,90,4,0,1.0,rainy,0,0,0.0,0.0007,-0.0007
A,2026-06-02 22:30:00,22,30,228.45,42.35,0.477,0.0,3,34.43,90,4,0,1.0,sunny,0,0,0.0,0.0001,-0.0001
A,2026-06-02 22:35:00,22,35,284.62,39.42,0.473,0.0,4,34.33,90,4,0,1.0,rainy,0,0,0.0,0.0001,-0.0001
A,2026-06-02 22:40:00,22,40,191.86,45.56,0.397,0.0,3,34.74,90,4,0,1.0,sunny,0,0,0.0,0.0001,-0.0001
A,2026-06-02 22:45:00,22,45,227.81,40.91,0.405,0.0,1,30.62,90,4,0,1.0,sunny,0,0,0.0,0.0006,-0.0006
A,2026-06-02 22:50:00,22,50,234.77,36.98,0.455,0.0,2,35.2,90,4,0,1.0,sunny,0,0,0.0,0.0001,-0.0001
A,2026-06-02 22:55:00,22,55,233.54,39.29,0.401,0.0,4,36.9,90,4,0,1.0,sunny,0,0,0.0,0.0001,-0.0001
A,2026-06-02 23:00:00,23,0,156.8,45.07,0.316,0.0,1,30.09,90,4,0,1.0,sunny,0,0,0.0,0.0038,-0.0038
A,2026-06-02 23:05:00,23,5,126.56,47.19,0.266,0.0,1,35.43,90,4,0,1.0,sunny,0,0,0.0,0.0001,-0.0001
A,2026-06-02 23:10:00,23,10,138.87,50.11,0.299,0.0,3,32.91,90,4,0,1.0,sunny,0,0,0.0,0.0002,-0.0002
A,2026-06-02 23:15:00,23,15,151.58,46.27,0.346,0.0,3,33.29,90,4,0,1.0,sunny,0,0,0.0,0.0001,-0.0001
A,2026-06-02 23:20:00,23,20,143.82,49.88,0.292,0.0,1,38.52,90,4,0,1.0,sunny,0,0,0.0,0.0001,-0.0001
A,2026-06-02 23:25:00,23,25,202.92,47.42,0.424,0.0,3,46.17,90,4,0,1.0,rainy,0,0,0.0,0.0001,-0.0001
A,2026-06-02 23:30:00,23,30,106.12,47.81,0.25,0.0,1,32.04,90,4,0,1.0,sunny,0,0,0.0,0.001,-0.001
A,2026-06-02 23:35:00,23,35,134.02,49.81,0.279,0.0,1,42.55,90,4,0,1.0,sunny,0,0,0.0,0.0001,-0.0001
A,2026-06-02 23:40:00,23,40,164.95,49.57,0.313,0.0,2,39.55,90,4,0,1.0,sunny,0,0,0.0,0.0001,-0.0001
A,2026-06-02 23:45:00,23,45,148.16,43.01,0.338,0.0,2,37.43,90,4,0,1.0,sunny,0,0,0.0,0.0001,-0.0001
A,2026-06-02 23:50:00,23,50,158.16,49.56,0.298,0.0,1,34.78,90,4,0,1.0,cloudy,0,0,0.0,0.0001,-0.0001
A,2026-06-02 23:55:00,23,55,130.05,46.15,0.28,0.0,4,43.22,90,4,0,1.0,sunny,0,0,0.0,0.0001,-0.0001
A,2026-06-03 00:00:00,0,0,149.61,37.19,0.341,0.0,1,32.55,90,4,0,1.0,sunny,0,0,0.0,0.0002,-0.0002
A,2026-06-03 00:05:00,0,5,162.38,45.09,0.335,0.0,2,40.41,90,4,0,1.0,rainy,0,0,0.0,0.0001,-0.0001
A,2026-06-03 00:10:00,0,10,120.36,46.2,0.271,0.0,1,24.45,90,4,0,1.0,sunny,0,0,0.0,0.0025,-0.0025
A,2026-06-03 00:15:00,0,15,167.61,48.82,0.329,0.0,2,41.52,90,4,0,1.0,rainy,0,0,0.0,0.0001,-0.0001
A,2026-06-03 00:20:00,0,20,134.88,44.55,0.32,0.0,3,33.91,90,4,0,1.0,sunny,0,0,0.0,0.0001,-0.0001
A,2026-06-03 00:25:00,0,25,155.41,44.31,0.335,0.0,3,37.21,90,4,0,1.0,sunny,0,0,0.0,0.0001,-0.0001
A,2026-06-03 00:30:00,0,30,195.68,43.18,0.477,0.0,2,39.88,90,4,0,1.0,cloudy,0,0,0.0,0.0001,-0.0001
A,2026-06-03 00:35:00,0,35,122.82,49.04,0.282,0.0,4,32.78,90,4,0,1.0,sunny,0,0,0.0,0.0002,-0.0002
A,2026-06-03 00:40:00,0,40,164.75,49.23,0.328,0.0,1,34.19,90,4,0,1.0,sunny,0,0,0.0,0.0001,-0.0001
A,2026-06-03 00:45:00,0,45,136.74,48.28,0.337,0.0,4,35.83,90,4,0,1.0,sunny,0,0,0.0,0.0001,-0.0001
A,2026-06-03 00:50:00,0,50,155.72,45.45,0.337,0.0,4,33.69,90,4,0,1.0,cloudy,0,0,0.0,0.0001,-0.0001
A,2026-06-03 00:55:00,0,55,179.87,46.43,0.358,0.0,4,33.59,90,4,0,1.0,rainy,0,0,0.0,0.0004,-0.0004
A,2026-06-03 01:00:00,1,0,136.04,41.17,0.337,0.0,3,43.44,90,4,0,1.0,sunny,0,0,0.0,0.0001,-0.0001
A,2026-06-03 01:05:00,1,5,146.55,46.84,0.298,0.0,1,37.7,90,4,0,1.0,sunny,0,0,0.0,0.0001,-0.0001
A,2026-06-03 01:10:00,1,10,138.33,45.1,0.297,0.0,1,21.48,90,4,0,1.0,cloudy,0,0,0.0,0.0356,-0.0356
A,2026-06-03 01:15:00,1,15,141.88,43.07,0.327,0.0,3,23.7,90,4,0,1.0,sunny,0,0,0.0,0.0044,-0.0044
A,2026-06-03 01:20:00,1,20,143.6,45.1,0.326,0.0,1,36.52,90,4,0,1.0,sunny,0,0,0.0,0.0001,-0.0001
A,2026-06-03 01:25:00,1,25,167.07,47.57,0.332,0.0,2,34.96,90,4,0,1.0,rainy,0,0,0.0,0.0001,-0.0001
A,2026-06-03 01:30:00,1,30,148.88,42.21,0.385,0.0,1,36.62,90,4,0,1.0,cloudy,0,0,0.0,0.0001,-0.0001
A,2026-06-03 01:35:00,1,35,142.53,45.78,0.275,0.0,1,32.5,90,4,0,1.0,sunny,0,0,0.0,0.0002,-0.0002
A,2026-06-03 01:40:00,1,40,138.53,42.93,0.334,0.0,3,37.92,90,4,0,1.0,cloudy,0,0,0.0,0.0001,-0.0001
A,2026-06-03 01:45:00,1,45,144.55,43.11,0.348,0.0,2,36.99,90,4,0,1.0,cloudy,0,0,0.0,0.0001,-0.0001
A,2026-06-03 01:50:00,1,50,129.49,45.91,0.32,0.0,3,43.36,90,4,0,1.0,cloudy,0,0,0.0,0.0001,-0.0001
A,2026-06-03 01:55:00,1,55,145.59,47.03,0.292,0.0,3,33.21,90,4,0,1.0,sunny,0,0,0.0,0.0001,-0.0001
A,2026-06-03 02:00:00,2,0,157.17,48.81,0.335,0.0,4,35.04,90,4,0,1.0,cloudy,0,0,0.0,0.0001,-0.0001
A,2026-06-03 02:05:00,2,5,150.51,50.93,0.346,0.0,3,36.9,90,4,0,1.0,sunny,0,0,0.0,0.0001,-0.0001
A,2026-06-03 02:10:00,2,10,182.51,47.32,0.331,0.0,2,35.54,90,4,0,1.0,cloudy,0,0,0.0,0.0001,-0.0001
A,2026-06-03 02:15:00,2,15,173.07,43.46,0.417,0.0,4,44.63,90,4,0,1.0,rainy,0,0,0.0,0.0001,-0.0001
A,2026-06-03 02:20:00,2,20,165.12,42.82,0.378,0.0,4,32.89,90,4,0,1.0,sunny,0,0,0.0,0.0002,-0.0002
A,2026-06-03 02:25:00,2,25,157.08,49.3,0.36,0.0,1,44.7,90,4,0,1.0,sunny,0,0,0.0,0.0001,-0.0001
A,2026-06-03 02:30:00,2,30,124.14,42.31,0.302,0.0,2,38.86,90,4,0,1.0,sunny,0,0,0.0,0.0001,-0.0001
A,2026-06-03 02:35:00,2,35,152.83,38.83,0.374,0.0,4,45.32,90,4,0,1.0,sunny,0,0,0.0,0.0001,-0.0001
A,2026-06-03 02:40:00,2,40,112.09,42.64,0.301,0.0,1,40.48,90,4,0,1.0,sunny,0,0,0.0,0.0001,-0.0001
A,2026-06-03 02:45:00,2,45,138.54,44.63,0.317,0.0,3,40.69,90,4,0,1.0,sunny,0,0,0.0,0.0001,-0.0001
A,2026-06-03 02:50:00,2,50,180.64,44.91,0.389,0.0,4,40.41,90,4,0,1.0,cloudy,0,0,0.0,0.0001,-0.0001
A,2026-06-03 02:55:00,2,55,118.75,47.77,0.284,0.0,4,30.22,90,4,0,1.0,sunny,0,0,0.0,0.0004,-0.0004
A,2026-06-03 03:00:00,3,0,163.07,44.09,0.364,0.0,1,33.84,90,4,0,1.0,sunny,0,0,0.0,0.0001,-0.0001
A,2026-06-03 03:05:00,3,5,130.63,44.48,0.356,0.0,1,35.81,90,4,0,1.0,cloudy,0,0,0.0,0.0001,-0.0001
A,2026-06-03 03:10:00,3,10,133.71,50.06,0.292,0.0,1,28.03,90,4,0,1.0,cloudy,0,0,0.0,0.0057,-0.0057
A,2026-06-03 03:15:00,3,15,151.93,47.66,0.333,0.0,4,34.7,90,4,0,1.0,sunny,0,0,0.0,0.0001,-0.0001
A,2026-06-03 03:20:00,3,20,136.75,46.04,0.361,0.0,1,30.4,90,4,0,1.0,sunny,0,0,0.0,0.0006,-0.0006
A,2026-06-03 03:25:00,3,25,140.76,50.15,0.313,0.0,1,42.81,90,4,0,1.0,sunny,0,0,0.0,0.0001,-0.0001
A,2026-06-03 03:30:00,3,30,116.29,43.73,0.315,0.0,3,33.33,90,4,0,1.0,sunny,0,0,0.0,0.0001,-0.0001
A,2026-06-03 03:35:00,3,35,139.92,44.38,0.31,0.0,3,37.02,90,4,0,1.0,sunny,0,0,0.0,0.0001,-0.0001
A,2026-06-03 03:40:00,3,40,139.22,50.22,0.282,0.0,4,31.29,90,4,0,1.0,cloudy,0,0,0.0,0.0031,-0.0031
A,2026-06-03 03:45:00,3,45,149.39,47.18,0.342,0.0,2,33.94,90,4,0,1.0,cloudy,0,0,0.0,0.0001,-0.0001
A,2026-06-03 03:50:00,3,50,145.27,49.79,0.366,0.0,2,34.15,90,4,0,1.0,sunny,0,0,0.0,0.0001,-0.0001
A,2026-06-03 03:55:00,3,55,152.81,47.41,0.355,0.0,2,39.25,90,4,0,1.0,sunny,0,0,0.0,0.0001,-0.0001
A,2026-06-03 04:00:00,4,0,142.1,46.3,0.331,0.0,3,25.51,90,4,0,1.0,sunny,0,0,0.0,0.0061,-0.0061
A,2026-06-03 04:05:00,4,5,155.9,45.31,0.339,0.0,1,45.27,90,4,0,1.0,sunny,0,0,0.0,0.0001,-0.0001
A,2026-06-03 04:10:00,4,10,122.53,46.99,0.281,0.0,3,31.0,90,4,0,1.0,sunny,0,0,0.0,0.0009,-0.0009
A,2026-06-03 04:15:00,4,15,151.96,42.32,0.407,0.0,2,33.12,90,4,0,1.0,sunny,0,0,0.0,0.0002,-0.0002
A,2026-06-03 04:20:00,4,20,170.92,50.6,0.313,0.0,4,47.09,90,4,0,1.0,sunny,0,0,0.0,0.0001,-0.0001
A,2026-06-03 04:25:00,4,25,110.04,46.33,0.306,0.0,1,42.34,90,4,0,1.0,sunny,0,0,0.0,0.0001,-0.0001
A,2026-06-03 04:30:00,4,30,131.41,49.24,0.334,0.0,2,25.74,90,4,0,1.0,sunny,0,0,0.0,0.0021,-0.0021
A,2026-06-03 04:35:00,4,35,137.69,44.05,0.296,0.0,1,36.64,90,4,0,1.0,sunny,0,0,0.0,0.0001,-0.0001
A,2026-06-03 04:40:00,4,40,219.19,44.3,0.45,0.0,3,30.37,90,4,0,1.0,rainy,0,0,0.0,0.0007,-0.0007
A,2026-06-03 04:45:00,4,45,141.38,42.32,0.315,0.0,4,34.36,90,4,0,1.0,cloudy,0,0,0.0,0.0001,-0.0001
A,2026-06-03 04:50:00,4,50,159.19,43.78,0.391,0.0,4,27.22,90,4,0,1.0,cloudy,0,0,0.0,0.0011,-0.0011
A,2026-06-03 04:55:00,4,55,124.89,51.04,0.288,0.0,4,42.12,90,4,0,1.0,cloudy,0,0,0.0,0.0001,-0.0001
A,2026-06-03 05:00:00,5,0,183.88,45.14,0.389,0.0,4,38.6,90,4,0,1.0,rainy,0,0,0.0,0.0001,-0.0001
A,2026-06-03 05:05:00,5,5,124.86,47.8,0.3,0.0,2,35.02,90,4,0,1.0,sunny,0,0,0.0,0.0001,-0.0001
A,2026-06-03 05:10:00,5,10,139.62,41.83,0.285,0.0,4,35.05,90,4,0,1.0,sunny,0,0,0.0,0.0001,-0.0001
A,2026-06-03 05:15:00,5,15,153.53,43.18,0.276,0.0,2,37.84,90,4,0,1.0,sunny,0,0,0.0,0.0001,-0.0001
A,2026-06-03 05:20:00,5,20,155.22,47.8,0.317,0.0,2,35.4,90,4,0,1.0,sunny,0,0,0.0,0.0001,-0.0001
A,2026-06-03 05:25:00,5,25,133.44,48.62,0.274,0.0,4,36.34,90,4,0,1.0,cloudy,0,0,0.0,0.0001,-0.0001
A,2026-06-03 05:30:00,5,30,193.12,49.27,0.342,0.0,4,25.31,90,4,0,1.0,rainy,0,0,0.0,0.0165,-0.0165
A,2026-06-03 05:35:00,5,35,139.69,46.99,0.281,0.0,4,29.69,90,4,0,1.0,sunny,0,0,0.0,0.0001,-0.0001
A,2026-06-03 05:40:00,5,40,163.13,47.26,0.34,0.0,3,33.84,90,4,0,1.0,rainy,0,0,0.0,0.0001,-0.0001
A,2026-06-03 05:45:00,5,45,152.41,46.04,0.328,0.0,2,38.34,90,4,0,1.0,sunny,0,0,0.0,0.0001,-0.0001
A,2026-06-03 05:50:00,5,50,158.38,45.38,0.348,0.0,2,37.28,90,4,0,1.0,sunny,0,0,0.0,0.0001,-0.0001
A,2026-06-03 05:55:00,5,55,196.97,43.7,0.428,0.0,1,34.5,90,4,0,1.0,rainy,0,0,0.0,0.0001,-0.0001
A,2026-06-03 06:00:00,6,0,147.94,42.31,0.413,0.0,1,38.51,90,4,0,1.0,sunny,0,0,0.0,0.0001,-0.0001
A,2026-06-03 06:05:00,6,5,133.24,45.47,0.29,0.0,2,42.72,90,4,0,1.0,sunny,0,0,0.0,0.0001,-0.0001
A,2026-06-03 06:10:00,6,10,120.27,42.07,0.283,0.0,3,49.0,90,4,0,1.0,cloudy,0,0,0.0,0.0001,-0.0001
A,2026-06-03 06:15:00,6,15,168.99,45.12,0.334,0.0,2,33.59,90,4,0,1.0,sunny,0,0,0.0,0.0001,-0.0001
A,2026-06-03 06:20:00,6,20,133.07,48.59,0.272,0.0,1,34.28,90,4,0,1.0,sunny,0,0,0.0,0.0001,-0.0001
A,2026-06-03 06:25:00,6,25,158.19,44.79,0.358,0.0,3,36.52,90,4,0,1.0,sunny,0,0,0.0,0.0001,-0.0001
A,2026-06-03 06:30:00,6,30,151.92,42.03,0.319,0.0,1,38.75,90,4,0,1.0,sunny,0,0,0.0,0.0001,-0.0001
A,2026-06-03 06:35:00,6,35,200.56,46.2,0.363,0.0,2,30.32,90,4,0,1.0,rainy,0,0,0.0,0.0086,-0.0086
A,2026-06-03 06:40:00,6,40,150.5,50.08,0.371,0.0,1,30.27,90,4,0,1.0,sunny,0,0,0.0,0.0004,-0.0004
A,2026-06-03 06:45:00,6,45,143.85,44.95,0.308,0.0,2,43.91,90,4,0,1.0,sunny,0,0,0.0,0.0001,-0.0001
A,2026-06-03 06:50:00,6,50,168.88,43.35,0.303,0.0,4,34.14,90,4,0,1.0,cloudy,0,0,0.0,0.0001,-0.0001
A,2026-06-03 06:55:00,6,55,136.62,47.3,0.307,0.0,2,31.26,90,4,0,1.0,sunny,0,0,0.0,0.0155,-0.0155
A,2026-06-03 07:00:00,7,0,386.36,38.28,0.626,0.0,1,41.51,90,4,1,1.0,sunny,0,0,0.0,0.0001,-0.0001
A,2026-06-03 07:05:00,7,5,498.84,34.47,0.727,0.0,2,47.74,90,4,1,1.0,rainy,0,0,0.0,0.0015,-0.0015
A,2026-06-03 07:10:00,7,10,429.23,35.8,0.663,0.0,1,48.16,90,4,1,1.0,cloudy,0,0,0.0,0.0008,-0.0008
A,2026-06-03 07:15:00,7,15,420.08,33.11,0.661,0.0,2,43.16,90,4,1,1.0,sunny,0,0,0.0,0.0005,-0.0005
A,2026-06-03 07:20:00,7,20,399.44,38.88,0.638,0.0,1,49.16,90,4,1,1.0,sunny,0,0,0.0,0.0001,-0.0001
A,2026-06-03 07:25:00,7,25,431.85,37.25,0.666,0.0,1,35.09,90,4,1,1.0,cloudy,0,0,0.0,0.002,-0.002
A,2026-06-03 07:30:00,7,30,356.32,35.67,0.604,0.0,2,55.7,90,4,1,1.0,sunny,0,0,0.0,0.0001,-0.0001
A,2026-06-03 07:35:00,7,35,375.92,32.48,0.604,0.0,3,40.26,90,4,1,1.0,sunny,0,0,0.0,0.0001,-0.0001
A,2026-06-03 07:40:00,7,40,427.08,32.3,0.684,0.0,1,35.93,90,4,1,1.0,cloudy,0,0,0.0,0.0007,-0.0007
A,2026-06-03 07:45:00,7,45,381.15,37.54,0.657,0.0,2,44.09,90,4,1,1.0,sunny,0,0,0.0,0.0001,-0.0001
A,2026-06-03 07:50:00,7,50,382.47,40.23,0.571,0.0,4,35.94,90,4,1,1.0,sunny,0,0,0.0,0.0001,-0.0001
A,2026-06-03 07:55:00,7,55,376.96,42.76,0.588,0.0,2,43.48,90,4,1,1.0,sunny,0,0,0.0,0.0001,-0.0001
A,2026-06-03 08:00:00,8,0,387.89,37.33,0.603,0.0,3,37.09,90,4,1,1.0,sunny,0,0,0.0,0.0001,-0.0001
A,2026-06-03 08:05:00,8,5,374.73,40.98,0.568,0.0,1,30.3,90,4,1,1.0,sunny,0,0,0.0,0.0138,-0.0138
A,2026-06-03 08:10:00,8,10,471.06,36.42,0.735,0.0,4,43.61,90,4,1,1.0,cloudy,0,0,0.0,0.004,-0.004
A,2026-06-03 08:15:00,8,15,370.64,36.54,0.547,0.0,4,54.23,90,4,1,1.0,sunny,0,0,0.0,0.0001,-0.0001
A,2026-06-03 08:20:00,8,20,430.05,30.75,0.626,0.0,2,39.62,90,4,1,1.0,sunny,0,0,0.0,0.0167,-0.0167
A,2026-06-03 08:25:00,8,25,389.97,38.33,0.63,0.0,1,43.11,90,4,1,1.0,sunny,0,0,0.0,0.0001,-0.0001
A,2026-06-03 08:30:00,8,30,416.32,31.88,0.673,0.0,3,46.44,90,4,1,1.0,sunny,0,0,0.0,0.0001,-0.0001
A,2026-06-03 08:35:00,8,35,381.87,40.97,0.619,0.0,2,45.78,90,4,1,1.0,sunny,0,0,0.0,0.0001,-0.0001
A,2026-06-03 08:40:00,8,40,527.74,32.17,0.828,0.0,3,42.34,90,4,1,1.0,rainy,0,0,0.0,0.5262,-0.5262
A,2026-06-03 08:45:00,8,45,406.95,35.94,0.675,0.0,4,45.52,90,4,1,1.0,sunny,0,0,0.0,0.0001,-0.0001
A,2026-06-03 08:50:00,8,50,401.89,35.1,0.704,0.0,3,38.37,90,4,1,1.0,sunny,0,0,0.0,0.0006,-0.0006
A,2026-06-03 08:55:00,8,55,422.76,40.18,0.635,0.0,1,31.99,90,4,1,1.0,sunny,0,0,0.0,0.0463,-0.0463
A,2026-06-03 09:00:00,9,0,429.19,36.04,0.651,0.0,2,44.58,90,4,1,1.0,sunny,0,0,0.0,0.0008,-0.0008
A,2026-06-03 09:05:00,9,5,414.35,33.06,0.616,0.0,4,38.91,90,4,1,1.0,cloudy,0,0,0.0,0.0005,-0.0005
A,2026-06-03 09:10:00,9,10,437.02,35.09,0.684,0.0,4,43.48,90,4,1,1.0,sunny,0,0,0.0,0.0007,-0.0007
A,2026-06-03 09:15:00,9,15,409.55,33.24,0.631,0.0,4,40.72,90,4,1,1.0,sunny,0,0,0.0,0.0001,-0.0001
A,2026-06-03 09:20:00,9,20,380.52,39.63,0.579,0.0,2,47.98,90,4,1,1.0,sunny,0,0,0.0,0.0001,-0.0001
A,2026-06-03 09:25:00,9,25,389.19,41.33,0.597,0.0,2,45.01,90,4,1,1.0,sunny,0,0,0.0,0.0001,-0.0001
A,2026-06-03 09:30:00,9,30,410.17,43.51,0.65,0.0,1,46.48,90,4,1,1.0,cloudy,0,0,0.0,0.0011,-0.0011
A,2026-06-03 09:35:00,9,35,428.88,40.59,0.64,0.0,1,44.35,90,4,1,1.0,cloudy,0,0,0.0,0.0012,-0.0012
A,2026-06-03 09:40:00,9,40,416.74,41.42,0.647,0.0,1,42.85,90,4,1,1.0,sunny,0,0,0.0,0.0001,-0.0001
A,2026-06-03 09:45:00,9,45,503.85,29.5,0.765,0.0,3,42.98,90,4,1,1.0,rainy,0,0,0.0,0.1922,-0.1922
A,2026-06-03 09:50:00,9,50,383.71,38.64,0.605,0.0,3,45.17,90,4,1,1.0,sunny,0,0,0.0,0.004,-0.004
A,2026-06-03 09:55:00,9,55,414.75,37.96,0.626,0.0,4,44.97,90,4,1,1.0,sunny,0,0,0.0,0.0001,-0.0001
A,2026-06-03 10:00:00,10,0,272.14,41.69,0.472,0.0,1,35.46,90,4,0,1.0,sunny,0,0,0.0,0.0001,-0.0001
A,2026-06-03 10:05:00,10,5,354.51,38.83,0.558,0.0,3,34.17,90,4,0,1.0,rainy,0,0,0.0,0.0002,-0.0002
A,2026-06-03 10:10:00,10,10,284.02,41.9,0.508,0.0,1,32.29,90,4,0,1.0,sunny,0,0,0.0,0.0004,-0.0004
A,2026-06-03 10:15:00,10,15,297.77,43.78,0.515,0.0,1,34.51,90,4,0,1.0,sunny,0,0,0.0,0.0001,-0.0001
A,2026-06-03 10:20:00,10,20,289.63,40.85,0.495,0.0,3,30.88,90,4,0,1.0,sunny,0,0,0.0,0.001,-0.001
A,2026-06-03 10:25:00,10,25,282.85,36.46,0.532,0.0,2,34.2,90,4,0,1.0,sunny,0,0,0.0,0.0006,-0.0006
A,2026-06-03 10:30:00,10,30,299.26,42.4,0.542,0.0,3,32.45,90,4,0,1.0,cloudy,0,0,0.0,0.0002,-0.0002
A,2026-06-03 10:35:00,10,35,329.4,35.27,0.521,0.0,4,34.9,90,4,0,1.0,cloudy,0,0,0.0,0.0001,-0.0001
A,2026-06-03 10:40:00,10,40,354.41,41.54,0.54,0.0,4,31.17,90,4,0,1.0,cloudy,0,0,0.0,0.0049,-0.0049
A,2026-06-03 10:45:00,10,45,302.35,42.52,0.506,0.0,1,37.18,90,4,0,1.0,sunny,0,0,0.0,0.0001,-0.0001
A,2026-06-03 10:50:00,10,50,323.01,45.81,0.465,0.0,3,38.88,90,4,0,1.0,sunny,0,0,0.0,0.0001,-0.0001
A,2026-06-03 10:55:00,10,55,368.68,40.59,0.573,0.0,1,37.79,90,4,0,1.0,rainy,0,0,0.0,0.0001,-0.0001
A,2026-06-03 11:00:00,11,0,308.54,39.11,0.498,0.0,2,31.47,90,4,0,1.0,sunny,0,0,0.0,0.0021,-0.0021
A,2026-06-03 11:05:00,11,5,316.01,43.29,0.527,0.0,1,38.73,90,4,0,1.0,cloudy,0,0,0.0,0.0001,-0.0001
A,2026-06-03 11:10:00,11,10,266.46,41.34,0.48,0.0,3,31.17,90,4,0,1.0,sunny,0,0,0.0,0.0013,-0.0013
A,2026-06-03 11:15:00,11,15,313.66,42.02,0.496,0.0,3,36.01,90,4,0,1.0,sunny,0,0,0.0,0.0001,-0.0001
A,2026-06-03 11:20:00,11,20,304.66,33.85,0.558,0.0,3,33.1,90,4,0,1.0,cloudy,0,0,0.0,0.0037,-0.0037
A,2026-06-03 11:25:00,11,25,355.18,43.56,0.564,0.0,3,26.33,90,4,0,1.0,rainy,0,0,0.0,0.5708,-0.5708
A,2026-06-03 11:30:00,11,30,272.3,43.68,0.517,0.0,1,36.81,90,4,0,1.0,sunny,0,0,0.0,0.0001,-0.0001
A,2026-06-03 11:35:00,11,35,259.44,42.54,0.421,0.0,1,37.67,90,4,0,1.0,sunny,0,0,0.0,0.0001,-0.0001
A,2026-06-03 11:40:00,11,40,288.39,42.04,0.528,0.0,3,37.52,90,4,0,1.0,cloudy,0,0,0.0,0.0001,-0.0001
A,2026-06-03 11:45:00,11,45,291.23,40.38,0.467,0.0,3,31.27,90,4,0,1.0,cloudy,0,0,0.0,0.0086,-0.0086
A,2026-06-03 11:50:00,11,50,244.0,38.28,0.445,0.0,4,41.02,90,4,0,1.0,sunny,0,0,0.0,0.0001,-0.0001
A,2026-06-03 11:55:00,11,55,293.69,39.06,0.491,0.0,2,37.0,90,4,0,1.0,sunny,0,0,0.0,0.0001,-0.0001
A,2026-06-03 12:00:00,12,0,302.44,37.04,0.551,0.0,2,29.98,90,4,0,1.0,sunny,0,0,0.0,0.023,-0.023
A,2026-06-03 12:05:00,12,5,245.18,37.27,0.42,0.0,1,36.59,90,4,0,1.0,sunny,0,0,0.0,0.0001,-0.0001
A,2026-06-03 12:10:00,12,10,336.67,42.11,0.581,0.0,3,35.04,90,4,0,1.0,cloudy,0,0,0.0,0.0002,-0.0002
A,2026-06-03 12:15:00,12,15,292.01,40.74,0.496,0.0,1,37.77,90,4,0,1.0,sunny,0,0,0.0,0.0001,-0.0001
A,2026-06-03 12:20:00,12,20,318.43,40.37,0.581,0.0,1,33.07,90,4,0,1.0,cloudy,0,0,0.0,0.0017,-0.0017
A,2026-06-03 12:25:00,12,25,272.21,47.17,0.489,0.0,4,37.09,90,4,0,1.0,sunny,0,0,0.0,0.0001,-0.0001
A,2026-06-03 12:30:00,12,30,332.13,42.15,0.591,0.0,3,30.2,90,4,0,1.0,cloudy,0,0,0.0,0.0091,-0.0091
A,2026-06-03 12:35:00,12,35,290.52,40.59,0.518,0.0,4,34.61,90,4,0,1.0,sunny,0,0,0.0,0.0001,-0.0001
A,2026-06-03 12:40:00,12,40,342.46,40.61,0.567,0.0,4,34.87,90,4,0,1.0,rainy,0,0,0.0,0.0002,-0.0002
A,2026-06-03 12:45:00,12,45,280.65,35.46,0.501,0.0,4,32.83,90,4,0,1.0,sunny,0,0,0.0,0.0002,-0.0002
A,2026-06-03 12:50:00,12,50,251.25,43.54,0.44,0.0,3,42.56,90,4,0,1.0,sunny,0,0,0.0,0.0001,-0.0001
A,2026-06-03 12:55:00,12,55,339.48,38.52,0.537,0.0,3,39.34,90,4,0,1.0,rainy,0,0,0.0,0.0001,-0.0001
A,2026-06-03 13:00:00,13,0,309.16,42.51,0.489,0.0,2,28.64,90,4,0,1.0,sunny,0,0,0.0,0.0097,-0.0097
A,2026-06-03 13:05:00,13,5,278.26,40.52,0.477,0.0,3,38.83,90,4,0,1.0,sunny,0,0,0.0,0.0001,-0.0001
A,2026-06-03 13:10:00,13,10,235.22,48.32,0.42,0.0,3,32.68,90,4,0,1.0,sunny,0,0,0.0,0.0002,-0.0002
A,2026-06-03 13:15:00,13,15,283.39,36.93,0.477,0.0,4,37.07,90,4,0,1.0,sunny,0,0,0.0,0.0001,-0.0001
A,2026-06-03 13:20:00,13,20,287.5,46.73,0.475,0.0,2,33.69,90,4,0,1.0,sunny,0,0,0.0,0.0001,-0.0001
A,2026-06-03 13:25:00,13,25,307.92,40.98,0.502,0.0,1,31.39,90,4,0,1.0,sunny,0,0,0.0,0.0021,-0.0021
A,2026-06-03 13:30:00,13,30,327.83,39.62,0.553,0.0,3,23.11,90,4,0,1.0,sunny,0,0,0.0,0.5878,-0.5878
A,2026-06-03 13:35:00,13,35,285.43,39.07,0.511,0.0,1,34.74,90,4,0,1.0,sunny,0,0,0.0,0.0001,-0.0001
A,2026-06-03 13:40:00,13,40,271.68,38.77,0.48,0.0,2,27.52,90,4,0,1.0,sunny,0,0,0.0,0.0074,-0.0074
A,2026-06-03 13:45:00,13,45,295.44,47.87,0.451,0.0,2,37.84,90,4,0,1.0,sunny,0,0,0.0,0.0001,-0.0001
A,2026-06-03 13:50:00,13,50,329.31,38.2,0.55,0.0,2,30.73,90,4,0,1.0,cloudy,0,0,0.0,0.0054,-0.0054
A,2026-06-03 13:55:00,13,55,268.11,40.41,0.469,0.0,2,40.61,90,4,0,1.0,cloudy,0,0,0.0,0.0001,-0.0001
A,2026-06-03 14:00:00,14,0,268.12,40.76,0.487,0.0,3,37.04,90,4,0,1.0,sunny,0,0,0.0,0.0001,-0.0001
A,2026-06-03 14:05:00,14,5,256.71,45.34,0.436,0.0,4,29.86,90,4,0,1.0,sunny,0,0,0.0,0.0098,-0.0098
A,2026-06-03 14:10:00,14,10,325.09,38.4,0.529,0.0,3,36.69,90,4,0,1.0,sunny,0,0,0.0,0.0001,-0.0001
A,2026-06-03 14:15:00,14,15,294.97,43.21,0.5,0.0,1,34.1,90,4,0,1.0,sunny,0,0,0.0,0.0001,-0.0001
A,2026-06-03 14:20:00,14,20,334.77,36.86,0.486,0.0,4,39.38,90,4,0,1.0,rainy,0,0,0.0,0.0001,-0.0001
A,2026-06-03 14:25:00,14,25,331.01,40.84,0.557,0.0,1,44.72,90,4,0,1.0,rainy,0,0,0.0,0.0001,-0.0001
A,2026-06-03 14:30:00,14,30,278.39,47.61,0.435,0.0,4,38.06,90,4,0,1.0,sunny,0,0,0.0,0.0001,-0.0001
A,2026-06-03 14:35:00,14,35,264.49,43.64,0.433,0.0,3,30.38,90,4,0,1.0,sunny,0,0,0.0,0.0005,-0.0005
A,2026-06-03 14:40:00,14,40,265.72,40.21,0.455,0.0,4,34.76,90,4,0,1.0,sunny,0,0,0.0,0.0001,-0.0001
A,2026-06-03 14:45:00,14,45,382.9,37.56,0.617,0.0,2,32.33,90,4,0,1.0,rainy,0,0,0.0,0.0033,-0.0033
A,2026-06-03 14:50:00,14,50,283.3,38.82,0.485,0.0,3,31.24,90,4,0,1.0,sunny,0,0,0.0,0.0104,-0.0104
A,2026-06-03 14:55:00,14,55,293.34,42.27,0.537,0.0,2,41.79,90,4,0,1.0,sunny,0,0,0.0,0.0001,-0.0001
A,2026-06-03 15:00:00,15,0,337.42,40.06,0.513,0.0,4,35.85,90,4,0,1.0,rainy,0,0,0.0,0.0001,-0.0001
A,2026-06-03 15:05:00,15,5,252.89,47.71,0.465,0.0,3,37.64,90,4,0,1.0,sunny,0,0,0.0,0.0001,-0.0001
A,2026-06-03 15:10:00,15,10,302.36,33.89,0.523,0.0,3,30.19,90,4,0,1.0,sunny,0,0,0.0,0.0141,-0.0141
A,2026-06-03 15:15:00,15,15,359.53,38.42,0.594,0.0,2,29.61,90,4,0,1.0,rainy,0,0,0.0,0.0304,-0.0304
A,2026-06-03 15:20:00,15,20,270.63,43.14,0.487,0.0,4,28.28,90,4,0,1.0,sunny,0,0,0.0,0.0054,-0.0054
A,2026-06-03 15:25:00,15,25,280.64,42.34,0.493,0.0,4,32.12,90,4,0,1.0,sunny,0,0,0.0,0.0014,-0.0014
A,2026-06-03 15:30:00,15,30,273.66,40.67,0.478,0.0,4,37.69,90,4,0,1.0,sunny,0,0,0.0,0.0001,-0.0001
A,2026-06-03 15:35:00,15,35,314.84,41.38,0.581,0.0,3,31.25,90,4,0,1.0,cloudy,0,0,0.0,0.016,-0.016
A,2026-06-03 15:40:00,15,40,362.65,38.93,0.597,0.0,4,38.79,90,4,0,1.0,rainy,0,0,0.0,0.0005,-0.0005
A,2026-06-03 15:45:00,15,45,313.47,45.89,0.507,0.0,4,35.3,90,4,0,1.0,cloudy,0,0,0.0,0.0001,-0.0001
A,2026-06-03 15:50:00,15,50,279.6,39.11,0.463,0.0,1,30.48,90,4,0,1.0,sunny,0,0,0.0,0.0006,-0.0006
A,2026-06-03 15:55:00,15,55,276.43,39.81,0.489,0.0,4,24.24,90,4,0,1.0,sunny,0,0,0.0,0.0997,-0.0997
A,2026-06-03 16:00:00,16,0,282.73,42.2,0.537,0.0,3,31.49,90,4,0,1.0,cloudy,0,0,0.0,0.0028,-0.0028
A,2026-06-03 16:05:00,16,5,298.11,44.74,0.503,0.0,1,33.69,90,4,0,1.0,sunny,0,0,0.0,0.0001,-0.0001
A,2026-06-03 16:10:00,16,10,305.09,35.58,0.507,0.0,3,34.2,90,4,0,1.0,sunny,0,0,0.0,0.0001,-0.0001
A,2026-06-03 16:15:00,16,15,283.24,36.85,0.521,0.0,4,35.37,90,4,0,1.0,sunny,0,0,0.0,0.0001,-0.0001
A,2026-06-03 16:20:00,16,20,271.92,46.8,0.485,0.0,4,39.54,90,4,0,1.0,sunny,0,0,0.0,0.0001,-0.0001
A,2026-06-03 16:25:00,16,25,293.33,37.37,0.511,0.0,2,30.43,90,4,0,1.0,sunny,0,0,0.0,0.007,-0.007
A,2026-06-03 16:30:00,16,30,291.45,40.6,0.517,0.0,4,30.17,90,4,0,1.0,sunny,0,0,0.0,0.009,-0.009
A,2026-06-03 16:35:00,16,35,311.61,37.46,0.554,0.0,2,30.9,90,4,0,1.0,cloudy,0,0,0.0,0.0052,-0.0052
A,2026-06-03 16:40:00,16,40,344.5,41.21,0.577,0.0,1,36.8,90,4,0,1.0,cloudy,0,0,0.0,0.0001,-0.0001
A,2026-06-03 16:45:00,16,45,302.75,42.2,0.491,0.0,1,38.22,90,4,0,1.0,cloudy,0,0,0.0,0.0001,-0.0001
A,2026-06-03 16:50:00,16,50,359.86,39.51,0.601,0.0,1,35.89,90,4,0,1.0,rainy,0,0,0.0,0.0001,-0.0001
A,2026-06-03 16:55:00,16,55,363.73,38.79,0.618,0.0,1,37.19,90,4,0,1.0,rainy,0,0,0.0,0.0005,-0.0005
A,2026-06-03 17:00:00,17,0,393.46,37.35,0.646,0.0,4,40.23,90,4,1,1.0,sunny,0,0,0.0,0.0001,-0.0001
A,2026-06-03 17:05:00,17,5,412.35,30.56,0.69,0.0,4,44.53,90,4,1,1.0,sunny,0,0,0.0,0.0109,-0.0109
A,2026-06-03 17:10:00,17,10,433.92,38.19,0.693,0.0,3,40.54,90,4,1,1.0,sunny,0,0,0.0,0.0027,-0.0027
A,2026-06-03 17:15:00,17,15,426.61,35.97,0.684,0.0,2,51.45,90,4,1,1.0,sunny,0,0,0.0,0.0002,-0.0002
A,2026-06-03 17:20:00,17,20,400.69,32.83,0.67,0.0,3,36.71,90,4,1,1.0,sunny,0,0,0.0,0.0001,-0.0001
A,2026-06-03 17:25:00,17,25,442.82,34.83,0.661,0.0,2,39.89,90,4,1,1.0,sunny,0,0,0.0,0.0004,-0.0004
A,2026-06-03 17:30:00,17,30,382.95,38.74,0.576,0.0,2,44.95,90,4,1,1.0,sunny,0,0,0.0,0.0001,-0.0001
A,2026-06-03 17:35:00,17,35,439.79,38.84,0.662,0.0,3,43.94,90,4,1,1.0,sunny,0,0,0.0,0.0129,-0.0129
A,2026-06-03 17:40:00,17,40,367.8,40.37,0.556,0.0,2,37.52,90,4,1,1.0,sunny,0,0,0.0,0.0001,-0.0001
A,2026-06-03 17:45:00,17,45,382.12,43.03,0.59,0.0,4,39.64,90,4,1,1.0,sunny,0,0,0.0,0.0001,-0.0001
A,2026-06-03 17:50:00,17,50,434.86,33.94,0.67,0.0,4,37.82,90,4,1,1.0,cloudy,0,0,0.0,0.0029,-0.0029
A,2026-06-03 17:55:00,17,55,484.86,32.81,0.745,0.0,3,46.96,90,4,1,1.0,rainy,0,0,0.0,0.0034,-0.0034
A,2026-06-03 18:00:00,18,0,385.65,33.77,0.584,0.0,4,38.89,90,4,1,1.0,sunny,0,0,0.0,0.0001,-0.0001
A,2026-06-03 18:05:00,18,5,489.86,37.51,0.764,0.0,1,54.6,90,4,1,1.0,rainy,0,0,0.0,0.2082,-0.2082
A,2026-06-03 18:10:00,18,10,419.5,38.75,0.64,0.0,3,41.49,90,4,1,1.0,cloudy,0,0,0.0,0.0001,-0.0001
A,2026-06-03 18:15:00,18,15,429.42,32.88,0.689,0.0,3,43.91,90,4,1,1.0,sunny,0,0,0.0,0.0021,-0.0021
A,2026-06-03 18:20:00,18,20,437.26,34.53,0.655,0.0,3,38.89,90,4,1,1.0,cloudy,0,0,0.0,0.0007,-0.0007
A,2026-06-03 18:25:00,18,25,499.85,33.95,0.783,0.0,2,39.04,90,4,1,1.0,rainy,0,0,0.0,0.2535,-0.2535
A,2026-06-03 18:30:00,18,30,501.33,37.27,0.749,0.0,2,45.58,90,4,1,1.0,rainy,0,0,0.0,0.0098,-0.0098
A,2026-06-03 18:35:00,18,35,393.2,39.54,0.63,0.0,4,32.94,90,4,1,1.0,sunny,0,0,0.0,0.0007,-0.0007
A,2026-06-03 18:40:00,18,40,396.03,35.45,0.638,0.0,4,44.76,90,4,1,1.0,sunny,0,0,0.0,0.0001,-0.0001
A,2026-06-03 18:45:00,18,45,391.33,35.85,0.646,0.0,1,50.18,90,4,1,1.0,sunny,0,0,0.0,0.0001,-0.0001
A,2026-06-03 18:50:00,18,50,348.09,40.15,0.557,0.0,4,41.75,90,4,1,1.0,sunny,0,0,0.0,0.0001,-0.0001
A,2026-06-03 18:55:00,18,55,381.85,37.78,0.598,0.0,1,43.62,90,4,1,1.0,sunny,0,0,0.0,0.0001,-0.0001
A,2026-06-03 19:00:00,19,0,358.19,42.12,0.556,0.0,1,41.98,90,4,1,1.0,sunny,0,0,0.0,0.0001,-0.0001
A,2026-06-03 19:05:00,19,5,397.59,37.29,0.624,0.0,4,41.44,90,4,1,1.0,sunny,0,0,0.0,0.0001,-0.0001
A,2026-06-03 19:10:00,19,10,518.81,37.44,0.72,0.0,4,36.75,90,4,1,1.0,rainy,0,0,0.0,0.9953,-0.9953
A,2026-06-03 19:15:00,19,15,374.41,39.24,0.581,0.0,1,50.92,90,4,1,1.0,sunny,0,0,0.0,0.0001,-0.0001
A,2026-06-03 19:20:00,19,20,392.07,42.19,0.63,0.0,2,56.29,90,4,1,1.0,sunny,0,0,0.0,0.0005,-0.0005
A,2026-06-03 19:25:00,19,25,383.22,43.98,0.565,0.0,2,47.3,90,4,1,1.0,sunny,0,0,0.0,0.0055,-0.0055
A,2026-06-03 19:30:00,19,30,472.01,37.28,0.709,0.0,4,45.27,90,4,1,1.0,cloudy,0,0,0.0,0.0005,-0.0005
A,2026-06-03 19:35:00,19,35,401.57,41.28,0.621,0.0,2,42.16,90,4,1,1.0,sunny,0,0,0.0,0.0006,-0.0006
A,2026-06-03 19:40:00,19,40,404.36,43.15,0.636,0.0,1,35.4,90,4,1,1.0,sunny,0,0,0.0,0.001,-0.001
A,2026-06-03 19:45:00,19,45,340.79,42.85,0.556,0.0,3,45.67,90,4,1,1.0,sunny,0,0,0.0,0.0001,-0.0001
A,2026-06-03 19:50:00,19,50,452.16,37.21,0.693,0.0,3,39.87,90,4,1,1.0,cloudy,0,0,0.0,0.0005,-0.0005
A,2026-06-03 19:55:00,19,55,393.76,34.1,0.682,0.0,4,35.36,90,4,1,1.0,sunny,0,0,0.0,0.0005,-0.0005
A,2026-06-03 20:00:00,20,0,277.59,42.03,0.482,0.0,3,34.91,90,4,0,1.0,rainy,0,0,0.0,0.0001,-0.0001
A,2026-06-03 20:05:00,20,5,273.3,41.36,0.437,0.0,4,37.9,90,4,0,1.0,rainy,0,0,0.0,0.0001,-0.0001
A,2026-06-03 20:10:00,20,10,226.96,42.82,0.409,0.0,3,31.75,90,4,0,1.0,cloudy,0,0,0.0,0.0013,-0.0013
A,2026-06-03 20:15:00,20,15,194.69,42.74,0.351,0.0,4,25.26,90,4,0,1.0,sunny,0,0,0.0,0.0174,-0.0174
A,2026-06-03 20:20:00,20,20,198.39,44.36,0.4,0.0,1,41.0,90,4,0,1.0,cloudy,0,0,0.0,0.0001,-0.0001
A,2026-06-03 20:25:00,20,25,198.22,46.12,0.414,0.0,2,34.78,90,4,0,1.0,sunny,0,0,0.0,0.0001,-0.0001
A,2026-06-03 20:30:00,20,30,221.49,36.36,0.477,0.0,4,33.99,90,4,0,1.0,sunny,0,0,0.0,0.0001,-0.0001
A,2026-06-03 20:35:00,20,35,191.68,44.13,0.364,0.0,1,31.78,90,4,0,1.0,sunny,0,0,0.0,0.0013,-0.0013
A,2026-06-03 20:40:00,20,40,234.33,40.16,0.434,0.0,1,30.65,90,4,0,1.0,sunny,0,0,0.0,0.0006,-0.0006
A,2026-06-03 20:45:00,20,45,222.91,39.1,0.423,0.0,2,29.06,90,4,0,1.0,sunny,0,0,0.0,0.0,-0.0
A,2026-06-03 20:50:00,20,50,212.11,39.94,0.42,0.0,4,37.89,90,4,0,1.0,sunny,0,0,0.0,0.0001,-0.0001
A,2026-06-03 20:55:00,20,55,263.68,40.52,0.48,0.0,2,33.61,90,4,0,1.0,rainy,0,0,0.0,0.0004,-0.0004
A,2026-06-03 21:00:00,21,0,272.81,39.56,0.433,0.0,1,37.8,90,4,0,1.0,rainy,0,0,0.0,0.0001,-0.0001
A,2026-06-03 21:05:00,21,5,219.19,43.31,0.451,0.0,1,38.07,90,4,0,1.0,sunny,0,0,0.0,0.0001,-0.0001
A,2026-06-03 21:10:00,21,10,240.09,44.69,0.501,0.0,2,35.91,90,4,0,1.0,cloudy,0,0,0.0,0.0001,-0.0001
A,2026-06-03 21:15:00,21,15,210.74,45.87,0.38,0.0,3,34.53,90,4,0,1.0,sunny,0,0,0.0,0.0001,-0.0001
A,2026-06-03 21:20:00,21,20,244.94,43.46,0.442,0.0,2,26.35,90,4,0,1.0,sunny,0,0,0.0,0.0053,-0.0053
A,2026-06-03 21:25:00,21,25,237.56,39.68,0.396,0.0,4,35.94,90,4,0,1.0,sunny,0,0,0.0,0.0001,-0.0001
A,2026-06-03 21:30:00,21,30,245.14,39.26,0.465,0.0,3,40.28,90,4,0,1.0,cloudy,0,0,0.0,0.0001,-0.0001
A,2026-06-03 21:35:00,21,35,230.96,37.81,0.435,0.0,4,31.66,90,4,0,1.0,cloudy,0,0,0.0,0.0013,-0.0013
A,2026-06-03 21:40:00,21,40,228.41,43.28,0.401,0.0,4,33.68,90,4,0,1.0,sunny,0,0,0.0,0.0001,-0.0001
A,2026-06-03 21:45:00,21,45,228.09,45.82,0.449,0.0,2,34.87,90,4,0,1.0,sunny,0,0,0.0,0.0001,-0.0001
A,2026-06-03 21:50:00,21,50,184.56,38.16,0.374,0.0,3,45.33,90,4,0,1.0,sunny,0,0,0.0,0.0001,-0.0001
A,2026-06-03 21:55:00,21,55,207.73,42.14,0.407,0.0,1,38.13,90,4,0,1.0,sunny,0,0,0.0,0.0001,-0.0001
A,2026-06-03 22:00:00,22,0,268.06,40.97,0.482,0.0,3,33.34,90,4,0,1.0,rainy,0,0,0.0,0.0004,-0.0004
A,2026-06-03 22:05:00,22,5,166.22,46.18,0.331,0.0,4,32.77,90,4,0,1.0,sunny,0,0,0.0,0.0002,-0.0002
A,2026-06-03 22:10:00,22,10,224.43,50.4,0.368,0.0,4,35.98,90,4,0,1.0,cloudy,0,0,0.0,0.0001,-0.0001
A,2026-06-03 22:15:00,22,15,228.8,46.01,0.41,0.0,2,36.38,90,4,0,1.0,sunny,0,0,0.0,0.0001,-0.0001
A,2026-06-03 22:20:00,22,20,264.97,39.96,0.5,0.0,1,37.14,90,4,0,1.0,rainy,0,0,0.0,0.0001,-0.0001
A,2026-06-03 22:25:00,22,25,203.15,42.14,0.385,0.0,1,33.71,90,4,0,1.0,sunny,0,0,0.0,0.0001,-0.0001
A,2026-06-03 22:30:00,22,30,189.19,46.03,0.353,0.0,1,37.12,90,4,0,1.0,sunny,0,0,0.0,0.0001,-0.0001
A,2026-06-03 22:35:00,22,35,192.77,42.77,0.392,0.0,1,43.37,90,4,0,1.0,sunny,0,0,0.0,0.0001,-0.0001
A,2026-06-03 22:40:00,22,40,214.87,41.46,0.441,0.0,1,31.12,90,4,0,1.0,cloudy,0,0,0.0,0.0013,-0.0013
A,2026-06-03 22:45:00,22,45,186.2,47.16,0.368,0.0,3,34.4,90,4,0,1.0,cloudy,0,0,0.0,0.0001,-0.0001
A,2026-06-03 22:50:00,22,50,237.41,37.56,0.465,0.0,1,34.74,90,4,0,1.0,sunny,0,0,0.0,0.0001,-0.0001
A,2026-06-03 22:55:00,22,55,187.97,42.01,0.376,0.0,1,29.38,90,4,0,1.0,sunny,0,0,0.0,0.0001,-0.0001
A,2026-06-03 23:00:00,23,0,136.21,47.1,0.282,0.0,2,39.52,90,4,0,1.0,rainy,0,0,0.0,0.0001,-0.0001
A,2026-06-03 23:05:00,23,5,145.96,46.6,0.303,0.0,3,40.48,90,4,0,1.0,sunny,0,0,0.0,0.0001,-0.0001
A,2026-06-03 23:10:00,23,10,135.2,49.54,0.281,0.0,3,35.17,90,4,0,1.0,sunny,0,0,0.0,0.0001,-0.0001
A,2026-06-03 23:15:00,23,15,137.09,50.65,0.251,0.0,2,36.79,90,4,0,1.0,sunny,0,0,0.0,0.0001,-0.0001
A,2026-06-03 23:20:00,23,20,133.44,50.27,0.302,0.0,1,44.57,90,4,0,1.0,sunny,0,0,0.0,0.0001,-0.0001
A,2026-06-03 23:25:00,23,25,144.4,43.57,0.303,0.0,4,39.24,90,4,0,1.0,sunny,0,0,0.0,0.0001,-0.0001
A,2026-06-03 23:30:00,23,30,138.58,44.76,0.287,0.0,2,41.52,90,4,0,1.0,sunny,0,0,0.0,0.0001,-0.0001
A,2026-06-03 23:35:00,23,35,160.53,46.53,0.302,0.0,4,37.4,90,4,0,1.0,cloudy,0,0,0.0,0.0001,-0.0001
A,2026-06-03 23:40:00,23,40,164.51,43.5,0.317,0.0,2,30.26,90,4,0,1.0,sunny,0,0,0.0,0.0004,-0.0004
A,2026-06-03 23:45:00,23,45,140.29,49.44,0.294,0.0,1,35.18,90,4,0,1.0,sunny,0,0,0.0,0.0001,-0.0001
A,2026-06-03 23:50:00,23,50,166.62,47.58,0.35,0.0,2,33.83,90,4,0,1.0,cloudy,0,0,0.0,0.0001,-0.0001
A,2026-06-03 23:55:00,23,55,159.07,48.01,0.32,0.0,2,34.0,90,4,0,1.0,sunny,0,0,0.0,0.0001,-0.0001
A,2026-06-04 00:00:00,0,0,136.44,46.41,0.358,0.0,1,32.45,90,4,0,1.0,sunny,0,0,0.0,0.0002,-0.0002
A,2026-06-04 00:05:00,0,5,144.63,45.97,0.324,0.0,3,30.32,90,4,0,1.0,sunny,0,0,0.0,0.0084,-0.0084
A,2026-06-04 00:10:00,0,10,136.53,48.11,0.296,0.0,3,37.31,90,4,0,1.0,sunny,0,0,0.0,0.0001,-0.0001
A,2026-06-04 00:15:00,0,15,133.31,48.07,0.26,0.0,1,40.39,90,4,0,1.0,sunny,0,0,0.0,0.0001,-0.0001
A,2026-06-04 00:20:00,0,20,154.48,45.82,0.333,0.0,3,43.14,90,4,0,1.0,cloudy,0,0,0.0,0.0001,-0.0001
A,2026-06-04 00:25:00,0,25,161.24,43.09,0.358,0.0,4,31.76,90,4,0,1.0,rainy,0,0,0.0,0.0027,-0.0027
A,2026-06-04 00:30:00,0,30,113.4,45.65,0.259,0.0,4,35.88,90,4,0,1.0,sunny,0,0,0.0,0.0001,-0.0001
A,2026-06-04 00:35:00,0,35,163.33,44.43,0.368,0.0,1,46.16,90,4,0,1.0,sunny,0,0,0.0,0.0001,-0.0001
A,2026-06-04 00:40:00,0,40,195.64,37.83,0.427,0.0,2,45.58,90,4,0,1.0,cloudy,0,0,0.0,0.0001,-0.0001
A,2026-06-04 00:45:00,0,45,141.4,40.3,0.41,0.0,2,34.7,90,4,0,1.0,sunny,0,0,0.0,0.0001,-0.0001
A,2026-06-04 00:50:00,0,50,142.97,47.44,0.325,0.0,2,29.78,90,4,0,1.0,sunny,0,0,0.0,0.0013,-0.0013
A,2026-06-04 00:55:00,0,55,171.25,41.47,0.358,0.0,3,39.68,90,4,0,1.0,sunny,0,0,0.0,0.0001,-0.0001
A,2026-06-04 01:00:00,1,0,148.05,41.87,0.292,0.0,4,30.32,90,4,0,1.0,sunny,0,0,0.0,0.0084,-0.0084
A,2026-06-04 01:05:00,1,5,158.74,47.73,0.3,0.0,3,33.03,90,4,0,1.0,rainy,0,0,0.0,0.0004,-0.0004
A,2026-06-04 01:10:00,1,10,170.01,49.33,0.331,0.0,1,31.43,90,4,0,1.0,rainy,0,0,0.0,0.0035,-0.0035
A,2026-06-04 01:15:00,1,15,161.51,45.41,0.384,0.0,2,25.11,90,4,0,1.0,sunny,0,0,0.0,0.0122,-0.0122
A,2026-06-04 01:20:00,1,20,155.42,48.44,0.327,0.0,3,36.84,90,4,0,1.0,cloudy,0,0,0.0,0.0001,-0.0001
A,2026-06-04 01:25:00,1,25,183.9,42.17,0.364,0.0,3,31.87,90,4,0,1.0,sunny,0,0,0.0,0.0022,-0.0022
A,2026-06-04 01:30:00,1,30,150.73,47.54,0.355,0.0,2,31.51,90,4,0,1.0,cloudy,0,0,0.0,0.0009,-0.0009
A,2026-06-04 01:35:00,1,35,207.83,40.92,0.409,0.0,4,40.27,90,4,0,1.0,sunny,0,0,0.0,0.0001,-0.0001
A,2026-06-04 01:40:00,1,40,212.94,46.16,0.368,0.0,3,38.93,90,4,0,1.0,rainy,0,0,0.0,0.0001,-0.0001
A,2026-06-04 01:45:00,1,45,147.78,46.57,0.354,0.0,4,37.62,90,4,0,1.0,sunny,0,0,0.0,0.0001,-0.0001
A,2026-06-04 01:50:00,1,50,140.9,43.18,0.341,0.0,4,24.98,90,4,0,1.0,sunny,0,0,0.0,0.0025,-0.0025
A,2026-06-04 01:55:00,1,55,130.61,41.43,0.287,0.0,4,37.95,90,4,0,1.0,sunny,0,0,0.0,0.0001,-0.0001
A,2026-06-04 02:00:00,2,0,134.2,42.98,0.323,0.0,2,27.37,90,4,0,1.0,sunny,0,0,0.0,0.0045,-0.0045
A,2026-06-04 02:05:00,2,5,150.59,49.17,0.308,0.0,3,30.28,90,4,0,1.0,sunny,0,0,0.0,0.0004,-0.0004
A,2026-06-04 02:10:00,2,10,125.05,50.9,0.303,0.0,2,47.14,90,4,0,1.0,sunny,0,0,0.0,0.0001,-0.0001
A,2026-06-04 02:15:00,2,15,155.39,43.79,0.313,0.0,1,36.99,90,4,0,1.0,sunny,0,0,0.0,0.0001,-0.0001
A,2026-06-04 02:20:00,2,20,173.24,49.29,0.349,0.0,1,35.67,90,4,0,1.0,sunny,0,0,0.0,0.0001,-0.0001
A,2026-06-04 02:25:00,2,25,133.77,46.38,0.305,0.0,2,37.46,90,4,0,1.0,cloudy,0,0,0.0,0.0001,-0.0001
A,2026-06-04 02:30:00,2,30,181.04,39.55,0.388,0.0,2,36.27,90,4,0,1.0,cloudy,0,0,0.0,0.0001,-0.0001
A,2026-06-04 02:35:00,2,35,143.43,41.84,0.383,0.0,4,43.14,90,4,0,1.0,sunny,0,0,0.0,0.0001,-0.0001
A,2026-06-04 02:40:00,2,40,150.75,47.62,0.382,0.0,1,36.52,90,4,0,1.0,sunny,0,0,0.0,0.0001,-0.0001
A,2026-06-04 02:45:00,2,45,160.85,45.01,0.377,0.0,3,36.57,90,4,0,1.0,sunny,0,0,0.0,0.0001,-0.0001
A,2026-06-04 02:50:00,2,50,102.64,52.65,0.238,0.0,2,31.66,90,4,0,1.0,sunny,0,0,0.0,0.0013,-0.0013
A,2026-06-04 02:55:00,2,55,131.7,43.06,0.338,0.0,3,36.48,90,4,0,1.0,sunny,0,0,0.0,0.0001,-0.0001
A,2026-06-04 03:00:00,3,0,104.28,45.9,0.271,0.0,1,32.85,90,4,0,1.0,sunny,0,0,0.0,0.0002,-0.0002
A,2026-06-04 03:05:00,3,5,172.27,41.69,0.417,0.0,4,36.46,90,4,0,1.0,rainy,0,0,0.0,0.0001,-0.0001
A,2026-06-04 03:10:00,3,10,178.64,42.98,0.362,0.0,2,36.54,90,4,0,1.0,sunny,0,0,0.0,0.0001,-0.0001
A,2026-06-04 03:15:00,3,15,142.74,49.19,0.314,0.0,2,33.42,90,4,0,1.0,sunny,0,0,0.0,0.0001,-0.0001
A,2026-06-04 03:20:00,3,20,129.63,41.73,0.34,0.0,1,42.64,90,4,0,1.0,sunny,0,0,0.0,0.0001,-0.0001
A,2026-06-04 03:25:00,3,25,137.65,42.51,0.273,0.0,2,43.02,90,4,0,1.0,sunny,0,0,0.0,0.0001,-0.0001
A,2026-06-04 03:30:00,3,30,155.42,50.62,0.284,0.0,4,40.88,90,4,0,1.0,sunny,0,0,0.0,0.0001,-0.0001
A,2026-06-04 03:35:00,3,35,116.53,50.15,0.297,0.0,2,35.02,90,4,0,1.0,sunny,0,0,0.0,0.0001,-0.0001
A,2026-06-04 03:40:00,3,40,121.3,44.04,0.334,0.0,3,38.89,90,4,0,1.0,sunny,0,0,0.0,0.0001,-0.0001
A,2026-06-04 03:45:00,3,45,121.58,45.13,0.325,0.0,3,38.06,90,4,0,1.0,cloudy,0,0,0.0,0.0001,-0.0001
A,2026-06-04 03:50:00,3,50,119.01,44.32,0.314,0.0,1,34.8,90,4,0,1.0,sunny,0,0,0.0,0.0001,-0.0001
A,2026-06-04 03:55:00,3,55,163.13,47.53,0.301,0.0,3,46.44,90,4,0,1.0,sunny,0,0,0.0,0.0001,-0.0001
A,2026-06-04 04:00:00,4,0,124.23,47.66,0.297,0.0,4,32.05,90,4,0,1.0,sunny,0,0,0.0,0.001,-0.001
A,2026-06-04 04:05:00,4,5,116.4,50.42,0.288,0.0,1,38.64,90,4,0,1.0,sunny,0,0,0.0,0.0001,-0.0001
A,2026-06-04 04:10:00,4,10,153.76,43.19,0.329,0.0,2,35.8,90,4,0,1.0,cloudy,0,0,0.0,0.0001,-0.0001
A,2026-06-04 04:15:00,4,15,139.93,51.48,0.262,0.0,3,37.85,90,4,0,1.0,cloudy,0,0,0.0,0.0001,-0.0001
A,2026-06-04 04:20:00,4,20,189.91,41.61,0.374,0.0,3,29.68,90,4,0,1.0,rainy,0,0,0.0,0.0001,-0.0001
A,2026-06-04 04:25:00,4,25,172.54,43.33,0.385,0.0,1,36.86,90,4,0,1.0,sunny,0,0,0.0,0.0001,-0.0001
A,2026-06-04 04:30:00,4,30,135.27,48.9,0.286,0.0,1,29.69,90,4,0,1.0,sunny,0,0,0.0,0.0001,-0.0001
A,2026-06-04 04:35:00,4,35,192.16,48.58,0.381,0.0,1,32.34,90,4,0,1.0,rainy,0,0,0.0,0.0004,-0.0004
A,2026-06-04 04:40:00,4,40,192.62,44.17,0.359,0.0,4,30.07,90,4,0,1.0,cloudy,0,0,0.0,0.0023,-0.0023
A,2026-06-04 04:45:00,4,45,132.11,44.26,0.319,0.0,1,38.92,90,4,0,1.0,sunny,0,0,0.0,0.0001,-0.0001
A,2026-06-04 04:50:00,4,50,127.63,45.2,0.27,0.0,4,23.87,90,4,0,1.0,sunny,0,0,0.0,0.0044,-0.0044
A,2026-06-04 04:55:00,4,55,168.48,46.27,0.357,0.0,2,28.87,90,4,0,1.0,rainy,0,0,0.0,0.0001,-0.0001
A,2026-06-04 05:00:00,5,0,112.18,47.59,0.273,0.0,4,32.96,90,4,0,1.0,sunny,0,0,0.0,0.0002,-0.0002
A,2026-06-04 05:05:00,5,5,123.25,43.7,0.317,0.0,1,38.39,90,4,0,1.0,sunny,0,0,0.0,0.0001,-0.0001
A,2026-06-04 05:10:00,5,10,114.8,47.02,0.281,0.0,3,36.08,90,4,0,1.0,sunny,0,0,0.0,0.0001,-0.0001
A,2026-06-04 05:15:00,5,15,177.88,41.06,0.374,0.0,2,35.83,90,4,0,1.0,rainy,0,0,0.0,0.0001,-0.0001
A,2026-06-04 05:20:00,5,20,165.73,46.73,0.36,0.0,3,35.66,90,4,0,1.0,cloudy,0,0,0.0,0.0001,-0.0001
A,2026-06-04 05:25:00,5,25,212.16,43.85,0.434,0.0,3,43.57,90,4,0,1.0,rainy,0,0,0.0,0.0001,-0.0001
A,2026-06-04 05:30:00,5,30,139.84,46.74,0.313,0.0,4,31.84,90,4,0,1.0,sunny,0,0,0.0,0.0024,-0.0024
A,2026-06-04 05:35:00,5,35,131.42,52.49,0.356,0.0,1,28.28,90,4,0,1.0,sunny,0,0,0.0,0.0024,-0.0024
A,2026-06-04 05:40:00,5,40,138.98,46.78,0.28,0.0,2,41.71,90,4,0,1.0,cloudy,0,0,0.0,0.0001,-0.0001
A,2026-06-04 05:45:00,5,45,136.13,49.08,0.332,0.0,4,27.18,90,4,0,1.0,sunny,0,0,0.0,0.0003,-0.0003
A,2026-06-04 05:50:00,5,50,133.51,47.46,0.322,0.0,4,40.13,90,4,0,1.0,sunny,0,0,0.0,0.0001,-0.0001
A,2026-06-04 05:55:00,5,55,131.96,49.19,0.291,0.0,3,35.79,90,4,0,1.0,sunny,0,0,0.0,0.0001,-0.0001
A,2026-06-04 06:00:00,6,0,155.76,46.62,0.349,0.0,4,39.67,90,4,0,1.0,cloudy,0,0,0.0,0.0001,-0.0001
A,2026-06-04 06:05:00,6,5,140.12,51.44,0.308,0.0,3,36.44,90,4,0,1.0,cloudy,0,0,0.0,0.0001,-0.0001
A,2026-06-04 06:10:00,6,10,186.32,45.03,0.367,0.0,1,28.69,90,4,0,1.0,rainy,0,0,0.0,0.0001,-0.0001
A,2026-06-04 06:15:00,6,15,197.18,49.1,0.366,0.0,2,31.54,90,4,0,1.0,rainy,0,0,0.0,0.0023,-0.0023
A,2026-06-04 06:20:00,6,20,140.86,53.28,0.333,0.0,2,35.16,90,4,0,1.0,sunny,0,0,0.0,0.0001,-0.0001
A,2026-06-04 06:25:00,6,25,109.27,47.3,0.318,0.0,4,32.58,90,4,0,1.0,sunny,0,0,0.0,0.0002,-0.0002
A,2026-06-04 06:30:00,6,30,181.36,49.85,0.284,0.0,4,42.6,90,4,0,1.0,sunny,0,0,0.0,0.0001,-0.0001
A,2026-06-04 06:35:00,6,35,151.92,47.14,0.343,0.0,3,40.75,90,4,0,1.0,sunny,0,0,0.0,0.0001,-0.0001
A,2026-06-04 06:40:00,6,40,192.59,41.45,0.321,0.0,2,40.65,90,4,0,1.0,rainy,0,0,0.0,0.0001,-0.0001
A,2026-06-04 06:45:00,6,45,179.63,48.3,0.323,0.0,4,36.97,90,4,0,1.0,rainy,0,0,0.0,0.0001,-0.0001
A,2026-06-04 06:50:00,6,50,175.3,45.41,0.361,0.0,1,33.34,90,4,0,1.0,rainy,0,0,0.0,0.0004,-0.0004
A,2026-06-04 06:55:00,6,55,173.46,43.84,0.388,0.0,1,36.43,90,4,0,1.0,rainy,0,0,0.0,0.0001,-0.0001
A,2026-06-04 07:00:00,7,0,390.06,37.45,0.63,0.0,4,39.22,90,4,1,1.0,sunny,0,0,0.0,0.0001,-0.0001
A,2026-06-04 07:05:00,7,5,392.84,37.97,0.633,0.0,3,33.77,90,4,1,1.0,sunny,0,0,0.0,0.0006,-0.0006
A,2026-06-04 07:10:00,7,10,440.91,31.62,0.649,0.0,2,37.62,90,4,1,1.0,sunny,0,0,0.0,0.0065,-0.0065
A,2026-06-04 07:15:00,7,15,415.01,34.28,0.702,0.0,2,37.52,90,4,1,1.0,sunny,0,0,0.0,0.0002,-0.0002
A,2026-06-04 07:20:00,7,20,516.93,31.93,0.758,0.0,4,43.24,90,4,1,1.0,rainy,0,0,0.0,0.1858,-0.1858
A,2026-06-04 07:25:00,7,25,425.89,33.49,0.662,0.0,2,44.99,90,4,1,1.0,sunny,0,0,0.0,0.0001,-0.0001
A,2026-06-04 07:30:00,7,30,411.61,26.85,0.67,0.0,1,38.02,90,4,1,1.0,sunny,0,0,0.0,0.114,-0.114
A,2026-06-04 07:35:00,7,35,405.07,35.81,0.636,0.0,4,40.79,90,4,1,1.0,cloudy,0,0,0.0,0.0001,-0.0001
A,2026-06-04 07:40:00,7,40,406.05,34.94,0.733,0.0,2,42.08,90,4,1,1.0,sunny,0,0,0.0,0.0136,-0.0136
A,2026-06-04 07:45:00,7,45,492.88,28.89,0.701,0.0,3,47.74,90,4,1,1.0,rainy,0,0,0.0,0.0838,-0.0838
A,2026-06-04 07:50:00,7,50,403.85,38.83,0.648,0.0,3,32.71,90,4,1,1.0,sunny,0,0,0.0,0.0007,-0.0007
A,2026-06-04 07:55:00,7,55,418.31,38.22,0.669,0.0,2,47.66,90,4,1,1.0,sunny,0,0,0.0,0.0001,-0.0001
A,2026-06-04 08:00:00,8,0,467.37,36.37,0.707,0.0,2,38.32,90,4,1,1.0,rainy,0,0,0.0,0.0005,-0.0005
A,2026-06-04 08:05:00,8,5,425.97,33.74,0.668,0.0,2,37.64,90,4,1,1.0,sunny,0,0,0.0,0.0001,-0.0001
A,2026-06-04 08:10:00,8,10,435.58,42.45,0.655,0.0,1,44.83,90,4,1,1.0,rainy,0,0,0.0,0.005,-0.005
A,2026-06-04 08:15:00,8,15,393.26,38.12,0.619,0.0,4,50.26,90,4,1,1.0,sunny,0,0,0.0,0.0001,-0.0001
A,2026-06-04 08:20:00,8,20,401.91,37.38,0.642,0.0,3,54.69,90,4,1,1.0,sunny,0,0,0.0,0.0005,-0.0005
A,2026-06-04 08:25:00,8,25,391.02,35.4,0.573,0.0,4,40.61,90,4,1,1.0,sunny,0,0,0.0,0.0001,-0.0001
A,2026-06-04 08:30:00,8,30,438.38,40.81,0.654,0.0,4,37.44,90,4,1,1.0,sunny,0,0,0.0,0.0134,-0.0134
A,2026-06-04 08:35:00,8,35,426.39,38.48,0.632,0.0,2,47.62,90,4,1,1.0,cloudy,0,0,0.0,0.0001,-0.0001
A,2026-06-04 08:40:00,8,40,387.49,41.05,0.573,0.0,3,39.65,90,4,1,1.0,sunny,0,0,0.0,0.0001,-0.0001
A,2026-06-04 08:45:00,8,45,395.46,35.95,0.62,0.0,2,37.19,90,4,1,1.0,sunny,0,0,0.0,0.0001,-0.0001
A,2026-06-04 08:50:00,8,50,412.33,35.06,0.668,0.0,4,46.42,90,4,1,1.0,sunny,0,0,0.0,0.0001,-0.0001
A,2026-06-04 08:55:00,8,55,411.77,33.3,0.633,0.0,2,43.71,90,4,1,1.0,sunny,0,0,0.0,0.0001,-0.0001
A,2026-06-04 09:00:00,9,0,365.19,35.23,0.664,0.0,1,46.83,90,4,1,1.0,sunny,0,0,0.0,0.0001,-0.0001
A,2026-06-04 09:05:00,9,5,407.17,37.28,0.614,0.0,2,43.01,90,4,1,1.0,sunny,0,0,0.0,0.0001,-0.0001
A,2026-06-04 09:10:00,9,10,419.83,36.34,0.636,0.0,3,34.87,90,4,1,1.0,cloudy,0,0,0.0,0.0002,-0.0002
A,2026-06-04 09:15:00,9,15,431.78,39.82,0.697,0.0,4,45.66,90,4,1,1.0,sunny,0,0,0.0,0.0007,-0.0007
A,2026-06-04 09:20:00,9,20,423.18,35.28,0.614,0.0,4,45.24,90,4,1,1.0,sunny,0,0,0.0,0.0001,-0.0001
A,2026-06-04 09:25:00,9,25,402.57,39.77,0.673,0.0,2,47.68,90,4,1,1.0,sunny,0,0,0.0,0.0005,-0.0005
A,2026-06-04 09:30:00,9,30,412.65,41.15,0.637,0.0,3,33.75,90,4,1,1.0,sunny,0,0,0.0,0.0013,-0.0013
A,2026-06-04 09:35:00,9,35,438.78,35.98,0.682,0.0,1,54.24,90,4,1,1.0,cloudy,0,0,0.0,0.0106,-0.0106
A,2026-06-04 09:40:00,9,40,392.96,40.02,0.656,0.0,2,48.41,90,4,1,1.0,sunny,0,0,0.0,0.0001,-0.0001
A,2026-06-04 09:45:00,9,45,401.8,37.1,0.679,0.0,4,45.91,90,4,1,1.0,sunny,0,0,0.0,0.0005,-0.0005
A,2026-06-04 09:50:00,9,50,430.54,38.22,0.727,0.0,2,50.53,90,4,1,1.0,cloudy,0,0,0.0,0.0131,-0.0131
A,2026-06-04 09:55:00,9,55,446.76,36.79,0.699,0.0,2,50.37,90,4,1,1.0,cloudy,0,0,0.0,0.0005,-0.0005
A,2026-06-04 10:00:00,10,0,354.26,39.26,0.568,0.0,4,43.59,90,4,0,1.0,rainy,0,0,0.0,0.0001,-0.0001
A,2026-06-04 10:05:00,10,5,313.33,41.82,0.532,0.0,2,43.12,90,4,0,1.0,sunny,0,0,0.0,0.0001,-0.0001
A,2026-06-04 10:10:00,10,10,292.28,39.72,0.514,0.0,1,35.69,90,4,0,1.0,sunny,0,0,0.0,0.0001,-0.0001
A,2026-06-04 10:15:00,10,15,340.21,37.56,0.52,0.0,4,28.98,90,4,0,1.0,sunny,0,0,0.0,0.0085,-0.0085
A,2026-06-04 10:20:00,10,20,320.71,39.87,0.514,0.0,2,37.64,90,4,0,1.0,cloudy,0,0,0.0,0.0001,-0.0001
A,2026-06-04 10:25:00,10,25,262.77,42.07,0.488,0.0,1,29.39,90,4,0,1.0,sunny,0,0,0.0,0.0035,-0.0035
A,2026-06-04 10:30:00,10,30,256.33,35.69,0.494,0.0,3,21.11,90,4,0,1.0,sunny,0,0,0.0,0.3541,-0.3541
A,2026-06-04 10:35:00,10,35,306.98,44.48,0.45,0.0,4,51.04,90,4,0,1.0,sunny,0,0,0.0,0.0022,-0.0022
A,2026-06-04 10:40:00,10,40,281.86,36.33,0.512,0.0,2,30.44,90,4,0,1.0,sunny,0,0,0.0,0.0051,-0.0051
A,2026-06-04 10:45:00,10,45,257.95,47.91,0.458,0.0,1,42.97,90,4,0,1.0,sunny,0,0,0.0,0.0001,-0.0001
A,2026-06-04 10:50:00,10,50,284.3,41.41,0.504,0.0,2,42.63,90,4,0,1.0,sunny,0,0,0.0,0.0001,-0.0001
A,2026-06-04 10:55:00,10,55,312.09,38.95,0.513,0.0,2,35.02,90,4,0,1.0,sunny,0,0,0.0,0.0001,-0.0001
A,2026-06-04 11:00:00,11,0,270.99,33.67,0.496,0.0,1,33.97,90,4,0,1.0,sunny,0,0,0.0,0.0001,-0.0001
A,2026-06-04 11:05:00,11,5,276.37,35.56,0.467,0.0,2,35.9,90,4,0,1.0,sunny,0,0,0.0,0.0001,-0.0001
A,2026-06-04 11:10:00,11,10,279.72,46.05,0.492,0.0,1,27.65,90,4,0,1.0,sunny,0,0,0.0,0.0062,-0.0062
A,2026-06-04 11:15:00,11,15,290.5,42.13,0.525,0.0,2,34.73,90,4,0,1.0,sunny,0,0,0.0,0.0001,-0.0001
A,2026-06-04 11:20:00,11,20,288.81,35.83,0.509,0.0,1,34.06,90,4,0,1.0,cloudy,0,0,0.0,0.0001,-0.0001
A,2026-06-04 11:25:00,11,25,286.94,45.06,0.465,0.0,2,30.66,90,4,0,1.0,sunny,0,0,0.0,0.0006,-0.0006
A,2026-06-04 11:30:00,11,30,282.7,43.27,0.485,0.0,4,26.46,90,4,0,1.0,sunny,0,0,0.0,0.0056,-0.0056
A,2026-06-04 11:35:00,11,35,287.78,33.81,0.521,0.0,3,31.78,90,4,0,1.0,sunny,0,0,0.0,0.0021,-0.0021
A,2026-06-04 11:40:00,11,40,314.8,39.85,0.509,0.0,4,33.49,90,4,0,1.0,sunny,0,0,0.0,0.0001,-0.0001
A,2026-06-04 11:45:00,11,45,301.15,36.7,0.51,0.0,2,45.67,90,4,0,1.0,sunny,0,0,0.0,0.0001,-0.0001
A,2026-06-04 11:50:00,11,50,307.69,39.29,0.544,0.0,4,32.33,90,4,0,1.0,cloudy,0,0,0.0,0.0001,-0.0001
A,2026-06-04 11:55:00,11,55,262.06,44.01,0.462,0.0,1,44.95,90,4,0,1.0,sunny,0,0,0.0,0.0001,-0.0001
A,2026-06-04 12:00:00,12,0,352.82,40.14,0.547,0.0,1,32.4,90,4,0,1.0,rainy,0,0,0.0,0.0068,-0.0068
A,2026-06-04 12:05:00,12,5,293.08,36.89,0.523,0.0,2,38.22,90,4,0,1.0,sunny,0,0,0.0,0.0001,-0.0001
A,2026-06-04 12:10:00,12,10,259.36,34.24,0.464,0.0,2,36.45,90,4,0,1.0,sunny,0,0,0.0,0.0001,-0.0001
A,2026-06-04 12:15:00,12,15,327.04,33.89,0.518,0.0,3,27.75,90,4,0,1.0,sunny,0,0,0.0,0.177,-0.177
A,2026-06-04 12:20:00,12,20,264.54,46.75,0.489,0.0,1,38.89,90,4,0,1.0,sunny,0,0,0.0,0.0001,-0.0001
A,2026-06-04 12:25:00,12,25,260.21,43.89,0.447,0.0,1,33.32,90,4,0,1.0,sunny,0,0,0.0,0.0001,-0.0001
A,2026-06-04 12:30:00,12,30,292.02,39.14,0.491,0.0,2,34.78,90,4,0,1.0,cloudy,0,0,0.0,0.0001,-0.0001
A,2026-06-04 12:35:00,12,35,292.15,48.54,0.493,0.0,3,35.87,90,4,0,1.0,sunny,0,0,0.0,0.0001,-0.0001
A,2026-06-04 12:40:00,12,40,280.53,43.28,0.466,0.0,2,35.73,90,4,0,1.0,sunny,0,0,0.0,0.0001,-0.0001
A,2026-06-04 12:45:00,12,45,263.44,48.31,0.453,0.0,1,32.58,90,4,0,1.0,sunny,0,0,0.0,0.0002,-0.0002
A,2026-06-04 12:50:00,12,50,280.71,42.18,0.51,0.0,1,27.74,90,4,0,1.0,sunny,0,0,0.0,0.0224,-0.0224
A,2026-06-04 12:55:00,12,55,354.66,33.72,0.602,0.0,1,35.85,90,4,0,1.0,rainy,0,0,0.0,0.0001,-0.0001
A,2026-06-04 13:00:00,13,0,264.83,45.71,0.511,0.0,2,34.32,90,4,0,1.0,sunny,0,0,0.0,0.0001,-0.0001
A,2026-06-04 13:05:00,13,5,308.02,39.29,0.506,0.0,2,39.77,90,4,0,1.0,cloudy,0,0,0.0,0.0001,-0.0001
A,2026-06-04 13:10:00,13,10,334.62,37.69,0.532,0.0,4,33.51,90,4,0,1.0,cloudy,0,0,0.0,0.0006,-0.0006
A,2026-06-04 13:15:00,13,15,392.77,37.93,0.571,0.0,2,45.47,90,4,0,1.0,rainy,0,0,0.0,0.0015,-0.0015
A,2026-06-04 13:20:00,13,20,314.61,45.47,0.513,0.0,1,35.36,90,4,0,1.0,cloudy,0,0,0.0,0.0001,-0.0001
A,2026-06-04 13:25:00,13,25,232.66,45.21,0.492,0.0,3,34.67,90,4,0,1.0,sunny,0,0,0.0,0.0001,-0.0001
A,2026-06-04 13:30:00,13,30,261.97,42.75,0.441,0.0,3,36.22,90,4,0,1.0,sunny,0,0,0.0,0.0001,-0.0001
A,2026-06-04 13:35:00,13,35,358.23,39.25,0.522,0.0,3,39.23,90,4,0,1.0,rainy,0,0,0.0,0.0001,-0.0001
A,2026-06-04 13:40:00,13,40,313.46,39.95,0.519,0.0,1,43.57,90,4,0,1.0,cloudy,0,0,0.0,0.0001,-0.0001
A,2026-06-04 13:45:00,13,45,353.08,41.6,0.57,0.0,4,32.72,90,4,0,1.0,rainy,0,0,0.0,0.0008,-0.0008
A,2026-06-04 13:50:00,13,50,266.28,38.11,0.514,0.0,2,35.68,90,4,0,1.0,sunny,0,0,0.0,0.0001,-0.0001
A,2026-06-04 13:55:00,13,55,284.74,37.72,0.534,0.0,4,26.85,90,4,0,1.0,sunny,0,0,0.0,0.1241,-0.1241
A,2026-06-04 14:00:00,14,0,273.49,43.72,0.484,0.0,2,39.97,90,4,0,1.0,sunny,0,0,0.0,0.0001,-0.0001
A,2026-06-04 14:05:00,14,5,295.65,45.9,0.484,0.0,4,39.52,90,4,0,1.0,cloudy,0,0,0.0,0.0001,-0.0001
A,2026-06-04 14:10:00,14,10,372.67,40.98,0.596,0.0,1,33.51,90,4,0,1.0,rainy,0,0,0.0,0.0019,-0.0019
A,2026-06-04 14:15:00,14,15,286.21,46.69,0.49,0.0,4,39.32,90,4,0,1.0,sunny,0,0,0.0,0.0001,-0.0001
A,2026-06-04 14:20:00,14,20,354.08,42.76,0.559,0.0,1,29.82,90,4,0,1.0,rainy,0,0,0.0,0.0093,-0.0093
A,2026-06-04 14:25:00,14,25,310.53,36.75,0.56,0.0,3,42.76,90,4,0,1.0,sunny,0,0,0.0,0.0001,-0.0001
A,2026-06-04 14:30:00,14,30,290.82,38.47,0.529,0.0,2,38.59,90,4,0,1.0,sunny,0,0,0.0,0.0006,-0.0006
A,2026-06-04 14:35:00,14,35,262.79,39.96,0.432,0.0,4,35.06,90,4,0,1.0,sunny,0,0,0.0,0.0001,-0.0001
A,2026-06-04 14:40:00,14,40,351.06,41.25,0.537,0.0,2,35.26,90,4,0,1.0,rainy,0,0,0.0,0.0001,-0.0001
A,2026-06-04 14:45:00,14,45,281.95,44.64,0.427,0.0,1,36.87,90,4,0,1.0,sunny,0,0,0.0,0.0001,-0.0001
A,2026-06-04 14:50:00,14,50,283.62,33.98,0.52,0.0,4,43.23,90,4,0,1.0,sunny,0,0,0.0,0.0001,-0.0001
A,2026-06-04 14:55:00,14,55,321.33,35.92,0.544,0.0,2,29.23,90,4,0,1.0,cloudy,0,0,0.0,0.0505,-0.0505
A,2026-06-04 15:00:00,15,0,358.98,37.8,0.625,0.0,1,32.27,90,4,0,1.0,rainy,0,0,0.0,0.0013,-0.0013
A,2026-06-04 15:05:00,15,5,320.07,42.89,0.537,0.0,2,28.74,90,4,0,1.0,rainy,0,0,0.0,0.0113,-0.0113
A,2026-06-04 15:10:00,15,10,343.15,44.73,0.592,0.0,3,29.6,90,4,0,1.0,rainy,0,0,0.0,0.005,-0.005
A,2026-06-04 15:15:00,15,15,311.3,43.53,0.541,0.0,2,27.77,90,4,0,1.0,sunny,0,0,0.0,0.0195,-0.0195
A,2026-06-04 15:20:00,15,20,321.22,37.69,0.519,0.0,2,34.69,90,4,0,1.0,sunny,0,0,0.0,0.0001,-0.0001
A,2026-06-04 15:25:00,15,25,303.83,41.85,0.5,0.0,2,35.51,90,4,0,1.0,cloudy,0,0,0.0,0.0001,-0.0001
A,2026-06-04 15:30:00,15,30,277.29,40.77,0.526,0.0,2,36.2,90,4,0,1.0,sunny,0,0,0.0,0.0001,-0.0001
A,2026-06-04 15:35:00,15,35,253.61,37.87,0.466,0.0,4,25.82,90,4,0,1.0,sunny,0,0,0.0,0.0208,-0.0208
A,2026-06-04 15:40:00,15,40,304.0,38.31,0.491,0.0,1,38.11,90,4,0,1.0,cloudy,0,0,0.0,0.0001,-0.0001
A,2026-06-04 15:45:00,15,45,352.8,40.09,0.574,0.0,1,38.21,90,4,0,1.0,rainy,0,0,0.0,0.0001,-0.0001
A,2026-06-04 15:50:00,15,50,345.91,40.7,0.589,0.0,4,34.06,90,4,0,1.0,rainy,0,0,0.0,0.0006,-0.0006
A,2026-06-04 15:55:00,15,55,307.51,40.79,0.511,0.0,1,44.23,90,4,0,1.0,sunny,0,0,0.0,0.0001,-0.0001
A,2026-06-04 16:00:00,16,0,320.23,40.56,0.583,0.0,2,30.29,90,4,0,1.0,sunny,0,0,0.0,0.0088,-0.0088
A,2026-06-04 16:05:00,16,5,288.53,35.66,0.501,0.0,3,31.7,90,4,0,1.0,sunny,0,0,0.0,0.0013,-0.0013
A,2026-06-04 16:10:00,16,10,284.85,37.1,0.514,0.0,1,30.53,90,4,0,1.0,sunny,0,0,0.0,0.0087,-0.0087
A,2026-06-04 16:15:00,16,15,338.59,41.14,0.54,0.0,4,27.47,90,4,0,1.0,cloudy,0,0,0.0,0.01,-0.01
A,2026-06-04 16:20:00,16,20,316.59,43.88,0.522,0.0,3,44.57,90,4,0,1.0,cloudy,0,0,0.0,0.0001,-0.0001
A,2026-06-04 16:25:00,16,25,323.31,40.81,0.509,0.0,4,40.42,90,4,0,1.0,cloudy,0,0,0.0,0.0001,-0.0001
A,2026-06-04 16:30:00,16,30,325.62,38.86,0.507,0.0,1,33.75,90,4,0,1.0,cloudy,0,0,0.0,0.0005,-0.0005
A,2026-06-04 16:35:00,16,35,337.45,37.76,0.507,0.0,3,33.43,90,4,0,1.0,rainy,0,0,0.0,0.0008,-0.0008
A,2026-06-04 16:40:00,16,40,323.81,31.36,0.558,0.0,3,34.82,90,4,0,1.0,sunny,0,0,0.0,0.0052,-0.0052
A,2026-06-04 16:45:00,16,45,315.72,44.87,0.495,0.0,2,39.82,90,4,0,1.0,sunny,0,0,0.0,0.0001,-0.0001
A,2026-06-04 16:50:00,16,50,289.94,41.39,0.508,0.0,3,42.69,90,4,0,1.0,sunny,0,0,0.0,0.0001,-0.0001
A,2026-06-04 16:55:00,16,55,301.67,40.66,0.53,0.0,1,42.1,90,4,0,1.0,sunny,0,0,0.0,0.0001,-0.0001
A,2026-06-04 17:00:00,17,0,403.66,35.88,0.634,0.0,1,50.11,90,4,1,1.0,sunny,0,0,0.0,0.0001,-0.0001
A,2026-06-04 17:05:00,17,5,409.31,36.7,0.651,0.0,1,40.39,90,4,1,1.0,sunny,0,0,0.0,0.0001,-0.0001
A,2026-06-04 17:10:00,17,10,408.31,38.91,0.679,0.0,4,46.52,90,4,1,1.0,sunny,0,0,0.0,0.0039,-0.0039
B,2026-06-01 06:00:00,6,0,192.84,36.26,0.425,12.02,3,29.98,100,3,0,1.1,rainy,1,0,0.0,4.3119,-4.3119
B,2026-06-01 06:05:00,6,5,139.4,44.31,0.311,0.0,1,33.76,100,3,0,1.1,sunny,1,0,0.0,0.0004,-0.0004
B,2026-06-01 06:10:00,6,10,175.55,42.62,0.36,0.0,3,34.66,100,3,0,1.1,cloudy,1,0,0.0,0.0004,-0.0004
B,2026-06-01 06:15:00,6,15,179.46,45.16,0.364,0.0,3,29.53,100,3,0,1.1,rainy,1,0,0.0,0.0284,-0.0284
B,2026-06-01 06:20:00,6,20,167.64,48.46,0.389,0.0,4,46.15,100,3,0,1.1,sunny,1,0,0.0,0.0004,-0.0004
B,2026-06-01 06:25:00,6,25,153.54,46.43,0.317,0.0,4,39.87,100,3,0,1.1,sunny,1,0,0.0,0.0004,-0.0004
B,2026-06-01 06:30:00,6,30,149.27,40.12,0.325,0.0,1,37.07,100,3,0,1.1,cloudy,1,0,0.0,0.0004,-0.0004
