zjykqj/-/step6_outputs/prediction_compare.csv
intersection_id,time,hour,minute,flow,speed,occupancy,queue_length,signal_phase,green_time,cycle_length,lane_num,is_peak,peak_sensitivity,weather,has_bus_stop,near_school_hospital,target_queue,y_hat_shared,shared_residual,residual,residual_direction,residual_hat,y_hat_final,shared_error,final_error,shared_abs_error,final_abs_error,y_hat_M1_target_only,y_hat_M2_shared,y_hat_M3_shared_plus_residual,error_M1,error_M2,error_M3,abs_error_M1,abs_error_M2,abs_error_M3
T,2026-06-01 10:10:00,10,10,387.53,7.37,0.98,63.84,1,20.49,100,3,0,1.3,sunny,1,1,63.19,54.485,8.705,8.705,underestimate,22.8576,77.3426,8.705,-14.1526,8.705,14.1526,69.1445,54.485,77.3426,-5.9545,8.705,-14.1526,5.9545,8.705,14.1526
T,2026-06-01 10:15:00,10,15,373.19,5.41,0.98,63.19,2,40.25,100,3,0,1.3,sunny,1,1,38.07,51.5935,-13.5235,-13.5235,overestimate,19.3269,70.9204,-13.5235,-32.8504,13.5235,32.8504,62.6376,51.5935,70.9204,-24.5676,-13.5235,-32.8504,24.5676,13.5235,32.8504
T,2026-06-01 10:20:00,10,20,446.75,14.7,0.98,38.07,4,35.96,100,3,0,1.3,cloudy,1,1,37.52,32.5411,4.9789,4.9789,underestimate,15.5082,48.0493,4.9789,-10.5293,4.9789,10.5293,51.9952,32.5411,48.0493,-14.4752,4.9789,-10.5293,14.4752,4.9789,10.5293
T,2026-06-01 10:25:00,10,25,381.17,17.44,0.928,37.52,1,37.39,100,3,0,1.3,sunny,1,1,28.9,24.7992,4.1008,4.1008,underestimate,13.542,38.3412,4.1008,-9.4412,4.1008,9.4412,46.3409,24.7992,38.3412,-17.4409,4.1008,-9.4412,17.4409,4.1008,9.4412
T,2026-06-01 10:30:00,10,30,409.84,15.49,0.951,28.9,1,37.2,100,3,0,1.3,sunny,1,1,34.26,26.1638,8.0962,8.0962,underestimate,12.2597,38.4235,8.0962,-4.1635,8.0962,4.1635,45.4991,26.1638,38.4235,-11.2391,8.0962,-4.1635,11.2391,8.0962,4.1635
T,2026-06-01 10:35:00,10,35,413.34,19.94,0.929,34.26,1,29.03,100,3,0,1.3,sunny,1,1,35.86,25.2484,10.6116,10.6116,underestimate,14.7489,39.9973,10.6116,-4.1373,10.6116,4.1373,47.817,25.2484,39.9973,-11.957,10.6116,-4.1373,11.957,10.6116,4.1373
T,2026-06-01 10:40:00,10,40,429.6,14.32,0.953,35.86,2,38.13,100,3,0,1.3,cloudy,1,1,29.43,26.3918,3.0382,3.0382,underestimate,14.2266,40.6184,3.0382,-11.1884,3.0382,11.1884,49.3643,26.3918,40.6184,-19.9343,3.0382,-11.1884,19.9343,3.0382,11.1884
T,2026-06-01 10:45:00,10,45,389.33,26.01,0.888,29.43,1,36.88,100,3,0,1.3,sunny,1,1,27.75,17.385,10.365,10.365,underestimate,11.6377,29.0227,10.365,-1.2727,10.365,1.2727,38.3394,17.385,29.0227,-10.5894,10.365,-1.2727,10.5894,10.365,1.2727
T,2026-06-01 10:50:00,10,50,410.78,19.41,0.891,27.75,1,32.67,100,3,0,1.3,sunny,1,1,28.7,21.5574,7.1426,7.1426,underestimate,12.5325,34.0899,7.1426,-5.3899,7.1426,5.3899,43.359,21.5574,34.0899,-14.659,7.1426,-5.3899,14.659,7.1426,5.3899
T,2026-06-01 10:55:00,10,55,433.03,16.75,0.932,28.7,2,33.39,100,3,0,1.3,sunny,1,1,27.3,25.796,1.504,1.504,underestimate,13.2682,39.0642,1.504,-11.7642,1.504,11.7642,46.5459,25.796,39.0642,-19.2459,1.504,-11.7642,19.2459,1.504,11.7642
T,2026-06-01 11:00:00,11,0,393.1,23.49,0.866,27.3,2,29.8,100,3,0,1.3,sunny,1,1,25.91,18.7851,7.1249,7.1249,underestimate,12.3494,31.1345,7.1249,-5.2245,7.1249,5.2245,40.8746,18.7851,31.1345,-14.9646,7.1249,-5.2245,14.9646,7.1249,5.2245
T,2026-06-01 11:05:00,11,5,520.49,20.16,0.98,25.91,1,41.58,100,3,0,1.3,rainy,1,1,30.5,28.4324,2.0676,2.0676,underestimate,13.2817,41.7141,2.0676,-11.2141,2.0676,11.2141,45.1667,28.4324,41.7141,-14.6667,2.0676,-11.2141,14.6667,2.0676,11.2141
T,2026-06-01 11:10:00,11,10,382.51,18.99,0.878,30.5,1,32.47,100,3,0,1.3,sunny,1,1,28.42,21.2593,7.1607,7.1607,underestimate,12.5693,33.8286,7.1607,-5.4086,7.1607,5.4086,43.4163,21.2593,33.8286,-14.9963,7.1607,-5.4086,14.9963,7.1607,5.4086
T,2026-06-01 11:15:00,11,15,405.66,17.08,0.895,28.42,3,35.54,100,3,0,1.3,sunny,1,1,24.82,21.6897,3.1303,3.1303,underestimate,12.1844,33.8741,3.1303,-9.0541,3.1303,9.0541,43.7412,21.6897,33.8741,-18.9212,3.1303,-9.0541,18.9212,3.1303,9.0541
T,2026-06-01 11:20:00,11,20,410.16,21.44,0.841,24.82,2,40.35,100,3,0,1.3,sunny,1,1,18.16,18.8347,-0.6747,-0.6747,overestimate,10.4932,29.3279,-0.6747,-11.1679,0.6747,11.1679,37.4745,18.8347,29.3279,-19.3145,-0.6747,-11.1679,19.3145,0.6747,11.1679
T,2026-06-01 11:25:00,11,25,475.63,22.45,0.867,18.16,4,31.86,100,3,0,1.3,rainy,1,1,27.97,19.6472,8.3228,8.3228,underestimate,11.7366,31.3838,8.3228,-3.4138,8.3228,3.4138,40.1635,19.6472,31.3838,-12.1935,8.3228,-3.4138,12.1935,8.3228,3.4138
T,2026-06-01 11:30:00,11,30,410.74,22.56,0.828,27.97,2,34.48,100,3,0,1.3,sunny,1,1,20.95,18.8536,2.0964,2.0964,underestimate,12.1239,30.9775,2.0964,-10.0275,2.0964,10.0275,39.912,18.8536,30.9775,-18.962,2.0964,-10.0275,18.962,2.0964,10.0275
T,2026-06-01 11:35:00,11,35,415.41,21.56,0.887,20.95,1,40.95,100,3,0,1.3,sunny,1,1,13.33,18.3526,-5.0226,-5.0226,overestimate,9.6775,28.0301,-5.0226,-14.7001,5.0226,14.7001,36.8002,18.3526,28.0301,-23.4702,-5.0226,-14.7001,23.4702,5.0226,14.7001
T,2026-06-01 11:40:00,11,40,475.47,29.84,0.823,13.33,4,29.82,100,3,0,1.3,cloudy,1,1,27.33,14.0761,13.2539,13.2539,underestimate,10.6755,24.7516,13.2539,2.5784,13.2539,2.5784,34.2028,14.0761,24.7516,-6.8728,13.2539,2.5784,6.8728,13.2539,2.5784
T,2026-06-01 11:45:00,11,45,396.65,18.21,0.873,27.33,3,37.91,100,3,0,1.3,sunny,1,1,25.69,19.5951,6.0949,6.0949,underestimate,11.2922,30.8873,6.0949,-5.1973,6.0949,5.1973,41.1246,19.5951,30.8873,-15.4346,6.0949,-5.1973,15.4346,6.0949,5.1973
T,2026-06-01 11:50:00,11,50,390.79,26.93,0.85,25.69,3,39.07,100,3,0,1.3,sunny,1,1,18.99,13.0078,5.9822,5.9822,underestimate,10.36,23.3678,5.9822,-4.3778,5.9822,4.3778,34.8918,13.0078,23.3678,-15.9018,5.9822,-4.3778,15.9018,5.9822,4.3778
T,2026-06-01 11:55:00,11,55,385.3,30.17,0.795,18.99,4,40.58,100,3,0,1.3,cloudy,1,1,9.45,8.0953,1.3547,1.3547,underestimate,8.2553,16.3506,1.3547,-6.9006,1.3547,6.9006,28.6814,8.0953,16.3506,-19.2314,1.3547,-6.9006,19.2314,1.3547,6.9006
T,2026-06-01 12:00:00,12,0,426.0,25.58,0.751,9.45,3,40.28,100,3,0,1.3,sunny,1,1,10.51,4.2521,6.2579,6.2579,underestimate,6.9882,11.2403,6.2579,-0.7303,6.2579,0.7303,27.9371,4.2521,11.2403,-17.4271,6.2579,-0.7303,17.4271,6.2579,0.7303
T,2026-06-01 12:05:00,12,5,372.11,36.53,0.679,10.51,3,36.83,100,3,0,1.3,sunny,1,1,8.5,3.828,4.672,4.672,underestimate,6.2126,10.0406,4.672,-1.5406,4.672,1.5406,20.3919,3.828,10.0406,-11.8919,4.672,-1.5406,11.8919,4.672,1.5406
T,2026-06-01 12:10:00,12,10,415.8,31.36,0.723,8.5,1,30.57,100,3,0,1.3,sunny,1,1,17.31,7.0339,10.2761,10.2761,underestimate,7.8847,14.9186,10.2761,2.3914,10.2761,2.3914,26.9214,7.0339,14.9186,-9.6114,10.2761,2.3914,9.6114,10.2761,2.3914
T,2026-06-01 12:15:00,12,15,393.34,21.18,0.81,17.31,2,33.31,100,3,0,1.3,sunny,1,1,19.91,16.9111,2.9989,2.9989,underestimate,9.4042,26.3153,2.9989,-6.4053,2.9989,6.4053,35.7132,16.9111,26.3153,-15.8032,2.9989,-6.4053,15.8032,2.9989,6.4053
T,2026-06-01 12:20:00,12,20,417.2,23.63,0.821,19.91,1,39.69,100,3,0,1.3,sunny,1,1,17.56,12.2966,5.2634,5.2634,underestimate,9.5132,21.8098,5.2634,-4.2498,5.2634,4.2498,34.453,12.2966,21.8098,-16.893,5.2634,-4.2498,16.893,5.2634,4.2498
T,2026-06-01 12:25:00,12,25,405.7,28.66,0.741,17.56,2,31.29,100,3,0,1.3,sunny,1,1,16.26,11.2727,4.9873,4.9873,underestimate,9.7742,21.0469,4.9873,-4.7869,4.9873,4.7869,31.6951,11.2727,21.0469,-15.4351,4.9873,-4.7869,15.4351,4.9873,4.7869
T,2026-06-01 12:30:00,12,30,458.4,31.49,0.833,16.26,4,40.77,100,3,0,1.3,rainy,1,1,20.19,9.9897,10.2003,10.2003,underestimate,9.2475,19.2372,10.2003,0.9528,10.2003,0.9528,30.3737,9.9897,19.2372,-10.1837,10.2003,0.9528,10.1837,10.2003,0.9528
T,2026-06-01 12:35:00,12,35,403.36,24.76,0.812,20.19,3,33.25,100,3,0,1.3,sunny,1,1,22.47,13.8038,8.6662,8.6662,underestimate,10.2407,24.0445,8.6662,-1.5745,8.6662,1.5745,35.4666,13.8038,24.0445,-12.9966,8.6662,-1.5745,12.9966,8.6662,1.5745
T,2026-06-01 12:40:00,12,40,401.03,21.48,0.812,22.47,2,33.86,100,3,0,1.3,sunny,1,1,21.02,18.5927,2.4273,2.4273,underestimate,10.7038,29.2965,2.4273,-8.2765,2.4273,8.2765,37.7746,18.5927,29.2965,-16.7546,2.4273,-8.2765,16.7546,2.4273,8.2765
T,2026-06-01 12:45:00,12,45,420.07,18.36,0.809,21.02,4,37.19,100,3,0,1.3,cloudy,1,1,21.21,17.3224,3.8876,3.8876,underestimate,10.3285,27.6509,3.8876,-6.4409,3.8876,6.4409,38.3199,17.3224,27.6509,-17.1099,3.8876,-6.4409,17.1099,3.8876,6.4409
T,2026-06-01 12:50:00,12,50,444.46,20.81,0.863,21.21,2,36.17,100,3,0,1.3,cloudy,1,1,24.68,19.3051,5.3749,5.3749,underestimate,11.1139,30.419,5.3749,-5.739,5.3749,5.739,39.5127,19.3051,30.419,-14.8327,5.3749,-5.739,14.8327,5.3749,5.739
T,2026-06-01 12:55:00,12,55,365.66,27.84,0.82,24.68,2,39.14,100,3,0,1.3,sunny,1,1,22.62,11.18,11.44,11.44,underestimate,9.4792,20.6592,11.44,1.9608,11.44,1.9608,32.4309,11.18,20.6592,-9.8109,11.44,1.9608,9.8109,11.44,1.9608
T,2026-06-01 13:00:00,13,0,415.9,23.82,0.78,22.62,1,30.57,100,3,0,1.3,sunny,1,1,29.78,16.3841,13.3959,13.3959,underestimate,11.4819,27.866,13.3959,1.914,13.3959,1.914,37.6489,16.3841,27.866,-7.8689,13.3959,1.914,7.8689,13.3959,1.914
T,2026-06-01 13:05:00,13,5,516.34,13.3,0.98,29.78,3,37.87,100,3,0,1.3,rainy,1,1,34.58,33.2831,1.2969,1.2969,underestimate,14.837,48.1201,1.2969,-13.5401,1.2969,13.5401,51.3543,33.2831,48.1201,-16.7743,1.2969,-13.5401,16.7743,1.2969,13.5401
T,2026-06-01 13:10:00,13,10,472.13,16.49,0.98,34.58,3,33.07,100,3,0,1.3,cloudy,1,1,32.49,32.3811,0.1089,0.1089,underestimate,15.665,48.0461,0.1089,-15.5561,0.1089,15.5561,51.6094,32.3811,48.0461,-19.1194,0.1089,-15.5561,19.1194,0.1089,15.5561
T,2026-06-01 13:15:00,13,15,438.33,13.4,0.934,32.49,1,30.9,100,3,0,1.3,sunny,1,1,31.33,27.8324,3.4976,3.4976,underestimate,14.7494,42.5818,3.4976,-11.2518,3.4976,11.2518,50.8779,27.8324,42.5818,-19.5479,3.4976,-11.2518,19.5479,3.4976,11.2518
T,2026-06-01 13:20:00,13,20,404.1,24.97,0.867,31.33,2,28.86,100,3,0,1.3,sunny,1,1,32.82,17.8029,15.0171,15.0171,underestimate,13.6622,31.4651,15.0171,1.3549,15.0171,1.3549,42.4854,17.8029,31.4651,-9.6654,15.0171,1.3549,9.6654,15.0171,1.3549
T,2026-06-01 13:25:00,13,25,528.86,18.37,0.98,32.82,4,29.46,100,3,0,1.3,rainy,1,1,42.04,33.6297,8.4103,8.4103,underestimate,17.0408,50.6705,8.4103,-8.6305,8.4103,8.6305,53.2958,33.6297,50.6705,-11.2558,8.4103,-8.6305,11.2558,8.4103,8.6305
T,2026-06-01 13:30:00,13,30,471.62,11.27,0.98,42.04,1,33.22,100,3,0,1.3,cloudy,1,1,41.11,37.4874,3.6226,3.6226,underestimate,17.5064,54.9938,3.6226,-13.8838,3.6226,13.8838,57.2203,37.4874,54.9938,-16.1103,3.6226,-13.8838,16.1103,3.6226,13.8838
T,2026-06-01 13:35:00,13,35,506.73,13.1,0.98,41.11,1,35.82,100,3,0,1.3,rainy,1,1,46.32,37.5795,8.7405,8.7405,underestimate,17.6221,55.2016,8.7405,-8.8816,8.7405,8.8816,56.3424,37.5795,55.2016,-10.0224,8.7405,-8.8816,10.0224,8.7405,8.8816
T,2026-06-01 13:40:00,13,40,483.0,13.93,0.98,46.32,2,42.4,100,3,0,1.3,rainy,1,1,43.76,37.0025,6.7575,6.7575,underestimate,17.2707,54.2732,6.7575,-10.5132,6.7575,10.5132,54.8792,37.0025,54.2732,-11.1192,6.7575,-10.5132,11.1192,6.7575,10.5132
T,2026-06-01 13:45:00,13,45,522.09,11.61,0.98,43.76,2,41.84,100,3,0,1.3,rainy,1,1,49.49,37.0919,12.3981,12.3981,underestimate,17.6787,54.7706,12.3981,-5.2806,12.3981,5.2806,56.705,37.0919,54.7706,-7.215,12.3981,-5.2806,7.215,12.3981,5.2806
T,2026-06-01 13:50:00,13,50,415.84,7.2,0.98,49.49,3,28.32,100,3,0,1.3,sunny,1,1,49.24,42.037,7.203,7.203,underestimate,18.8785,60.9155,7.203,-11.6755,7.203,11.6755,61.8731,42.037,60.9155,-12.6331,7.203,-11.6755,12.6331,7.203,11.6755
T,2026-06-01 13:55:00,13,55,439.98,12.98,0.98,49.24,2,33.44,100,3,0,1.3,cloudy,1,1,40.21,41.0669,-0.8569,-0.8569,overestimate,18.4265,59.4934,-0.8569,-19.2834,0.8569,19.2834,57.9674,41.0669,59.4934,-17.7574,-0.8569,-19.2834,17.7574,0.8569,19.2834
T,2026-06-01 14:00:00,14,0,411.77,8.8,0.98,40.21,3,36.01,100,3,0,1.3,cloudy,1,1,32.55,32.917,-0.367,-0.367,overestimate,15.3556,48.2726,-0.367,-15.7226,0.367,15.7226,54.5571,32.917,48.2726,-22.0071,-0.367,-15.7226,22.0071,0.367,15.7226
T,2026-06-01 14:05:00,14,5,393.52,11.89,0.906,32.55,2,35.36,100,3,0,1.3,sunny,1,1,29.16,26.2317,2.9283,2.9283,underestimate,13.05,39.2817,2.9283,-10.1217,2.9283,10.1217,47.9008,26.2317,39.2817,-18.7408,2.9283,-10.1217,18.7408,2.9283,10.1217
T,2026-06-01 14:10:00,14,10,381.3,18.06,0.838,29.16,2,38.14,100,3,0,1.3,sunny,1,1,21.31,19.6514,1.6586,1.6586,underestimate,11.29,30.9414,1.6586,-9.6314,1.6586,9.6314,40.5599,19.6514,30.9414,-19.2499,1.6586,-9.6314,19.2499,1.6586,9.6314
T,2026-06-01 14:15:00,14,15,417.71,23.63,0.852,21.31,1,40.38,100,3,0,1.3,sunny,1,1,20.24,14.4838,5.7562,5.7562,underestimate,9.7986,24.2824,5.7562,-4.0424,5.7562,4.0424,35.4388,14.4838,24.2824,-15.1988,5.7562,-4.0424,15.1988,5.7562,4.0424
T,2026-06-01 14:20:00,14,20,542.69,18.35,0.98,20.24,2,24.85,100,3,0,1.3,rainy,1,1,39.88,29.2562,10.6238,10.6238,underestimate,15.105,44.3612,10.6238,-4.4812,10.6238,4.4812,50.3409,29.2562,44.3612,-10.4609,10.6238,-4.4812,10.4609,10.6238,4.4812
T,2026-06-01 14:25:00,14,25,452.9,13.87,0.98,39.88,2,44.11,100,3,0,1.3,sunny,1,1,33.54,27.3756,6.1644,6.1644,underestimate,14.8121,42.1877,6.1644,-8.6477,6.1644,8.6477,50.6108,27.3756,42.1877,-17.0708,6.1644,-8.6477,17.0708,6.1644,8.6477
T,2026-06-01 14:30:00,14,30,347.99,17.14,0.883,33.54,2,32.95,100,3,0,1.3,sunny,1,1,25.44,21.6851,3.7549,3.7549,underestimate,12.4902,34.1753,3.7549,-8.7353,3.7549,8.7353,44.2304,21.6851,34.1753,-18.7904,3.7549,-8.7353,18.7904,3.7549,8.7353
T,2026-06-01 14:35:00,14,35,409.47,20.59,0.859,25.44,3,33.06,100,3,0,1.3,sunny,1,1,27.8,20.1636,7.6364,7.6364,underestimate,11.8171,31.9807,7.6364,-4.1807,7.6364,4.1807,40.983,20.1636,31.9807,-13.183,7.6364,-4.1807,13.183,7.6364,4.1807
T,2026-06-01 14:40:00,14,40,439.63,18.09,0.964,27.8,2,40.64,100,3,0,1.3,cloudy,1,1,18.37,24.6932,-6.3232,-6.3232,overestimate,12.0893,36.7825,-6.3232,-18.4125,6.3232,18.4125,43.9392,24.6932,36.7825,-25.5692,-6.3232,-18.4125,25.5692,6.3232,18.4125
T,2026-06-01 14:45:00,14,45,425.99,30.86,0.742,18.37,4,30.23,100,3,0,1.3,cloudy,1,1,18.3,13.8329,4.4671,4.4671,underestimate,10.5374,24.3703,4.4671,-6.0703,4.4671,6.0703,32.0325,13.8329,24.3703,-13.7325,4.4671,-6.0703,13.7325,4.4671,6.0703
T,2026-06-01 14:50:00,14,50,449.34,28.01,0.824,18.3,3,36.94,100,3,0,1.3,sunny,1,1,16.56,12.9392,3.6208,3.6208,underestimate,10.1899,23.1291,3.6208,-6.5691,3.6208,6.5691,33.7584,12.9392,23.1291,-17.1984,3.6208,-6.5691,17.1984,3.6208,6.5691
T,2026-06-01 14:55:00,14,55,428.05,32.01,0.747,16.56,2,34.76,100,3,0,1.3,sunny,1,1,15.01,9.8267,5.1833,5.1833,underestimate,9.4283,19.255,5.1833,-4.245,5.1833,4.245,29.3552,9.8267,19.255,-14.3452,5.1833,-4.245,14.3452,5.1833,4.245
T,2026-06-01 15:00:00,15,0,449.73,25.85,0.832,15.01,2,47.69,100,3,0,1.3,cloudy,1,1,10.48,8.3114,2.1686,2.1686,underestimate,7.7968,16.1082,2.1686,-5.6282,2.1686,5.6282,30.0748,8.3114,16.1082,-19.5948,2.1686,-5.6282,19.5948,2.1686,5.6282
T,2026-06-01 15:05:00,15,5,406.51,32.13,0.709,10.48,1,36.22,100,3,0,1.3,sunny,1,1,9.8,4.0872,5.7128,5.7128,underestimate,7.2173,11.3045,5.7128,-1.5045,5.7128,1.5045,24.7625,4.0872,11.3045,-14.9625,5.7128,-1.5045,14.9625,5.7128,1.5045
T,2026-06-01 15:10:00,15,10,460.88,28.14,0.759,9.8,4,35.71,100,3,0,1.3,cloudy,1,1,12.64,5.908,6.732,6.732,underestimate,8.5231,14.4311,6.732,-1.7911,6.732,1.7911,29.7904,5.908,14.4311,-17.1504,6.732,-1.7911,17.1504,6.732,1.7911
T,2026-06-01 15:15:00,15,15,530.83,21.08,0.872,12.64,3,35.13,100,3,0,1.3,rainy,1,1,26.6,20.5247,6.0753,6.0753,underestimate,11.1921,31.7168,6.0753,-5.1168,6.0753,5.1168,39.7193,20.5247,31.7168,-13.1193,6.0753,-5.1168,13.1193,6.0753,5.1168
T,2026-06-01 15:20:00,15,20,415.73,18.7,0.816,26.6,1,33.33,100,3,0,1.3,cloudy,1,1,27.6,19.6057,7.9943,7.9943,underestimate,12.1582,31.7639,7.9943,-4.1639,7.9943,4.1639,41.6786,19.6057,31.7639,-14.0786,7.9943,-4.1639,14.0786,7.9943,4.1639
T,2026-06-01 15:25:00,15,25,415.83,17.61,0.901,27.6,3,35.73,100,3,0,1.3,sunny,1,1,26.04,22.2205,3.8195,3.8195,underestimate,12.1864,34.4069,3.8195,-8.3669,3.8195,8.3669,43.5808,22.2205,34.4069,-17.5408,3.8195,-8.3669,17.5408,3.8195,8.3669
T,2026-06-01 15:30:00,15,30,393.1,18.23,0.805,26.04,4,26.67,100,3,0,1.3,sunny,1,1,27.68,19.7287,7.9513,7.9513,underestimate,12.558,32.2867,7.9513,-4.6067,7.9513,4.6067,42.8809,19.7287,32.2867,-15.2009,7.9513,-4.6067,15.2009,7.9513,4.6067
T,2026-06-01 15:35:00,15,35,523.66,13.23,0.98,27.68,3,34.22,100,3,0,1.3,rainy,1,1,32.01,32.9784,-0.9684,-0.9684,overestimate,15.0792,48.0576,-0.9684,-16.0476,0.9684,16.0476,52.0626,32.9784,48.0576,-20.0526,-0.9684,-16.0476,20.0526,0.9684,16.0476
T,2026-06-01 15:40:00,15,40,423.25,17.83,0.885,32.01,1,41.06,100,3,0,1.3,sunny,1,1,23.87,20.4779,3.3921,3.3921,underestimate,12.5246,33.0025,3.3921,-9.1325,3.3921,9.1325,43.3767,20.4779,33.0025,-19.5067,3.3921,-9.1325,19.5067,3.3921,9.1325
T,2026-06-01 15:45:00,15,45,440.75,27.03,0.898,23.87,1,26.01,100,3,0,1.3,cloudy,1,1,32.04,21.4686,10.5714,10.5714,underestimate,13.1734,34.642,10.5714,-2.602,10.5714,2.602,41.4156,21.4686,34.642,-9.3756,10.5714,-2.602,9.3756,10.5714,2.602
T,2026-06-01 15:50:00,15,50,422.91,21.83,0.865,32.04,1,39.24,100,3,0,1.3,sunny,1,1,27.52,20.0427,7.4773,7.4773,underestimate,12.6872,32.7299,7.4773,-5.2099,7.4773,5.2099,41.5246,20.0427,32.7299,-14.0046,7.4773,-5.2099,14.0046,7.4773,5.2099
T,2026-06-01 15:55:00,15,55,532.81,14.74,0.98,27.52,3,37.19,100,3,0,1.3,rainy,1,1,34.99,32.7516,2.2384,2.2384,underestimate,14.7461,47.4977,2.2384,-12.5077,2.2384,12.5077,50.5565,32.7516,47.4977,-15.5665,2.2384,-12.5077,15.5665,2.2384,12.5077
T,2026-06-01 16:00:00,16,0,443.03,19.84,0.921,34.99,3,27.87,100,3,0,1.3,cloudy,1,1,39.71,26.1355,13.5745,13.5745,underestimate,15.7548,41.8903,13.5745,-2.1803,13.5745,2.1803,49.5075,26.1355,41.8903,-9.7975,13.5745,-2.1803,9.7975,13.5745,2.1803
T,2026-06-01 16:05:00,16,5,490.89,14.29,0.98,39.71,4,35.26,100,3,0,1.3,rainy,1,1,35.71,34.3444,1.3656,1.3656,underestimate,16.9995,51.3439,1.3656,-15.6339,1.3656,15.6339,54.7626,34.3444,51.3439,-19.0526,1.3656,-15.6339,19.0526,1.3656,15.6339
T,2026-06-01 16:10:00,16,10,409.87,19.15,0.94,35.71,1,36.57,100,3,0,1.3,sunny,1,1,33.0,24.744,8.256,8.256,underestimate,13.8663,38.6103,8.256,-5.6103,8.256,5.6103,46.3397,24.744,38.6103,-13.3397,8.256,-5.6103,13.3397,8.256,5.6103
T,2026-06-01 16:15:00,16,15,371.18,24.41,0.81,33.0,1,37.31,100,3,0,1.3,sunny,1,1,22.15,12.2598,9.8902,9.8902,underestimate,11.9123,24.1721,9.8902,-2.0221,9.8902,2.0221,38.1599,12.2598,24.1721,-16.0099,9.8902,-2.0221,16.0099,9.8902,2.0221
T,2026-06-01 16:20:00,16,20,392.5,22.43,0.82,22.15,2,31.0,100,3,0,1.3,sunny,1,1,25.59,17.6613,7.9287,7.9287,underestimate,10.879,28.5403,7.9287,-2.9503,7.9287,2.9503,37.9734,17.6613,28.5403,-12.3834,7.9287,-2.9503,12.3834,7.9287,2.9503
T,2026-06-01 16:25:00,16,25,401.0,19.74,0.841,25.59,3,35.18,100,3,0,1.3,sunny,1,1,25.17,19.4664,5.7036,5.7036,underestimate,11.3195,30.7859,5.7036,-5.6159,5.7036,5.6159,40.0706,19.4664,30.7859,-14.9006,5.7036,-5.6159,14.9006,5.7036,5.6159
T,2026-06-01 16:30:00,16,30,416.5,20.33,0.839,25.17,1,37.93,100,3,0,1.3,sunny,1,1,23.0,19.1255,3.8745,3.8745,underestimate,11.1184,30.2439,3.8745,-7.2439,3.8745,7.2439,39.2056,19.1255,30.2439,-16.2056,3.8745,-7.2439,16.2056,3.8745,7.2439
T,2026-06-01 16:35:00,16,35,434.8,22.38,0.815,23.0,2,35.34,100,3,0,1.3,sunny,1,1,20.8,18.7882,2.0118,2.0118,underestimate,11.3356,30.1238,2.0118,-9.3238,2.0118,9.3238,38.3534,18.7882,30.1238,-17.5534,2.0118,-9.3238,17.5534,2.0118,9.3238
T,2026-06-01 16:40:00,16,40,421.1,27.36,0.819,20.8,4,36.45,100,3,0,1.3,sunny,1,1,21.64,12.989,8.651,8.651,underestimate,10.2324,23.2214,8.651,-1.5814,8.651,1.5814,34.0982,12.989,23.2214,-12.4582,8.651,-1.5814,12.4582,8.651,1.5814
T,2026-06-01 16:45:00,16,45,401.79,28.98,0.825,21.64,3,31.84,100,3,0,1.3,sunny,1,1,26.28,14.0761,12.2039,12.2039,underestimate,10.697,24.7731,12.2039,1.5069,12.2039,1.5069,34.5662,14.0761,24.7731,-8.2862,12.2039,1.5069,8.2862,12.2039,1.5069
T,2026-06-01 16:50:00,16,50,408.87,15.23,0.892,26.28,2,30.59,100,3,0,1.3,sunny,1,1,32.6,22.5892,10.0108,10.0108,underestimate,12.564,35.1532,10.0108,-2.5532,10.0108,2.5532,45.5745,22.5892,35.1532,-12.9745,10.0108,-2.5532,12.9745,10.0108,2.5532
T,2026-06-01 16:55:00,16,55,476.54,23.31,0.98,32.6,3,34.65,100,3,0,1.3,cloudy,1,1,34.07,27.5645,6.5055,6.5055,underestimate,14.8966,42.4611,6.5055,-8.3911,6.5055,8.3911,46.935,27.5645,42.4611,-12.865,6.5055,-8.3911,12.865,6.5055,8.3911
T,2026-06-01 17:00:00,17,0,729.13,11.89,0.98,34.07,3,40.35,100,3,1,1.3,sunny,1,1,51.78,38.9554,12.8246,12.8246,underestimate,31.378,70.3334,12.8246,-18.5534,12.8246,18.5534,78.0824,38.9554,70.3334,-26.3024,12.8246,-18.5534,26.3024,12.8246,18.5534
T,2026-06-01 17:05:00,17,5,725.11,5.18,0.98,51.78,3,41.19,100,3,1,1.3,sunny,1,1,70.46,51.5461,18.9139,18.9139,underestimate,35.4846,87.0307,18.9139,-16.5707,18.9139,16.5707,88.2095,51.5461,87.0307,-17.7495,18.9139,-16.5707,17.7495,18.9139,16.5707
T,2026-06-01 17:10:00,17,10,747.05,5.0,0.98,70.46,3,49.92,100,3,1,1.3,sunny,1,1,70.82,57.8999,12.9201,12.9201,underestimate,39.0163,96.9162,12.9201,-26.0962,12.9201,26.0962,93.6622,57.8999,96.9162,-22.8422,12.9201,-26.0962,22.8422,12.9201,26.0962
T,2026-06-01 17:15:00,17,15,840.26,5.0,0.98,70.82,4,40.08,100,3,1,1.3,cloudy,1,1,85.99,70.3205,15.6695,15.6695,underestimate,42.7262,113.0467,15.6695,-27.0567,15.6695,27.0567,100.656,70.3205,113.0467,-14.666,15.6695,-27.0567,14.666,15.6695,27.0567
T,2026-06-01 17:20:00,17,20,736.54,5.0,0.98,85.99,4,34.6,100,3,1,1.3,sunny,1,1,94.25,68.3599,25.8901,25.8901,underestimate,44.8503,113.2102,25.8901,-18.9602,25.8901,18.9602,104.7096,68.3599,113.2102,-10.4596,25.8901,-18.9602,10.4596,25.8901,18.9602
T,2026-06-01 17:25:00,17,25,733.19,5.0,0.98,94.25,4,37.99,100,3,1,1.3,cloudy,1,1,102.51,67.908,34.602,34.602,underestimate,46.1926,114.1006,34.602,-11.5906,34.602,11.5906,106.7487,67.908,114.1006,-4.2387,34.602,-11.5906,4.2387,34.602,11.5906
T,2026-06-01 17:30:00,17,30,808.26,5.0,0.98,102.51,2,48.79,100,3,1,1.3,cloudy,1,1,100.56,62.0584,38.5016,38.5016,underestimate,48.1228,110.1812,38.5016,-9.6212,38.5016,9.6212,109.2189,62.0584,110.1812,-8.6589,38.5016,-9.6212,8.6589,38.5016,9.6212
T,2026-06-01 17:35:00,17,35,785.01,5.0,0.98,100.56,1,41.73,100,3,1,1.3,sunny,1,1,107.0,65.7989,41.2011,41.2011,underestimate,48.2515,114.0504,41.2011,-7.0504,41.2011,7.0504,109.9606,65.7989,114.0504,-2.9606,41.2011,-7.0504,2.9606,41.2011,7.0504
T,2026-06-01 17:40:00,17,40,926.41,5.0,0.98,107.0,3,41.65,100,3,1,1.3,rainy,1,1,118.17,71.181,46.989,46.989,underestimate,52.9403,124.1213,46.989,-5.9513,46.989,5.9513,117.8917,71.181,124.1213,0.2783,46.989,-5.9513,0.2783,46.989,5.9513
T,2026-06-01 17:45:00,17,45,737.39,5.0,0.98,118.17,4,43.67,100,3,1,1.3,sunny,1,1,111.18,64.0369,47.1431,47.1431,underestimate,51.0393,115.0762,47.1431,-3.8962,47.1431,3.8962,114.5824,64.0369,115.0762,-3.4024,47.1431,-3.8962,3.4024,47.1431,3.8962
T,2026-06-01 17:50:00,17,50,728.82,5.0,0.98,111.18,4,47.67,100,3,1,1.3,sunny,1,1,101.95,61.0921,40.8579,40.8579,underestimate,48.5709,109.663,40.8579,-7.713,40.8579,7.713,110.0937,61.0921,109.663,-8.1437,40.8579,-7.713,8.1437,40.8579,7.713
T,2026-06-01 17:55:00,17,55,957.88,5.0,0.98,101.95,2,35.19,100,3,1,1.3,rainy,1,1,129.2,71.956,57.244,57.244,underestimate,53.4649,125.4209,57.244,3.7791,57.244,3.7791,119.2425,71.956,125.4209,9.9575,57.244,3.7791,9.9575,57.244,3.7791
T,2026-06-01 18:00:00,18,0,754.38,5.0,0.98,129.2,4,47.6,100,3,1,1.3,sunny,1,1,118.64,61.3827,57.2573,57.2573,underestimate,53.4046,114.7873,57.2573,3.8527,57.2573,3.8527,118.3153,61.3827,114.7873,0.3247,57.2573,3.8527,0.3247,57.2573,3.8527
T,2026-06-01 18:05:00,18,5,780.15,5.0,0.98,118.64,2,40.94,100,3,1,1.3,cloudy,1,1,114.37,66.015,48.355,48.355,underestimate,52.5332,118.5482,48.355,-4.1782,48.355,4.1782,117.3069,66.015,118.5482,-2.9369,48.355,-4.1782,2.9369,48.355,4.1782
T,2026-06-01 18:10:00,18,10,680.03,5.0,0.98,114.37,2,43.8,100,3,1,1.3,sunny,1,1,105.29,60.0754,45.2146,45.2146,underestimate,48.8418,108.9172,45.2146,-3.6272,45.2146,3.6272,110.855,60.0754,108.9172,-5.565,45.2146,-3.6272,5.565,45.2146,3.6272
T,2026-06-01 18:15:00,18,15,920.16,5.0,0.98,105.29,2,47.25,100,3,1,1.3,rainy,1,1,116.99,67.9555,49.0345,49.0345,underestimate,51.5185,119.474,49.0345,-2.484,49.0345,2.484,115.067,67.9555,119.474,1.923,49.0345,-2.484,1.923,49.0345,2.484
T,2026-06-01 18:20:00,18,20,948.95,5.0,0.98,116.99,2,40.74,100,3,1,1.3,rainy,1,1,127.54,71.3652,56.1748,56.1748,underestimate,55.9435,127.3087,56.1748,0.2313,56.1748,0.2313,123.0605,71.3652,127.3087,4.4795,56.1748,0.2313,4.4795,56.1748,0.2313
T,2026-06-01 18:25:00,18,25,792.36,5.0,0.98,127.54,2,37.09,100,3,1,1.3,sunny,1,1,132.49,69.0954,63.3946,63.3946,underestimate,55.51,124.6054,63.3946,7.8846,63.3946,7.8846,122.6485,69.0954,124.6054,9.8415,63.3946,7.8846,9.8415,63.3946,7.8846
T,2026-06-01 18:30:00,18,30,757.78,5.0,0.98,132.49,4,38.04,100,3,1,1.3,sunny,1,1,129.12,67.967,61.153,61.153,underestimate,55.757,123.724,61.153,5.396,61.153,5.396,123.0131,67.967,123.724,6.1069,61.153,5.396,6.1069,61.153,5.396
T,2026-06-01 18:35:00,18,35,794.85,5.0,0.98,129.12,4,50.53,100,3,1,1.3,cloudy,1,1,115.18,61.4747,53.7053,53.7053,underestimate,53.8294,115.3041,53.7053,-0.1241,53.7053,0.1241,118.8095,61.4747,115.3041,-3.6295,53.7053,-0.1241,3.6295,53.7053,0.1241
T,2026-06-01 18:40:00,18,40,742.91,5.0,0.98,115.18,1,46.94,100,3,1,1.3,sunny,1,1,111.66,62.1487,49.5113,49.5113,underestimate,49.9439,112.0926,49.5113,-0.4326,49.5113,0.4326,112.478,62.1487,112.0926,-0.818,49.5113,-0.4326,0.818,49.5113,0.4326
T,2026-06-01 18:45:00,18,45,728.75,5.0,0.98,111.66,3,40.5,100,3,1,1.3,sunny,1,1,109.72,67.2955,42.4245,42.4245,underestimate,49.8078,117.1033,42.4245,-7.3833,42.4245,7.3833,112.7203,67.2955,117.1033,-3.0003,42.4245,-7.3833,3.0003,42.4245,7.3833
T,2026-06-01 18:50:00,18,50,798.0,5.0,0.98,109.72,2,44.34,100,3,1,1.3,sunny,1,1,109.4,65.4863,43.9137,43.9137,underestimate,50.2933,115.7796,43.9137,-6.3796,43.9137,6.3796,113.2407,65.4863,115.7796,-3.8407,43.9137,-6.3796,3.8407,43.9137,6.3796
T,2026-06-01 18:55:00,18,55,933.59,5.0,0.98,109.4,1,42.43,100,3,1,1.3,rainy,1,1,129.48,71.1388,58.3412,58.3412,underestimate,53.5445,124.6833,58.3412,4.7967,58.3412,4.7967,118.8605,71.1388,124.6833,10.6195,58.3412,4.7967,10.6195,58.3412,4.7967
T,2026-06-01 19:00:00,19,0,739.53,5.0,0.98,129.48,2,37.96,100,3,1,1.3,sunny,1,1,130.2,67.9552,62.2448,62.2448,underestimate,54.6519,122.6071,62.2448,7.5929,62.2448,7.5929,121.1451,67.9552,122.6071,9.0549,62.2448,7.5929,9.0549,62.2448,7.5929
T,2026-06-01 19:05:00,19,5,787.2,5.0,0.98,130.2,4,40.76,100,3,1,1.3,sunny,1,1,131.72,67.1845,64.5355,64.5355,underestimate,55.4466,122.6311,64.5355,9.0889,64.5355,9.0889,122.2755,67.1845,122.6311,9.4445,64.5355,9.0889,9.4445,64.5355,9.0889
T,2026-06-01 19:10:00,19,10,773.74,5.0,0.98,131.72,1,49.85,100,3,1,1.3,sunny,1,1,122.98,59.8581,63.1219,63.1219,underestimate,54.0784,113.9365,63.1219,9.0435,63.1219,9.0435,119.2908,59.8581,113.9365,3.6892,63.1219,9.0435,3.6892,63.1219,9.0435
T,2026-06-01 19:15:00,19,15,738.92,5.0,0.98,122.98,4,40.04,100,3,1,1.3,sunny,1,1,121.49,67.4765,54.0135,54.0135,underestimate,52.7781,120.2546,54.0135,1.2354,54.0135,1.2354,117.8051,67.4765,120.2546,3.6849,54.0135,1.2354,3.6849,54.0135,1.2354
T,2026-06-01 19:20:00,19,20,747.13,5.0,0.98,121.49,2,39.17,100,3,1,1.3,sunny,1,1,120.11,67.8933,52.2167,52.2167,underestimate,52.7463,120.6396,52.2167,-0.5296,52.2167,0.5296,117.8111,67.8933,120.6396,2.2989,52.2167,-0.5296,2.2989,52.2167,0.5296
T,2026-06-01 19:25:00,19,25,745.03,5.0,0.98,120.11,2,38.43,100,3,1,1.3,sunny,1,1,119.2,67.967,51.233,51.233,underestimate,52.4899,120.4569,51.233,-1.2569,51.233,1.2569,117.4294,67.967,120.4569,1.7706,51.233,-1.2569,1.7706,51.233,1.2569
T,2026-06-01 19:30:00,19,30,791.93,5.0,0.98,119.2,1,36.24,100,3,1,1.3,cloudy,1,1,132.75,69.0747,63.6753,63.6753,underestimate,53.6659,122.7406,63.6753,10.0094,63.6753,10.0094,119.572,69.0747,122.7406,13.178,63.6753,10.0094,13.178,63.6753,10.0094
T,2026-06-01 19:35:00,19,35,759.6,5.0,0.98,132.75,4,44.25,100,3,1,1.3,sunny,1,1,129.77,63.714,66.056,66.056,underestimate,54.8845,118.5985,66.056,11.1715,66.056,11.1715,121.0756,63.714,118.5985,8.6944,66.056,11.1715,8.6944,66.056,11.1715
T,2026-06-01 19:40:00,19,40,805.72,5.0,0.98,129.77,2,51.58,100,3,1,1.3,cloudy,1,1,117.86,61.5331,56.3269,56.3269,underestimate,54.0607,115.5938,56.3269,2.2662,56.3269,2.2662,119.1225,61.5331,115.5938,-1.2625,56.3269,2.2662,1.2625,56.3269,2.2662
T,2026-06-01 19:45:00,19,45,725.41,5.0,0.98,117.86,3,37.77,100,3,1,1.3,sunny,1,1,117.83,67.4925,50.3375,50.3375,underestimate,51.6246,119.1171,50.3375,-1.2871,50.3375,1.2871,116.0123,67.4925,119.1171,1.8177,50.3375,-1.2871,1.8177,50.3375,1.2871
T,2026-06-01 19:50:00,19,50,948.67,5.0,0.98,117.83,3,49.91,100,3,1,1.3,rainy,1,1,129.42,66.0896,63.3304,63.3304,underestimate,54.6965,120.7861,63.3304,8.6339,63.3304,8.6339,120.2711,66.0896,120.7861,9.1489,63.3304,8.6339,9.1489,63.3304,8.6339
T,2026-06-01 19:55:00,19,55,758.99,5.0,0.98,129.42,2,45.6,100,3,1,1.3,sunny,1,1,121.62,63.2858,58.3342,58.3342,underestimate,53.8733,117.1591,58.3342,4.4609,58.3342,4.4609,119.2567,63.2858,117.1591,2.3633,58.3342,4.4609,2.3633,58.3342,4.4609
T,2026-06-01 20:00:00,20,0,270.54,5.0,0.98,121.62,2,36.0,100,3,0,1.3,sunny,1,1,82.68,57.9635,24.7165,24.7165,underestimate,31.4988,89.4623,24.7165,-6.7823,24.7165,6.7823,83.8968,57.9635,89.4623,-1.2168,24.7165,-6.7823,1.2168,24.7165,6.7823
T,2026-06-01 20:05:00,20,5,334.92,5.0,0.98,82.68,4,30.12,100,3,0,1.3,cloudy,1,1,68.74,57.9819,10.7581,10.7581,underestimate,24.6702,82.6521,10.7581,-13.9121,10.7581,13.9121,72.6785,57.9819,82.6521,-3.9385,10.7581,-13.9121,3.9385,10.7581,13.9121
T,2026-06-01 20:10:00,20,10,328.52,5.34,0.98,68.74,1,28.04,100,3,0,1.3,sunny,1,1,57.87,55.832,2.038,2.038,underestimate,21.5568,77.3888,2.038,-19.5188,2.038,19.5188,67.3716,55.832,77.3888,-9.5016,2.038,-19.5188,9.5016,2.038,19.5188
T,2026-06-01 20:15:00,20,15,337.63,15.72,0.98,57.87,1,44.71,100,3,0,1.3,sunny,1,1,27.92,41.4378,-13.5178,-13.5178,overestimate,16.3486,57.7864,-13.5178,-29.8664,13.5178,29.8664,52.3446,41.4378,57.7864,-24.4246,-13.5178,-29.8664,24.4246,13.5178,29.8664
T,2026-06-01 20:20:00,20,20,342.51,30.29,0.769,27.92,1,34.09,100,3,0,1.3,cloudy,1,1,19.21,11.8987,7.3113,7.3113,underestimate,10.3795,22.2782,7.3113,-3.0682,7.3113,3.0682,32.2661,11.8987,22.2782,-13.0561,7.3113,-3.0682,13.0561,7.3113,3.0682
T,2026-06-01 20:25:00,20,25,425.61,25.14,0.847,19.21,2,39.25,100,3,0,1.3,rainy,1,1,12.78,13.2168,-0.4368,-0.4368,overestimate,9.6148,22.8316,-0.4368,-10.0516,0.4368,10.0516,34.3968,13.2168,22.8316,-21.6168,-0.4368,-10.0516,21.6168,0.4368,10.0516
T,2026-06-01 20:30:00,20,30,283.16,32.77,0.624,12.78,4,38.27,100,3,0,1.3,sunny,1,1,3.29,3.2026,0.0874,0.0874,underestimate,4.528,7.7306,0.0874,-4.4406,0.0874,4.4406,18.2696,3.2026,7.7306,-14.9796,0.0874,-4.4406,14.9796,0.0874,4.4406
T,2026-06-01 20:35:00,20,35,357.85,39.15,0.582,3.29,1,38.37,100,3,0,1.3,cloudy,1,1,3.32,1.1429,2.1771,2.1771,underestimate,3.7282,4.8711,2.1771,-1.5511,2.1771,1.5511,13.086,1.1429,4.8711,-9.766,2.1771,-1.5511,9.766,2.1771,1.5511
T,2026-06-01 20:40:00,20,40,296.99,36.59,0.508,3.32,4,37.76,100,3,0,1.3,sunny,1,1,0.0,0.2411,-0.2411,-0.2411,overestimate,2.4053,2.6464,-0.2411,-2.6464,0.2411,2.6464,10.8083,0.2411,2.6464,-10.8083,-0.2411,-2.6464,10.8083,0.2411,2.6464
T,2026-06-01 20:45:00,20,45,434.79,43.33,0.635,0.0,3,38.33,100,3,0,1.3,rainy,1,1,7.2,1.9487,5.2513,5.2513,underestimate,4.6716,6.6203,5.2513,0.5797,5.2513,0.5797,13.614,1.9487,6.6203,-6.414,5.2513,0.5797,6.414,5.2513,0.5797
T,2026-06-01 20:50:00,20,50,317.91,37.63,0.518,7.2,4,39.19,100,3,0,1.3,cloudy,1,1,1.32,0.9755,0.3445,0.3445,underestimate,3.5571,4.5326,0.3445,-3.2126,0.3445,3.2126,12.3383,0.9755,4.5326,-11.0183,0.3445,-3.2126,11.0183,0.3445,3.2126
T,2026-06-01 20:55:00,20,55,328.37,36.26,0.529,1.32,4,39.33,100,3,0,1.3,sunny,1,1,0.0,0.2033,-0.2033,-0.2033,overestimate,2.4301,2.6334,-0.2033,-2.6334,0.2033,2.6334,11.2543,0.2033,2.6334,-11.2543,-0.2033,-2.6334,11.2543,0.2033,2.6334
T,2026-06-01 21:00:00,21,0,306.91,39.98,0.547,0.0,3,28.9,100,3,0,1.3,sunny,1,1,2.08,2.1891,-0.1091,-0.1091,overestimate,3.2237,5.4128,-0.1091,-3.3328,0.1091,3.3328,11.9188,2.1891,5.4128,-9.8388,-0.1091,-3.3328,9.8388,0.1091,3.3328
T,2026-06-01 21:05:00,21,5,328.3,41.2,0.548,2.08,4,41.45,100,3,0,1.3,sunny,1,1,0.0,0.0977,-0.0977,-0.0977,overestimate,2.1972,2.2949,-0.0977,-2.2949,0.0977,2.2949,8.6868,0.0977,2.2949,-8.6868,-0.0977,-2.2949,8.6868,0.0977,2.2949
T,2026-06-01 21:10:00,21,10,425.34,39.34,0.637,0.0,4,32.89,100,3,0,1.3,rainy,1,1,7.0,3.6494,3.3506,3.3506,underestimate,5.4064,9.0558,3.3506,-2.0558,3.3506,2.0558,17.2009,3.6494,9.0558,-10.2009,3.3506,-2.0558,10.2009,3.3506,2.0558
T,2026-06-01 21:15:00,21,15,371.78,30.47,0.642,7.0,2,44.05,100,3,0,1.3,cloudy,1,1,4.82,2.4717,2.3483,2.3483,underestimate,4.3168,6.7885,2.3483,-1.9685,2.3483,1.9685,18.8712,2.4717,6.7885,-14.0512,2.3483,-1.9685,14.0512,2.3483,1.9685
T,2026-06-01 21:20:00,21,20,400.21,36.97,0.656,4.82,4,31.0,100,3,0,1.3,rainy,1,1,9.58,7.9299,1.6501,1.6501,underestimate,6.3638,14.2937,1.6501,-4.7137,1.6501,4.7137,20.4444,7.9299,14.2937,-10.8644,1.6501,-4.7137,10.8644,1.6501,4.7137
T,2026-06-01 21:25:00,21,25,313.7,35.18,0.652,9.58,2,29.72,100,3,0,1.3,sunny,1,1,9.36,6.0394,3.3206,3.3206,underestimate,5.7897,11.8291,3.3206,-2.4691,3.3206,2.4691,20.3758,6.0394,11.8291,-11.0158,3.3206,-2.4691,11.0158,3.3206,2.4691
T,2026-06-01 21:30:00,21,30,355.94,34.34,0.656,9.36,4,27.36,100,3,0,1.3,rainy,1,1,14.12,10.5735,3.5465,3.5465,underestimate,7.0765,17.65,3.5465,-3.53,3.5465,3.53,23.1926,10.5735,17.65,-9.0726,3.5465,-3.53,9.0726,3.5465,3.53
T,2026-06-01 21:35:00,21,35,308.57,32.77,0.646,14.12,4,31.0,100,3,0,1.3,cloudy,1,1,6.32,7.5267,-1.2067,-1.2067,overestimate,6.5892,14.1159,-1.2067,-7.7959,1.2067,7.7959,22.6872,7.5267,14.1159,-16.3672,-1.2067,-7.7959,16.3672,1.2067,7.7959
T,2026-06-01 21:40:00,21,40,369.38,35.65,0.649,6.32,4,27.45,100,3,0,1.3,cloudy,1,1,11.64,10.6322,1.0078,1.0078,underestimate,6.6042,17.2364,1.0078,-5.5964,1.0078,5.5964,21.6285,10.6322,17.2364,-9.9885,1.0078,-5.5964,9.9885,1.0078,5.5964
T,2026-06-01 21:45:00,21,45,389.48,31.2,0.734,11.64,2,45.52,100,3,0,1.3,rainy,1,1,5.71,4.5545,1.1555,1.1555,underestimate,5.714,10.2685,1.1555,-4.5585,1.1555,4.5585,22.4212,4.5545,10.2685,-16.7112,1.1555,-4.5585,16.7112,1.1555,4.5585
T,2026-06-01 21:50:00,21,50,356.49,29.17,0.59,5.71,1,31.7,100,3,0,1.3,cloudy,1,1,7.88,7.3653,0.5147,0.5147,underestimate,5.5508,12.9161,0.5147,-5.0361,0.5147,5.0361,21.5719,7.3653,12.9161,-13.6919,0.5147,-5.0361,13.6919,0.5147,5.0361
T,2026-06-01 21:55:00,21,55,306.75,41.75,0.578,7.88,2,40.14,100,3,0,1.3,sunny,1,1,0.0,0.4591,-0.4591,-0.4591,overestimate,3.3283,3.7874,-0.4591,-3.7874,0.4591,3.7874,10.9861,0.4591,3.7874,-10.9861,-0.4591,-3.7874,10.9861,0.4591,3.7874
T,2026-06-01 22:00:00,22,0,288.28,38.42,0.478,0.0,2,40.76,100,3,0,1.3,sunny,1,1,0.0,0.0012,-0.0012,-0.0012,overestimate,0.8658,0.867,-0.0012,-0.867,0.0012,0.867,6.5683,0.0012,0.867,-6.5683,-0.0012,-0.867,6.5683,0.0012,0.867
T,2026-06-01 22:05:00,22,5,333.64,42.49,0.562,0.0,2,32.15,100,3,0,1.3,sunny,1,1,2.23,2.3402,-0.1102,-0.1102,overestimate,3.2797,5.6199,-0.1102,-3.3899,0.1102,3.3899,10.8376,2.3402,5.6199,-8.6076,-0.1102,-3.3899,8.6076,0.1102,3.3899
T,2026-06-01 22:10:00,22,10,366.43,33.48,0.556,2.23,2,53.41,100,3,0,1.3,cloudy,1,1,0.0,0.7271,-0.7271,-0.7271,overestimate,1.392,2.1191,-0.7271,-2.1191,0.7271,2.1191,10.2529,0.7271,2.1191,-10.2529,-0.7271,-2.1191,10.2529,0.7271,2.1191
T,2026-06-01 22:15:00,22,15,329.29,41.06,0.547,0.0,2,29.51,100,3,0,1.3,sunny,1,1,1.02,3.7513,-2.7313,-2.7313,overestimate,3.6035,7.3548,-2.7313,-6.3348,2.7313,6.3348,11.9976,3.7513,7.3548,-10.9776,-2.7313,-6.3348,10.9776,2.7313,6.3348
T,2026-06-01 22:20:00,22,20,286.21,37.74,0.465,1.02,1,42.23,100,3,0,1.3,sunny,1,1,0.0,0.0082,-0.0082,-0.0082,overestimate,0.8229,0.8311,-0.0082,-0.8311,0.0082,0.8311,6.4824,0.0082,0.8311,-6.4824,-0.0082,-0.8311,6.4824,0.0082,0.8311
T,2026-06-01 22:25:00,22,25,330.25,44.45,0.534,0.0,1,35.28,100,3,0,1.3,sunny,1,1,0.67,0.4786,0.1914,0.1914,underestimate,2.6224,3.101,0.1914,-2.431,0.1914,2.431,8.0612,0.4786,3.101,-7.3912,0.1914,-2.431,7.3912,0.1914,2.431
T,2026-06-01 22:30:00,22,30,270.38,41.54,0.473,0.67,4,29.65,100,3,0,1.3,sunny,1,1,3.83,1.1954,2.6346,2.6346,underestimate,2.2899,3.4853,2.6346,0.3447,2.6346,0.3447,8.2316,1.1954,3.4853,-4.4016,2.6346,0.3447,4.4016,2.6346,0.3447
T,2026-06-01 22:35:00,22,35,284.98,40.71,0.544,3.83,1,42.35,100,3,0,1.3,sunny,1,1,0.0,0.1165,-0.1165,-0.1165,overestimate,1.506,1.6225,-0.1165,-1.6225,0.1165,1.6225,7.6242,0.1165,1.6225,-7.6242,-0.1165,-1.6225,7.6242,0.1165,1.6225
T,2026-06-01 22:40:00,22,40,320.68,39.73,0.527,0.0,2,39.21,100,3,0,1.3,cloudy,1,1,0.0,0.0565,-0.0565,-0.0565,overestimate,1.8852,1.9417,-0.0565,-1.9417,0.0565,1.9417,8.6495,0.0565,1.9417,-8.6495,-0.0565,-1.9417,8.6495,0.0565,1.9417
T,2026-06-01 22:45:00,22,45,321.48,44.79,0.494,0.0,3,34.22,100,3,0,1.3,sunny,1,1,0.0,0.3328,-0.3328,-0.3328,overestimate,2.5184,2.8512,-0.3328,-2.8512,0.3328,2.8512,7.0923,0.3328,2.8512,-7.0923,-0.3328,-2.8512,7.0923,0.3328,2.8512
T,2026-06-01 22:50:00,22,50,271.38,44.48,0.477,0.0,2,31.42,100,3,0,1.3,sunny,1,1,0.0,0.2773,-0.2773,-0.2773,overestimate,1.8177,2.095,-0.2773,-2.095,0.2773,2.095,5.9688,0.2773,2.095,-5.9688,-0.2773,-2.095,5.9688,0.2773,2.095
T,2026-06-01 22:55:00,22,55,313.69,44.39,0.499,0.0,4,27.2,100,3,0,1.3,sunny,1,1,1.78,4.4649,-2.6849,-2.6849,overestimate,3.4633,7.9282,-2.6849,-6.1482,2.6849,6.1482,9.4937,4.4649,7.9282,-7.7137,-2.6849,-6.1482,7.7137,2.6849,6.1482
T,2026-06-01 23:00:00,23,0,270.04,40.62,0.475,1.78,3,36.66,100,3,0,1.3,rainy,1,1,0.0,0.657,-0.657,-0.657,overestimate,1.468,2.125,-0.657,-2.125,0.657,2.125,6.7969,0.657,2.125,-6.7969,-0.657,-2.125,6.7969,0.657,2.125
T,2026-06-01 23:05:00,23,5,227.69,42.99,0.421,0.0,3,32.5,100,3,0,1.3,sunny,1,1,0.0,0.0022,-0.0022,-0.0022,overestimate,0.6122,0.6144,-0.0022,-0.6144,0.0022,0.6144,3.571,0.0022,0.6144,-3.571,-0.0022,-0.6144,3.571,0.0022,0.6144
T,2026-06-01 23:10:00,23,10,205.85,47.66,0.358,0.0,4,24.78,100,3,0,1.3,sunny,1,1,0.0,0.2123,-0.2123,-0.2123,overestimate,1.1268,1.3391,-0.2123,-1.3391,0.2123,1.3391,1.6724,0.2123,1.3391,-1.6724,-0.2123,-1.3391,1.6724,0.2123,1.3391
T,2026-06-01 23:15:00,23,15,189.17,45.04,0.341,0.0,4,38.58,100,3,0,1.3,sunny,1,1,0.0,0.0004,-0.0004,-0.0004,overestimate,-1.3814,0.0,-0.0004,0.0,0.0004,0.0,0.0,0.0004,0.0,0.0,-0.0004,0.0,0.0,0.0004,0.0
T,2026-06-01 23:20:00,23,20,198.43,47.88,0.371,0.0,4,37.17,100,3,0,1.3,cloudy,1,1,0.0,0.0004,-0.0004,-0.0004,overestimate,-0.9663,0.0,-0.0004,0.0,0.0004,0.0,0.0,0.0004,0.0,0.0,-0.0004,0.0,0.0,0.0004,0.0
T,2026-06-01 23:25:00,23,25,190.52,47.76,0.398,0.0,2,38.71,100,3,0,1.3,sunny,1,1,0.0,0.0004,-0.0004,-0.0004,overestimate,-1.3366,0.0,-0.0004,0.0,0.0004,0.0,0.0,0.0004,0.0,0.0,-0.0004,0.0,0.0,0.0004,0.0
T,2026-06-01 23:30:00,23,30,244.9,45.53,0.386,0.0,2,33.38,100,3,0,1.3,rainy,1,1,0.0,0.0025,-0.0025,-0.0025,overestimate,0.7432,0.7457,-0.0025,-0.7457,0.0025,0.7457,1.8913,0.0025,0.7457,-1.8913,-0.0025,-0.7457,1.8913,0.0025,0.7457
T,2026-06-01 23:35:00,23,35,248.58,42.18,0.464,0.0,4,30.76,100,3,0,1.3,rainy,1,1,0.0,0.1472,-0.1472,-0.1472,overestimate,1.4417,1.5889,-0.1472,-1.5889,0.1472,1.5889,6.2508,0.1472,1.5889,-6.2508,-0.1472,-1.5889,6.2508,0.1472,1.5889
T,2026-06-01 23:40:00,23,40,188.15,44.82,0.372,0.0,3,39.47,100,3,0,1.3,sunny,1,1,0.0,0.0004,-0.0004,-0.0004,overestimate,-1.487,0.0,-0.0004,0.0,0.0004,0.0,0.0,0.0004,0.0,0.0,-0.0004,0.0,0.0,0.0004,0.0
T,2026-06-01 23:45:00,23,45,217.98,48.83,0.397,0.0,1,42.39,100,3,0,1.3,sunny,1,1,0.0,0.0004,-0.0004,-0.0004,overestimate,-1.3265,0.0,-0.0004,0.0,0.0004,0.0,0.0,0.0004,0.0,0.0,-0.0004,0.0,0.0,0.0004,0.0
T,2026-06-01 23:50:00,23,50,244.64,44.84,0.42,0.0,2,33.78,100,3,0,1.3,rainy,1,1,0.0,0.0025,-0.0025,-0.0025,overestimate,0.747,0.7495,-0.0025,-0.7495,0.0025,0.7495,2.8012,0.0025,0.7495,-2.8012,-0.0025,-0.7495,2.8012,0.0025,0.7495
T,2026-06-01 23:55:00,23,55,196.3,42.97,0.405,0.0,4,28.17,100,3,0,1.3,sunny,1,1,0.0,0.0063,-0.0063,-0.0063,overestimate,0.5646,0.5709,-0.0063,-0.5709,0.0063,0.5709,3.5424,0.0063,0.5709,-3.5424,-0.0063,-0.5709,3.5424,0.0063,0.5709
T,2026-06-02 00:00:00,0,0,194.68,46.45,0.385,0.0,2,35.2,100,3,0,1.3,sunny,1,1,0.0,0.0004,-0.0004,-0.0004,overestimate,-0.6856,0.0,-0.0004,0.0,0.0004,0.0,0.0,0.0004,0.0,0.0,-0.0004,0.0,0.0,0.0004,0.0
T,2026-06-02 00:05:00,0,5,211.94,46.18,0.372,0.0,2,30.07,100,3,0,1.3,sunny,1,1,0.0,0.0036,-0.0036,-0.0036,overestimate,0.489,0.4926,-0.0036,-0.4926,0.0036,0.4926,1.1536,0.0036,0.4926,-1.1536,-0.0036,-0.4926,1.1536,0.0036,0.4926
T,2026-06-02 00:10:00,0,10,220.73,43.58,0.443,0.0,2,30.65,100,3,0,1.3,sunny,1,1,0.0,0.0328,-0.0328,-0.0328,overestimate,0.7709,0.8037,-0.0328,-0.8037,0.0328,0.8037,4.0878,0.0328,0.8037,-4.0878,-0.0328,-0.8037,4.0878,0.0328,0.8037
T,2026-06-02 00:15:00,0,15,212.24,47.75,0.414,0.0,4,31.64,100,3,0,1.3,sunny,1,1,0.0,0.0303,-0.0303,-0.0303,overestimate,0.2847,0.315,-0.0303,-0.315,0.0303,0.315,0.6894,0.0303,0.315,-0.6894,-0.0303,-0.315,0.6894,0.0303,0.315
T,2026-06-02 00:20:00,0,20,207.5,45.87,0.353,0.0,4,32.45,100,3,0,1.3,sunny,1,1,0.0,0.0022,-0.0022,-0.0022,overestimate,-0.0086,0.0,-0.0022,0.0,0.0022,0.0,0.0,0.0022,0.0,0.0,-0.0022,0.0,0.0,0.0022,0.0
T,2026-06-02 00:25:00,0,25,235.97,44.44,0.473,0.0,4,35.33,100,3,0,1.3,rainy,1,1,0.0,0.0035,-0.0035,-0.0035,overestimate,0.4079,0.4114,-0.0035,-0.4114,0.0035,0.4114,3.2465,0.0035,0.4114,-3.2465,-0.0035,-0.4114,3.2465,0.0035,0.4114
T,2026-06-02 00:30:00,0,30,256.79,38.85,0.479,0.0,2,33.77,100,3,0,1.3,sunny,1,1,0.0,0.0006,-0.0006,-0.0006,overestimate,1.2518,1.2524,-0.0006,-1.2524,0.0006,1.2524,7.5588,0.0006,1.2524,-7.5588,-0.0006,-1.2524,7.5588,0.0006,1.2524
T,2026-06-02 00:35:00,0,35,260.95,36.74,0.44,0.0,3,32.12,100,3,0,1.3,rainy,1,1,0.0,0.041,-0.041,-0.041,overestimate,1.5852,1.6262,-0.041,-1.6262,0.041,1.6262,8.5576,0.041,1.6262,-8.5576,-0.041,-1.6262,8.5576,0.041,1.6262
T,2026-06-02 00:40:00,0,40,232.5,42.85,0.406,0.0,2,23.48,100,3,0,1.3,cloudy,1,1,0.0,0.257,-0.257,-0.257,overestimate,2.1131,2.3701,-0.257,-2.3701,0.257,2.3701,6.58,0.257,2.3701,-6.58,-0.257,-2.3701,6.58,0.257,2.3701
T,2026-06-02 00:45:00,0,45,183.27,47.32,0.371,0.0,1,35.25,100,3,0,1.3,sunny,1,1,0.0,0.0004,-0.0004,-0.0004,overestimate,-0.991,0.0,-0.0004,0.0,0.0004,0.0,0.0,0.0004,0.0,0.0,-0.0004,0.0,0.0,0.0004,0.0
T,2026-06-02 00:50:00,0,50,199.3,43.19,0.327,0.0,2,27.09,100,3,0,1.3,sunny,1,1,0.0,0.0122,-0.0122,-0.0122,overestimate,0.6655,0.6777,-0.0122,-0.6777,0.0122,0.6777,2.3016,0.0122,0.6777,-2.3016,-0.0122,-0.6777,2.3016,0.0122,0.6777
T,2026-06-02 00:55:00,0,55,196.47,41.52,0.349,0.0,1,31.36,100,3,0,1.3,cloudy,1,1,0.0,0.0653,-0.0653,-0.0653,overestimate,0.0063,0.0716,-0.0653,-0.0716,0.0653,0.0716,2.0566,0.0653,0.0716,-2.0566,-0.0653,-0.0716,2.0566,0.0653,0.0716
T,2026-06-02 01:00:00,1,0,238.2,45.24,0.443,0.0,3,37.46,100,3,0,1.3,sunny,1,1,0.0,0.0004,-0.0004,-0.0004,overestimate,0.0554,0.0558,-0.0004,-0.0558,0.0004,0.0558,1.5767,0.0004,0.0558,-1.5767,-0.0004,-0.0558,1.5767,0.0004,0.0558
T,2026-06-02 01:05:00,1,5,264.6,40.98,0.49,0.0,1,29.54,100,3,0,1.3,rainy,1,1,0.0,0.4718,-0.4718,-0.4718,overestimate,2.061,2.5328,-0.4718,-2.5328,0.4718,2.5328,8.421,0.4718,2.5328,-8.421,-0.4718,-2.5328,8.421,0.4718,2.5328
T,2026-06-02 01:10:00,1,10,221.24,39.12,0.374,0.0,3,33.25,100,3,0,1.3,sunny,1,1,0.0,0.0004,-0.0004,-0.0004,overestimate,0.3579,0.3583,-0.0004,-0.3583,0.0004,0.3583,4.0957,0.0004,0.3583,-4.0957,-0.0004,-0.3583,4.0957,0.0004,0.3583
T,2026-06-02 01:15:00,1,15,242.05,42.24,0.434,0.0,3,42.14,100,3,0,1.3,rainy,1,1,0.0,0.0025,-0.0025,-0.0025,overestimate,-0.5415,0.0,-0.0025,0.0,0.0025,0.0,1.4889,0.0025,0.0,-1.4889,-0.0025,0.0,1.4889,0.0025,0.0
T,2026-06-02 01:20:00,1,20,199.86,44.66,0.373,0.0,1,32.26,100,3,0,1.3,cloudy,1,1,0.0,0.0172,-0.0172,-0.0172,overestimate,-0.0889,0.0,-0.0172,0.0,0.0172,0.0,0.7576,0.0172,0.0,-0.7576,-0.0172,0.0,0.7576,0.0172,0.0
T,2026-06-02 01:25:00,1,25,253.3,46.36,0.459,0.0,3,37.78,100,3,0,1.3,rainy,1,1,0.0,0.0025,-0.0025,-0.0025,overestimate,0.3441,0.3466,-0.0025,-0.3466,0.0025,0.3466,1.7895,0.0025,0.3466,-1.7895,-0.0025,-0.3466,1.7895,0.0025,0.3466
T,2026-06-02 01:30:00,1,30,217.71,38.58,0.481,0.0,2,37.49,100,3,0,1.3,sunny,1,1,0.0,0.0006,-0.0006,-0.0006,overestimate,-0.195,0.0,-0.0006,0.0,0.0006,0.0,5.0051,0.0006,0.0,-5.0051,-0.0006,0.0,5.0051,0.0006,0.0
T,2026-06-02 01:35:00,1,35,245.79,41.58,0.463,0.0,2,38.43,100,3,0,1.3,cloudy,1,1,0.0,0.0004,-0.0004,-0.0004,overestimate,0.1875,0.1879,-0.0004,-0.1879,0.0004,0.1879,3.8275,0.0004,0.1879,-3.8275,-0.0004,-0.1879,3.8275,0.0004,0.1879
T,2026-06-02 01:40:00,1,40,219.16,44.69,0.371,0.0,2,35.96,100,3,0,1.3,cloudy,1,1,0.0,0.0004,-0.0004,-0.0004,overestimate,-0.2427,0.0,-0.0004,0.0,0.0004,0.0,0.1695,0.0004,0.0,-0.1695,-0.0004,0.0,0.1695,0.0004,0.0
T,2026-06-02 01:45:00,1,45,203.27,44.2,0.377,0.0,1,47.81,100,3,0,1.3,sunny,1,1,0.0,0.0004,-0.0004,-0.0004,overestimate,-2.436,0.0,-0.0004,0.0,0.0004,0.0,0.0,0.0004,0.0,0.0,-0.0004,0.0,0.0,0.0004,0.0
T,2026-06-02 01:50:00,1,50,254.79,42.67,0.482,0.0,2,27.36,100,3,0,1.3,cloudy,1,1,0.74,0.4008,0.3392,0.3392,underestimate,2.1331,2.5339,0.3392,-1.7939,0.3392,1.7939,7.7586,0.4008,2.5339,-7.0186,0.3392,-1.7939,7.0186,0.3392,1.7939
T,2026-06-02 01:55:00,1,55,182.67,43.55,0.392,0.74,1,34.08,100,3,0,1.3,sunny,1,1,0.0,0.0074,-0.0074,-0.0074,overestimate,-0.5271,0.0,-0.0074,0.0,0.0074,0.0,0.7524,0.0074,0.0,-0.7524,-0.0074,0.0,0.7524,0.0074,0.0
T,2026-06-02 02:00:00,2,0,227.54,41.88,0.427,0.0,1,31.47,100,3,0,1.3,cloudy,1,1,0.0,0.066,-0.066,-0.066,overestimate,0.8053,0.8713,-0.066,-0.8713,0.066,0.8713,4.61,0.066,0.8713,-4.61,-0.066,-0.8713,4.61,0.066,0.8713
T,2026-06-02 02:05:00,2,5,263.55,40.85,0.437,0.0,2,26.83,100,3,0,1.3,rainy,1,1,0.0,0.4532,-0.4532,-0.4532,overestimate,2.3769,2.8301,-0.4532,-2.8301,0.4532,2.8301,8.277,0.4532,2.8301,-8.277,-0.4532,-2.8301,8.277,0.4532,2.8301
T,2026-06-02 02:10:00,2,10,221.32,43.85,0.433,0.0,3,32.88,100,3,0,1.3,sunny,1,1,0.0,0.0022,-0.0022,-0.0022,overestimate,0.4114,0.4136,-0.0022,-0.4136,0.0022,0.4136,3.0072,0.0022,0.4136,-3.0072,-0.0022,-0.4136,3.0072,0.0022,0.4136
T,2026-06-02 02:15:00,2,15,189.59,42.3,0.346,0.0,3,35.26,100,3,0,1.3,sunny,1,1,0.0,0.0004,-0.0004,-0.0004,overestimate,-0.7817,0.0,-0.0004,0.0,0.0004,0.0,0.0095,0.0004,0.0,-0.0095,-0.0004,0.0,0.0095,0.0004,0.0
T,2026-06-02 02:20:00,2,20,204.47,49.5,0.386,0.0,2,33.65,100,3,0,1.3,sunny,1,1,0.0,0.0004,-0.0004,-0.0004,overestimate,-0.2899,0.0,-0.0004,0.0,0.0004,0.0,0.0,0.0004,0.0,0.0,-0.0004,0.0,0.0,0.0004,0.0
T,2026-06-02 02:25:00,2,25,202.13,45.43,0.408,0.0,3,34.64,100,3,0,1.3,cloudy,1,1,0.0,0.0004,-0.0004,-0.0004,overestimate,-0.3702,0.0,-0.0004,0.0,0.0004,0.0,0.3595,0.0004,0.0,-0.3595,-0.0004,0.0,0.3595,0.0004,0.0
T,2026-06-02 02:30:00,2,30,194.89,45.49,0.386,0.0,1,21.08,100,3,0,1.3,sunny,1,1,4.16,0.245,3.915,3.915,underestimate,1.5579,1.8029,3.915,2.3571,3.915,2.3571,4.2109,0.245,1.8029,-0.0509,3.915,2.3571,0.0509,3.915,2.3571
T,2026-06-02 02:35:00,2,35,194.41,42.78,0.363,4.16,2,28.21,100,3,0,1.3,sunny,1,1,0.0,5.0191,-5.0191,-5.0191,overestimate,1.4316,6.4507,-5.0191,-6.4507,5.0191,6.4507,4.3605,5.0191,6.4507,-4.3605,-5.0191,-6.4507,4.3605,5.0191,6.4507
T,2026-06-02 02:40:00,2,40,208.4,46.79,0.417,0.0,3,34.01,100,3,0,1.3,cloudy,1,1,0.0,0.0004,-0.0004,-0.0004,overestimate,-0.1465,0.0,-0.0004,0.0,0.0004,0.0,0.2952,0.0004,0.0,-0.2952,-0.0004,0.0,0.2952,0.0004,0.0
T,2026-06-02 02:45:00,2,45,178.55,46.72,0.395,0.0,3,38.28,100,3,0,1.3,sunny,1,1,0.0,0.0004,-0.0004,-0.0004,overestimate,-1.5183,0.0,-0.0004,0.0,0.0004,0.0,0.0,0.0004,0.0,0.0,-0.0004,0.0,0.0,0.0004,0.0
T,2026-06-02 02:50:00,2,50,208.86,38.69,0.444,0.0,2,35.58,100,3,0,1.3,sunny,1,1,0.0,0.0004,-0.0004,-0.0004,overestimate,-0.1573,0.0,-0.0004,0.0,0.0004,0.0,4.5022,0.0004,0.0,-4.5022,-0.0004,0.0,4.5022,0.0004,0.0
T,2026-06-02 02:55:00,2,55,215.24,43.83,0.509,0.0,3,37.77,100,3,0,1.3,sunny,1,1,0.0,0.0018,-0.0018,-0.0018,overestimate,-0.3639,0.0,-0.0018,0.0,0.0018,0.0,2.6935,0.0018,0.0,-2.6935,-0.0018,0.0,2.6935,0.0018,0.0
T,2026-06-02 03:00:00,3,0,247.18,44.74,0.388,0.0,2,36.38,100,3,0,1.3,rainy,1,1,0.0,0.0025,-0.0025,-0.0025,overestimate,0.3443,0.3468,-0.0025,-0.3468,0.0025,0.3468,1.4052,0.0025,0.3468,-1.4052,-0.0025,-0.3468,1.4052,0.0025,0.3468
T,2026-06-02 03:05:00,3,5,200.18,44.07,0.398,0.0,2,31.17,100,3,0,1.3,sunny,1,1,0.0,0.0633,-0.0633,-0.0633,overestimate,0.1443,0.2076,-0.0633,-0.2076,0.0633,0.2076,1.9588,0.0633,0.2076,-1.9588,-0.0633,-0.2076,1.9588,0.0633,0.2076
T,2026-06-02 03:10:00,3,10,215.92,40.91,0.431,0.0,4,33.92,100,3,0,1.3,cloudy,1,1,0.0,0.0004,-0.0004,-0.0004,overestimate,0.1897,0.1901,-0.0004,-0.1901,0.0004,0.1901,3.9219,0.0004,0.1901,-3.9219,-0.0004,-0.1901,3.9219,0.0004,0.1901
T,2026-06-02 03:15:00,3,15,197.42,40.23,0.394,0.0,2,48.05,100,3,0,1.3,sunny,1,1,0.0,0.0004,-0.0004,-0.0004,overestimate,-2.4875,0.0,-0.0004,0.0,0.0004,0.0,0.0,0.0004,0.0,0.0,-0.0004,0.0,0.0,0.0004,0.0
T,2026-06-02 03:20:00,3,20,202.54,47.7,0.383,0.0,2,29.47,100,3,0,1.3,cloudy,1,1,0.0,0.0291,-0.0291,-0.0291,overestimate,0.3579,0.387,-0.0291,-0.387,0.0291,0.387,0.4488,0.0291,0.387,-0.4488,-0.0291,-0.387,0.4488,0.0291,0.387
T,2026-06-02 03:25:00,3,25,169.15,46.76,0.326,0.0,2,33.15,100,3,0,1.3,sunny,1,1,0.0,0.0006,-0.0006,-0.0006,overestimate,-1.0396,0.0,-0.0006,0.0,0.0006,0.0,0.0,0.0006,0.0,0.0,-0.0006,0.0,0.0,0.0006,0.0
T,2026-06-02 03:30:00,3,30,170.02,44.99,0.363,0.0,4,39.39,100,3,0,1.3,sunny,1,1,0.0,0.0004,-0.0004,-0.0004,overestimate,-1.898,0.0,-0.0004,0.0,0.0004,0.0,0.0,0.0004,0.0,0.0,-0.0004,0.0,0.0,0.0004,0.0
T,2026-06-02 03:35:00,3,35,249.37,39.38,0.433,0.0,2,35.79,100,3,0,1.3,rainy,1,1,0.0,0.0025,-0.0025,-0.0025,overestimate,0.6803,0.6828,-0.0025,-0.6828,0.0025,0.6828,5.3727,0.0025,0.6828,-5.3727,-0.0025,-0.6828,5.3727,0.0025,0.6828
T,2026-06-02 03:40:00,3,40,170.61,43.57,0.337,0.0,3,36.42,100,3,0,1.3,sunny,1,1,0.0,0.0004,-0.0004,-0.0004,overestimate,-1.4308,0.0,-0.0004,0.0,0.0004,0.0,0.0,0.0004,0.0,0.0,-0.0004,0.0,0.0,0.0004,0.0
T,2026-06-02 03:45:00,3,45,210.78,43.17,0.378,0.0,3,38.9,100,3,0,1.3,sunny,1,1,0.0,0.0004,-0.0004,-0.0004,overestimate,-0.8456,0.0,-0.0004,0.0,0.0004,0.0,0.0,0.0004,0.0,0.0,-0.0004,0.0,0.0,0.0004,0.0
T,2026-06-02 03:50:00,3,50,206.96,43.75,0.408,0.0,4,34.81,100,3,0,1.3,sunny,1,1,0.0,0.0004,-0.0004,-0.0004,overestimate,-0.2517,0.0,-0.0004,0.0,0.0004,0.0,1.3475,0.0004,0.0,-1.3475,-0.0004,0.0,1.3475,0.0004,0.0
T,2026-06-02 03:55:00,3,55,217.23,41.6,0.441,0.0,2,41.52,100,3,0,1.3,cloudy,1,1,0.0,0.0004,-0.0004,-0.0004,overestimate,-0.9723,0.0,-0.0004,0.0,0.0004,0.0,1.2397,0.0004,0.0,-1.2397,-0.0004,0.0,1.2397,0.0004,0.0
T,2026-06-02 04:00:00,4,0,194.02,39.89,0.451,0.0,4,40.29,100,3,0,1.3,sunny,1,1,0.0,0.0004,-0.0004,-0.0004,overestimate,-1.2427,0.0,-0.0004,0.0,0.0004,0.0,1.8705,0.0004,0.0,-1.8705,-0.0004,0.0,1.8705,0.0004,0.0
T,2026-06-02 04:05:00,4,5,196.22,50.34,0.394,0.0,4,29.87,100,3,0,1.3,sunny,1,1,0.0,0.0171,-0.0171,-0.0171,overestimate,0.1138,0.1309,-0.0171,-0.1309,0.0171,0.1309,0.0,0.0171,0.1309,0.0,-0.0171,-0.1309,0.0,0.0171,0.1309
T,2026-06-02 04:10:00,4,10,201.9,46.05,0.393,0.0,2,29.3,100,3,0,1.3,sunny,1,1,0.0,0.0062,-0.0062,-0.0062,overestimate,0.4237,0.4299,-0.0062,-0.4299,0.0062,0.4299,1.5374,0.0062,0.4299,-1.5374,-0.0062,-0.4299,1.5374,0.0062,0.4299
T,2026-06-02 04:15:00,4,15,208.35,42.15,0.378,0.0,4,32.49,100,3,0,1.3,sunny,1,1,0.0,0.0022,-0.0022,-0.0022,overestimate,0.1287,0.1309,-0.0022,-0.1309,0.0022,0.1309,2.393,0.0022,0.1309,-2.393,-0.0022,-0.1309,2.393,0.0022,0.1309
T,2026-06-02 04:20:00,4,20,221.42,44.18,0.4,0.0,1,33.65,100,3,0,1.3,sunny,1,1,0.0,0.0004,-0.0004,-0.0004,overestimate,0.2302,0.2306,-0.0004,-0.2306,0.0004,0.2306,1.8995,0.0004,0.2306,-1.8995,-0.0004,-0.2306,1.8995,0.0004,0.2306
T,2026-06-02 04:25:00,4,25,257.32,36.79,0.445,0.0,2,38.57,100,3,0,1.3,cloudy,1,1,0.0,0.0004,-0.0004,-0.0004,overestimate,0.4992,0.4996,-0.0004,-0.4996,0.0004,0.4996,6.3066,0.0004,0.4996,-6.3066,-0.0004,-0.4996,6.3066,0.0004,0.4996
T,2026-06-02 04:30:00,4,30,201.6,43.79,0.38,0.0,4,32.64,100,3,0,1.3,sunny,1,1,0.0,0.0022,-0.0022,-0.0022,overestimate,-0.0786,0.0,-0.0022,0.0,0.0022,0.0,1.2857,0.0022,0.0,-1.2857,-0.0022,0.0,1.2857,0.0022,0.0
T,2026-06-02 04:35:00,4,35,233.24,38.55,0.403,0.0,3,32.42,100,3,0,1.3,sunny,1,1,0.0,0.0046,-0.0046,-0.0046,overestimate,0.8173,0.8219,-0.0046,-0.8219,0.0046,0.8219,5.7199,0.0046,0.8219,-5.7199,-0.0046,-0.8219,5.7199,0.0046,0.8219
T,2026-06-02 04:40:00,4,40,238.24,38.97,0.48,0.0,3,39.7,100,3,0,1.3,cloudy,1,1,0.0,0.0006,-0.0006,-0.0006,overestimate,-0.0939,0.0,-0.0006,0.0,0.0006,0.0,4.8049,0.0006,0.0,-4.8049,-0.0006,0.0,4.8049,0.0006,0.0
T,2026-06-02 04:45:00,4,45,257.3,43.98,0.49,0.0,2,37.61,100,3,0,1.3,rainy,1,1,0.0,0.0035,-0.0035,-0.0035,overestimate,0.565,0.5685,-0.0035,-0.5685,0.0035,0.5685,3.8609,0.0035,0.5685,-3.8609,-0.0035,-0.5685,3.8609,0.0035,0.5685
T,2026-06-02 04:50:00,4,50,217.67,40.53,0.442,0.0,2,34.12,100,3,0,1.3,cloudy,1,1,0.0,0.0004,-0.0004,-0.0004,overestimate,0.2242,0.2246,-0.0004,-0.2246,0.0004,0.2246,4.3419,0.0004,0.2246,-4.3419,-0.0004,-0.2246,4.3419,0.0004,0.2246
T,2026-06-02 04:55:00,4,55,233.11,44.8,0.468,0.0,3,29.4,100,3,0,1.3,rainy,1,1,0.0,0.0692,-0.0692,-0.0692,overestimate,1.2582,1.3274,-0.0692,-1.3274,0.0692,1.3274,4.8658,0.0692,1.3274,-4.8658,-0.0692,-1.3274,4.8658,0.0692,1.3274
T,2026-06-02 05:00:00,5,0,213.48,42.69,0.42,0.0,4,37.58,100,3,0,1.3,sunny,1,1,0.0,0.0004,-0.0004,-0.0004,overestimate,-0.4972,0.0,-0.0004,0.0,0.0004,0.0,1.444,0.0004,0.0,-1.444,-0.0004,0.0,1.444,0.0004,0.0
T,2026-06-02 05:05:00,5,5,205.09,45.99,0.406,0.0,2,36.61,100,3,0,1.3,cloudy,1,1,0.0,0.0004,-0.0004,-0.0004,overestimate,-0.6291,0.0,-0.0004,0.0,0.0004,0.0,0.0,0.0004,0.0,0.0,-0.0004,0.0,0.0,0.0004,0.0
T,2026-06-02 05:10:00,5,10,211.44,48.34,0.364,0.0,4,35.93,100,3,0,1.3,cloudy,1,1,0.0,0.0004,-0.0004,-0.0004,overestimate,-0.5032,0.0,-0.0004,0.0,0.0004,0.0,0.0,0.0004,0.0,0.0,-0.0004,0.0,0.0,0.0004,0.0
T,2026-06-02 05:15:00,5,15,213.3,42.67,0.469,0.0,3,29.72,100,3,0,1.3,sunny,1,1,0.0,0.0707,-0.0707,-0.0707,overestimate,0.8148,0.8855,-0.0707,-0.8855,0.0707,0.8855,5.1284,0.0707,0.8855,-5.1284,-0.0707,-0.8855,5.1284,0.0707,0.8855
T,2026-06-02 05:20:00,5,20,212.14,44.2,0.398,0.0,1,30.68,100,3,0,1.3,sunny,1,1,0.0,0.0112,-0.0112,-0.0112,overestimate,0.4853,0.4965,-0.0112,-0.4965,0.0112,0.4965,2.5082,0.0112,0.4965,-2.5082,-0.0112,-0.4965,2.5082,0.0112,0.4965
T,2026-06-02 05:25:00,5,25,206.1,40.81,0.379,0.0,2,32.25,100,3,0,1.3,sunny,1,1,0.0,0.0159,-0.0159,-0.0159,overestimate,0.1476,0.1635,-0.0159,-0.1635,0.0159,0.1635,3.0998,0.0159,0.1635,-3.0998,-0.0159,-0.1635,3.0998,0.0159,0.1635
T,2026-06-02 05:30:00,5,30,198.98,41.4,0.389,0.0,4,35.02,100,3,0,1.3,sunny,1,1,0.0,0.0004,-0.0004,-0.0004,overestimate,-0.4424,0.0,-0.0004,0.0,0.0004,0.0,1.7933,0.0004,0.0,-1.7933,-0.0004,0.0,1.7933,0.0004,0.0
T,2026-06-02 05:35:00,5,35,217.31,41.36,0.426,0.0,4,40.79,100,3,0,1.3,cloudy,1,1,0.0,0.0004,-0.0004,-0.0004,overestimate,-0.8758,0.0,-0.0004,0.0,0.0004,0.0,1.305,0.0004,0.0,-1.305,-0.0004,0.0,1.305,0.0004,0.0
T,2026-06-02 05:40:00,5,40,247.37,41.19,0.453,0.0,3,38.32,100,3,0,1.3,rainy,1,1,0.0,0.0025,-0.0025,-0.0025,overestimate,0.2319,0.2344,-0.0025,-0.2344,0.0025,0.2344,3.9188,0.0025,0.2344,-3.9188,-0.0025,-0.2344,3.9188,0.0025,0.2344
T,2026-06-02 05:45:00,5,45,266.68,48.36,0.426,0.0,2,41.6,100,3,0,1.3,rainy,1,1,0.0,0.0025,-0.0025,-0.0025,overestimate,-0.0564,0.0,-0.0025,0.0,0.0025,0.0,0.0,0.0025,0.0,0.0,-0.0025,0.0,0.0,0.0025,0.0
T,2026-06-02 05:50:00,5,50,188.06,46.33,0.366,0.0,4,28.44,100,3,0,1.3,sunny,1,1,0.0,0.0097,-0.0097,-0.0097,overestimate,0.1983,0.208,-0.0097,-0.208,0.0097,0.208,0.6086,0.0097,0.208,-0.6086,-0.0097,-0.208,0.6086,0.0097,0.208
T,2026-06-02 05:55:00,5,55,225.17,52.33,0.429,0.0,2,35.01,100,3,0,1.3,sunny,1,1,0.0,0.0004,-0.0004,-0.0004,overestimate,-0.0321,0.0,-0.0004,0.0,0.0004,0.0,0.0,0.0004,0.0,0.0,-0.0004,0.0,0.0,0.0004,0.0
T,2026-06-02 06:00:00,6,0,212.43,47.98,0.41,0.0,2,36.5,100,3,0,1.3,sunny,1,1,0.0,0.0004,-0.0004,-0.0004,overestimate,-0.4855,0.0,-0.0004,0.0,0.0004,0.0,0.0,0.0004,0.0,0.0,-0.0004,0.0,0.0,0.0004,0.0
T,2026-06-02 06:05:00,6,5,206.17,47.07,0.378,0.0,1,37.15,100,3,0,1.3,cloudy,1,1,0.0,0.0004,-0.0004,-0.0004,overestimate,-0.7606,0.0,-0.0004,0.0,0.0004,0.0,0.0,0.0004,0.0,0.0,-0.0004,0.0,0.0,0.0004,0.0
T,2026-06-02 06:10:00,6,10,232.28,38.19,0.371,0.0,2,32.41,100,3,0,1.3,sunny,1,1,0.0,0.0113,-0.0113,-0.0113,overestimate,0.7518,0.7631,-0.0113,-0.7631,0.0113,0.7631,5.2129,0.0113,0.7631,-5.2129,-0.0113,-0.7631,5.2129,0.0113,0.7631
T,2026-06-02 06:15:00,6,15,235.64,42.13,0.425,0.0,2,40.79,100,3,0,1.3,sunny,1,1,0.0,0.0004,-0.0004,-0.0004,overestimate,-0.4854,0.0,-0.0004,0.0,0.0004,0.0,1.5777,0.0004,0.0,-1.5777,-0.0004,0.0,1.5777,0.0004,0.0
T,2026-06-02 06:20:00,6,20,184.16,42.71,0.384,0.0,2,33.49,100,3,0,1.3,sunny,1,1,0.0,0.0004,-0.0004,-0.0004,overestimate,-0.5706,0.0,-0.0004,0.0,0.0004,0.0,0.979,0.0004,0.0,-0.979,-0.0004,0.0,0.979,0.0004,0.0
T,2026-06-02 06:25:00,6,25,174.69,43.59,0.318,0.0,3,32.77,100,3,0,1.3,sunny,1,1,0.0,0.0022,-0.0022,-0.0022,overestimate,-0.7992,0.0,-0.0022,0.0,0.0022,0.0,0.0,0.0022,0.0,0.0,-0.0022,0.0,0.0,0.0022,0.0
T,2026-06-02 06:30:00,6,30,213.21,43.25,0.397,0.0,4,36.5,100,3,0,1.3,sunny,1,1,0.0,0.0004,-0.0004,-0.0004,overestimate,-0.3847,0.0,-0.0004,0.0,0.0004,0.0,1.0388,0.0004,0.0,-1.0388,-0.0004,0.0,1.0388,0.0004,0.0
T,2026-06-02 06:35:00,6,35,261.9,39.15,0.473,0.0,2,25.38,100,3,0,1.3,rainy,1,1,0.0,0.5625,-0.5625,-0.5625,overestimate,2.6657,3.2282,-0.5625,-3.2282,0.5625,3.2282,10.3241,0.5625,3.2282,-10.3241,-0.5625,-3.2282,10.3241,0.5625,3.2282
T,2026-06-02 06:40:00,6,40,195.64,46.45,0.349,0.0,2,37.29,100,3,0,1.3,sunny,1,1,0.0,0.0004,-0.0004,-0.0004,overestimate,-1.0524,0.0,-0.0004,0.0,0.0004,0.0,0.0,0.0004,0.0,0.0,-0.0004,0.0,0.0,0.0004,0.0
T,2026-06-02 06:45:00,6,45,202.83,45.55,0.366,0.0,3,24.66,100,3,0,1.3,sunny,1,1,0.0,0.2054,-0.2054,-0.2054,overestimate,1.1385,1.3439,-0.2054,-1.3439,0.2054,1.3439,2.8499,0.2054,1.3439,-2.8499,-0.2054,-1.3439,2.8499,0.2054,1.3439
T,2026-06-02 06:50:00,6,50,256.2,37.35,0.496,0.0,1,28.63,100,3,0,1.3,sunny,1,1,0.0,0.5769,-0.5769,-0.5769,overestimate,2.107,2.6839,-0.5769,-2.6839,0.5769,2.6839,10.4053,0.5769,2.6839,-10.4053,-0.5769,-2.6839,10.4053,0.5769,2.6839
T,2026-06-02 06:55:00,6,55,226.37,48.59,0.414,0.0,4,39.81,100,3,0,1.3,rainy,1,1,0.0,0.0025,-0.0025,-0.0025,overestimate,-0.7006,0.0,-0.0025,0.0,0.0025,0.0,0.0,0.0025,0.0,0.0,-0.0025,0.0,0.0,0.0025,0.0
T,2026-06-02 07:00:00,7,0,792.88,29.32,0.98,0.0,1,46.17,100,3,1,1.3,cloudy,1,1,25.84,10.6497,15.1903,15.1903,underestimate,23.461,34.1107,15.1903,-8.2707,15.1903,8.2707,55.8541,10.6497,34.1107,-30.0141,15.1903,-8.2707,30.0141,15.1903,8.2707
T,2026-06-02 07:05:00,7,5,937.95,14.7,0.98,25.84,3,43.82,100,3,1,1.3,rainy,1,1,58.09,38.8902,19.1998,19.1998,underestimate,33.4907,72.3809,19.1998,-14.2909,19.1998,14.2909,80.006,38.8902,72.3809,-21.916,19.1998,-14.2909,21.916,19.1998,14.2909
T,2026-06-02 07:10:00,7,10,762.86,5.0,0.98,58.09,1,41.66,100,3,1,1.3,sunny,1,1,70.62,56.45,14.17,14.17,underestimate,37.7465,94.1965,14.17,-23.5765,14.17,23.5765,92.0961,56.45,94.1965,-21.4761,14.17,-23.5765,21.4761,14.17,23.5765
T,2026-06-02 07:15:00,7,15,772.81,5.0,0.98,70.62,1,49.06,100,3,1,1.3,cloudy,1,1,76.18,58.582,17.598,17.598,underestimate,39.764,98.346,17.598,-22.166,17.598,22.166,94.9875,58.582,98.346,-18.8075,17.598,-22.166,18.8075,17.598,22.166
T,2026-06-02 07:20:00,7,20,730.04,5.0,0.98,76.18,3,38.74,100,3,1,1.3,sunny,1,1,86.78,67.9154,18.8646,18.8646,underestimate,41.7407,109.6561,18.8646,-22.8761,18.8646,22.8761,99.1187,67.9154,109.6561,-12.3387,18.8646,-22.8761,12.3387,18.8646,22.8761
T,2026-06-02 07:25:00,7,25,710.48,5.0,0.98,86.78,2,42.34,100,3,1,1.3,sunny,1,1,86.95,63.5495,23.4005,23.4005,underestimate,43.2403,106.7898,23.4005,-19.8398,23.4005,19.8398,101.4166,63.5495,106.7898,-14.4666,23.4005,-19.8398,14.4666,23.4005,19.8398
T,2026-06-02 07:30:00,7,30,758.54,5.0,0.98,86.95,1,45.04,100,3,1,1.3,sunny,1,1,88.67,63.4883,25.1817,25.1817,underestimate,43.9296,107.4179,25.1817,-18.7479,25.1817,18.7479,102.3747,63.4883,107.4179,-13.7047,25.1817,-18.7479,13.7047,25.1817,18.7479
T,2026-06-02 07:35:00,7,35,766.57,5.0,0.98,88.67,3,45.5,100,3,1,1.3,sunny,1,1,97.24,63.3387,33.9013,33.9013,underestimate,44.4426,107.7813,33.9013,-10.5413,33.9013,10.5413,103.2111,63.3387,107.7813,-5.9711,33.9013,-10.5413,5.9711,33.9013,10.5413
T,2026-06-02 07:40:00,7,40,785.39,5.0,0.98,97.24,4,40.08,100,3,1,1.3,sunny,1,1,101.83,67.4709,34.3591,34.3591,underestimate,47.7355,115.2064,34.3591,-13.3764,34.3591,13.3764,109.2023,67.4709,115.2064,-7.3723,34.3591,-13.3764,7.3723,34.3591,13.3764
T,2026-06-02 07:45:00,7,45,903.31,5.0,0.98,101.83,1,48.46,100,3,1,1.3,rainy,1,1,107.45,66.4247,41.0253,41.0253,underestimate,50.136,116.5607,41.0253,-9.1107,41.0253,9.1107,112.6326,66.4247,116.5607,-5.1826,41.0253,-9.1107,5.1826,41.0253,9.1107
T,2026-06-02 07:50:00,7,50,698.62,5.0,0.98,107.45,4,34.91,100,3,1,1.3,sunny,1,1,110.64,66.7791,43.8609,43.8609,underestimate,49.0189,115.798,43.8609,-5.158,43.8609,5.158,111.7961,66.7791,115.798,-1.1561,43.8609,-5.158,1.1561,43.8609,5.158
T,2026-06-02 07:55:00,7,55,749.84,5.0,0.98,110.64,2,46.77,100,3,1,1.3,sunny,1,1,108.38,62.3236,46.0564,46.0564,underestimate,49.054,111.3776,46.0564,-2.9976,46.0564,2.9976,110.9732,62.3236,111.3776,-2.5932,46.0564,-2.9976,2.5932,46.0564,2.9976
T,2026-06-02 08:00:00,8,0,825.9,5.0,0.98,108.38,1,38.35,100,3,1,1.3,cloudy,1,1,110.83,69.4696,41.3604,41.3604,underestimate,51.54,121.0096,41.3604,-10.1796,41.3604,10.1796,115.7874,69.4696,121.0096,-4.9574,41.3604,-10.1796,4.9574,41.3604,10.1796
T,2026-06-02 08:05:00,8,5,946.69,5.0,0.98,110.83,4,41.36,100,3,1,1.3,rainy,1,1,127.31,71.1991,56.1109,56.1109,underestimate,54.3422,125.5413,56.1109,1.7687,56.1109,1.7687,120.2911,71.1991,125.5413,7.0189,56.1109,1.7687,7.0189,56.1109,1.7687
T,2026-06-02 08:10:00,8,10,770.01,5.0,0.98,127.31,3,45.87,100,3,1,1.3,sunny,1,1,124.71,62.9793,61.7307,61.7307,underestimate,53.579,116.5583,61.7307,8.1517,61.7307,8.1517,118.732,62.9793,116.5583,5.978,61.7307,8.1517,5.978,61.7307,8.1517
T,2026-06-02 08:15:00,8,15,738.2,5.0,0.98,124.71,3,53.81,100,3,1,1.3,sunny,1,1,108.15,59.1509,48.9991,48.9991,underestimate,51.0094,110.1603,48.9991,-2.0103,48.9991,2.0103,113.7934,59.1509,110.1603,-5.6434,48.9991,-2.0103,5.6434,48.9991,2.0103
T,2026-06-02 08:20:00,8,20,769.27,5.0,0.98,108.15,3,36.69,100,3,1,1.3,sunny,1,1,111.67,68.3682,43.3018,43.3018,underestimate,50.482,118.8502,43.3018,-7.1802,43.3018,7.1802,114.1294,68.3682,118.8502,-2.4594,43.3018,-7.1802,2.4594,43.3018,7.1802
T,2026-06-02 08:25:00,8,25,742.35,5.0,0.98,111.67,4,35.18,100,3,1,1.3,sunny,1,1,114.08,68.3665,45.7135,45.7135,underestimate,50.9486,119.3151,45.7135,-5.2351,45.7135,5.2351,115.0437,68.3665,119.3151,-0.9637,45.7135,-5.2351,0.9637,45.7135,5.2351
T,2026-06-02 08:30:00,8,30,749.82,5.0,0.98,114.08,2,50.1,100,3,1,1.3,sunny,1,1,104.5,59.4701,45.0299,45.0299,underestimate,49.3427,108.8128,45.0299,-4.3128,45.0299,4.3128,111.2223,59.4701,108.8128,-6.7223,45.0299,-4.3128,6.7223,45.0299,4.3128
T,2026-06-02 08:35:00,8,35,733.4,5.0,0.98,104.5,4,39.9,100,3,1,1.3,sunny,1,1,109.19,67.4706,41.7194,41.7194,underestimate,48.3162,115.7868,41.7194,-6.5968,41.7194,6.5968,110.2238,67.4706,115.7868,-1.0338,41.7194,-6.5968,1.0338,41.7194,6.5968
T,2026-06-02 08:40:00,8,40,742.29,5.0,0.98,109.19,3,41.38,100,3,1,1.3,sunny,1,1,110.7,65.7423,44.9577,44.9577,underestimate,49.3891,115.1314,44.9577,-4.4314,44.9577,4.4314,111.9386,65.7423,115.1314,-1.2386,44.9577,-4.4314,1.2386,44.9577,4.4314
T,2026-06-02 08:45:00,8,45,732.86,5.0,0.98,110.7,2,35.26,100,3,1,1.3,sunny,1,1,119.39,68.3531,51.0369,51.0369,underestimate,50.4953,118.8484,51.0369,0.5416,51.0369,0.5416,114.27,68.3531,118.8484,5.12,51.0369,0.5416,5.12,51.0369,0.5416
T,2026-06-02 08:50:00,8,50,751.83,5.0,0.98,119.39,1,45.7,100,3,1,1.3,sunny,1,1,109.87,62.9445,46.9255,46.9255,underestimate,51.331,114.2755,46.9255,-4.4055,46.9255,4.4055,114.9255,62.9445,114.2755,-5.0555,46.9255,-4.4055,5.0555,46.9255,4.4055
T,2026-06-02 08:55:00,8,55,745.2,5.0,0.98,109.87,2,39.11,100,3,1,1.3,sunny,1,1,111.52,67.8933,43.6267,43.6267,underestimate,49.9707,117.864,43.6267,-6.344,43.6267,6.344,113.0925,67.8933,117.864,-1.5725,43.6267,-6.344,1.5725,43.6267,6.344
T,2026-06-02 09:00:00,9,0,747.66,5.0,0.98,111.52,1,42.57,100,3,1,1.3,sunny,1,1,113.81,65.3427,48.4673,48.4673,underestimate,49.872,115.2147,48.4673,-1.4047,48.4673,1.4047,112.6719,65.3427,115.2147,1.1381,48.4673,-1.4047,1.1381,48.4673,1.4047
T,2026-06-02 09:05:00,9,5,739.3,5.0,0.98,113.81,2,30.31,100,3,1,1.3,sunny,1,1,116.03,68.3733,47.6567,47.6567,underestimate,52.1497,120.523,47.6567,-4.493,47.6567,4.493,117.4433,68.3733,120.523,-1.4133,47.6567,-4.493,1.4133,47.6567,4.493
T,2026-06-02 09:10:00,9,10,791.77,5.0,0.98,116.03,2,49.07,100,3,1,1.3,cloudy,1,1,116.61,61.4027,55.2073,55.2073,underestimate,50.901,112.3037,55.2073,4.3063,55.2073,4.3063,113.933,61.4027,112.3037,2.677,55.2073,4.3063,2.677,55.2073,4.3063
T,2026-06-02 09:15:00,9,15,722.38,5.0,0.98,116.61,3,31.22,100,3,1,1.3,sunny,1,1,122.66,67.8031,54.8569,54.8569,underestimate,52.2898,120.0929,54.8569,2.5671,54.8569,2.5671,117.6222,67.8031,120.0929,5.0378,54.8569,2.5671,5.0378,54.8569,2.5671
T,2026-06-02 09:20:00,9,20,727.44,5.0,0.98,122.66,2,35.5,100,3,1,1.3,sunny,1,1,122.75,68.2616,54.4884,54.4884,underestimate,53.1588,121.4204,54.4884,1.3296,54.4884,1.3296,118.7876,68.2616,121.4204,3.9624,54.4884,1.3296,3.9624,54.4884,1.3296
T,2026-06-02 09:25:00,9,25,721.61,5.0,0.98,122.75,3,47.5,100,3,1,1.3,sunny,1,1,113.02,60.8462,52.1738,52.1738,underestimate,51.1668,112.013,52.1738,1.007,52.1738,1.007,114.5266,60.8462,112.013,-1.5066,52.1738,1.007,1.5066,52.1738,1.007
T,2026-06-02 09:30:00,9,30,792.65,5.0,0.98,113.02,4,42.17,100,3,1,1.3,cloudy,1,1,113.22,66.6136,46.6064,46.6064,underestimate,51.2931,117.9067,46.6064,-4.6867,46.6064,4.6867,115.1021,66.6136,117.9067,-1.8821,46.6064,-4.6867,1.8821,46.6064,4.6867
T,2026-06-02 09:35:00,9,35,814.18,5.0,0.98,113.22,1,44.29,100,3,1,1.3,cloudy,1,1,113.81,65.6573,48.1527,48.1527,underestimate,51.4883,117.1456,48.1527,-3.3356,48.1527,3.3356,115.2717,65.6573,117.1456,-1.4617,48.1527,-3.3356,1.4617,48.1527,3.3356
T,2026-06-02 09:40:00,9,40,726.23,5.0,0.98,113.81,4,38.21,100,3,1,1.3,sunny,1,1,114.28,67.5364,46.7436,46.7436,underestimate,50.6182,118.1546,46.7436,-3.8746,46.7436,3.8746,114.2672,67.5364,118.1546,0.0128,46.7436,-3.8746,0.0128,46.7436,3.8746
T,2026-06-02 09:45:00,9,45,744.41,5.0,0.98,114.28,4,40.76,100,3,1,1.3,sunny,1,1,114.63,66.9396,47.6904,47.6904,underestimate,50.7348,117.6744,47.6904,-3.0444,47.6904,3.0444,114.2731,66.9396,117.6744,0.3569,47.6904,-3.0444,0.3569,47.6904,3.0444
T,2026-06-02 09:50:00,9,50,943.03,5.0,0.98,114.63,3,37.44,100,3,1,1.3,rainy,1,1,131.67,71.947,59.723,59.723,underestimate,55.7724,127.7194,59.723,3.9506,59.723,3.9506,123.0115,71.947,127.7194,8.6585,59.723,3.9506,8.6585,59.723,3.9506
T,2026-06-02 09:55:00,9,55,730.16,5.0,0.98,131.67,1,30.95,100,3,1,1.3,sunny,1,1,136.04,68.3599,67.6801,67.6801,underestimate,56.0595,124.4194,67.6801,11.6206,67.6801,11.6206,124.0544,68.3599,124.4194,11.9856,67.6801,11.6206,11.9856,67.6801,11.6206
T,2026-06-02 10:00:00,10,0,400.14,5.0,0.98,136.04,4,38.09,100,3,0,1.3,sunny,1,1,98.03,57.2112,40.8188,40.8188,underestimate,37.4667,94.6779,40.8188,3.3521,40.8188,3.3521,93.8514,57.2112,94.6779,4.1786,40.8188,3.3521,4.1786,40.8188,3.3521
T,2026-06-02 10:05:00,10,5,388.37,5.0,0.98,98.03,4,40.85,100,3,0,1.3,sunny,1,1,71.64,56.0372,15.6028,15.6028,underestimate,27.8018,83.839,15.6028,-12.199,15.6028,12.199,77.2066,56.0372,83.839,-5.5666,15.6028,-12.199,5.5666,15.6028,12.199
T,2026-06-02 10:10:00,10,10,447.67,5.0,0.98,71.64,1,39.07,100,3,0,1.3,cloudy,1,1,54.62,57.0231,-2.4031,-2.4031,overestimate,23.1777,80.2008,-2.4031,-25.5808,2.4031,25.5808,69.4439,57.0231,80.2008,-14.8239,-2.4031,-25.5808,14.8239,2.4031,25.5808
T,2026-06-02 10:15:00,10,15,432.59,5.0,0.98,54.62,3,34.94,100,3,0,1.3,cloudy,1,1,47.62,46.3347,1.2853,1.2853,underestimate,19.4731,65.8078,1.2853,-18.1878,1.2853,18.1878,63.4452,46.3347,65.8078,-15.8252,1.2853,-18.1878,15.8252,1.2853,18.1878
T,2026-06-02 10:20:00,10,20,401.37,9.43,0.98,47.62,3,36.24,100,3,0,1.3,sunny,1,1,33.07,40.928,-7.858,-7.858,overestimate,16.8218,57.7498,-7.858,-24.6798,7.858,24.6798,56.7394,40.928,57.7498,-23.6694,-7.858,-24.6798,23.6694,7.858,24.6798
T,2026-06-02 10:25:00,10,25,407.4,17.01,0.961,33.07,2,34.11,100,3,0,1.3,sunny,1,1,29.63,27.52,2.11,2.11,underestimate,13.657,41.177,2.11,-11.547,2.11,11.547,47.5562,27.52,41.177,-17.9262,2.11,-11.547,17.9262,2.11,11.547
T,2026-06-02 10:30:00,10,30,447.88,15.74,0.937,29.63,3,23.88,100,3,0,1.3,sunny,1,1,33.72,28.3355,5.3845,5.3845,underestimate,15.3424,43.6779,5.3845,-9.9579,5.3845,9.9579,51.3322,28.3355,43.6779,-17.6122,5.3845,-9.9579,17.6122,5.3845,9.9579
T,2026-06-02 10:35:00,10,35,435.25,18.06,0.915,33.72,3,30.47,100,3,0,1.3,sunny,1,1,33.3,24.8243,8.4757,8.4757,underestimate,14.9029,39.7272,8.4757,-6.4272,8.4757,6.4272,48.6134,24.8243,39.7272,-15.3134,8.4757,-6.4272,15.3134,8.4757,6.4272
T,2026-06-02 10:40:00,10,40,492.77,19.51,0.98,33.3,3,27.98,100,3,0,1.3,rainy,1,1,42.24,31.723,10.517,10.517,underestimate,16.5553,48.2783,10.517,-6.0383,10.517,6.0383,52.0478,31.723,48.2783,-9.8078,10.517,-6.0383,9.8078,10.517,6.0383
T,2026-06-02 10:45:00,10,45,418.21,8.83,0.98,42.24,1,35.01,100,3,0,1.3,sunny,1,1,39.71,36.6735,3.0365,3.0365,underestimate,16.1346,52.8081,3.0365,-13.0981,3.0365,13.0981,55.9389,36.6735,52.8081,-16.2289,3.0365,-13.0981,16.2289,3.0365,13.0981
T,2026-06-02 10:50:00,10,50,383.2,16.64,0.921,39.71,2,46.93,100,3,0,1.3,sunny,1,1,20.88,21.9631,-1.0831,-1.0831,overestimate,12.6131,34.5762,-1.0831,-13.6962,1.0831,13.6962,44.3221,21.9631,34.5762,-23.4421,-1.0831,-13.6962,23.4421,1.0831,13.6962
T,2026-06-02 10:55:00,10,55,415.43,23.19,0.871,20.88,1,28.6,100,3,0,1.3,cloudy,1,1,26.41,19.054,7.356,7.356,underestimate,11.5364,30.5904,7.356,-4.1804,7.356,4.1804,39.8014,19.054,30.5904,-13.3914,7.356,-4.1804,13.3914,7.356,4.1804
T,2026-06-02 11:00:00,11,0,441.87,25.68,0.856,26.41,2,31.13,100,3,0,1.3,cloudy,1,1,25.52,18.0328,7.4872,7.4872,underestimate,12.954,30.9868,7.4872,-5.4668,7.4872,5.4668,40.5668,18.0328,30.9868,-15.0468,7.4872,-5.4668,15.0468,7.4872,5.4668
T,2026-06-02 11:05:00,11,5,364.67,27.22,0.778,25.52,4,30.55,100,3,0,1.3,sunny,1,1,23.2,13.8047,9.3953,9.3953,underestimate,10.9467,24.7514,9.3953,-1.5514,9.3953,1.5514,35.1034,13.8047,24.7514,-11.9034,9.3953,-1.5514,11.9034,9.3953,1.5514
T,2026-06-02 11:10:00,11,10,411.62,25.39,0.812,23.2,4,47.05,100,3,0,1.3,sunny,1,1,14.66,9.6664,4.9936,4.9936,underestimate,8.9558,18.6222,4.9936,-3.9622,4.9936,3.9622,31.9725,9.6664,18.6222,-17.3125,4.9936,-3.9622,17.3125,4.9936,3.9622
T,2026-06-02 11:15:00,11,15,408.93,28.72,0.766,14.66,2,32.5,100,3,0,1.3,sunny,1,1,17.36,10.3866,6.9734,6.9734,underestimate,9.0127,19.3993,6.9734,-2.0393,6.9734,2.0393,30.7251,10.3866,19.3993,-13.3651,6.9734,-2.0393,13.3651,6.9734,2.0393
T,2026-06-02 11:20:00,11,20,442.9,21.6,0.808,17.36,3,27.06,100,3,0,1.3,sunny,1,1,29.48,17.8133,11.6667,11.6667,underestimate,11.4905,29.3038,11.6667,0.1762,11.6667,0.1762,39.4638,17.8133,29.3038,-9.9838,11.6667,0.1762,9.9838,11.6667,0.1762
T,2026-06-02 11:25:00,11,25,405.71,22.87,0.863,29.48,3,30.79,100,3,0,1.3,sunny,1,1,33.23,20.4642,12.7658,12.7658,underestimate,12.9987,33.4629,12.7658,-0.2329,12.7658,0.2329,42.145,20.4642,33.4629,-8.915,12.7658,-0.2329,8.915,12.7658,0.2329
T,2026-06-02 11:30:00,11,30,407.03,13.69,0.882,33.23,1,36.27,100,3,0,1.3,cloudy,1,1,24.52,21.8982,2.6218,2.6218,underestimate,13.2891,35.1873,2.6218,-10.6673,2.6218,10.6673,46.9522,21.8982,35.1873,-22.4322,2.6218,-10.6673,22.4322,2.6218,10.6673
T,2026-06-02 11:35:00,11,35,381.8,23.57,0.8,24.52,1,35.24,100,3,0,1.3,sunny,1,1,19.64,15.2856,4.3544,4.3544,underestimate,10.4752,25.7608,4.3544,-6.1208,4.3544,6.1208,36.0833,15.2856,25.7608,-16.4433,4.3544,-6.1208,16.4433,4.3544,6.1208
T,2026-06-02 11:40:00,11,40,406.34,28.37,0.756,19.64,4,35.26,100,3,0,1.3,sunny,1,1,16.94,9.479,7.461,7.461,underestimate,9.6879,19.1669,7.461,-2.2269,7.461,2.2269,31.6637,9.479,19.1669,-14.7237,7.461,-2.2269,14.7237,7.461,2.2269
T,2026-06-02 11:45:00,11,45,415.89,30.9,0.774,16.94,2,32.96,100,3,0,1.3,sunny,1,1,16.75,11.3078,5.4422,5.4422,underestimate,9.5988,20.9066,5.4422,-4.1566,5.4422,4.1566,30.7897,11.3078,20.9066,-14.0397,5.4422,-4.1566,14.0397,5.4422,4.1566
T,2026-06-02 11:50:00,11,50,427.74,32.36,0.832,16.75,2,39.75,100,3,0,1.3,sunny,1,1,12.89,10.2697,2.6203,2.6203,underestimate,8.8177,19.0874,2.6203,-6.1974,2.6203,6.1974,29.2959,10.2697,19.0874,-16.4059,2.6203,-6.1974,16.4059,2.6203,6.1974
T,2026-06-02 11:55:00,11,55,421.97,31.34,0.736,12.89,4,39.7,100,3,0,1.3,sunny,1,1,19.66,6.2563,13.4037,13.4037,underestimate,7.6478,13.9041,13.4037,5.7559,13.4037,5.7559,26.092,6.2563,13.9041,-6.432,13.4037,5.7559,6.432,13.4037,5.7559
T,2026-06-02 12:00:00,12,0,456.54,27.73,0.862,19.66,1,47.52,100,3,0,1.3,cloudy,1,1,10.51,10.1621,0.3479,0.3479,underestimate,9.0812,19.2433,0.3479,-8.7333,0.3479,8.7333,31.9072,10.1621,19.2433,-21.3972,0.3479,-8.7333,21.3972,0.3479,8.7333
T,2026-06-02 12:05:00,12,5,396.7,34.08,0.662,10.51,3,25.57,100,3,0,1.3,sunny,1,1,20.81,9.8791,10.9309,10.9309,underestimate,8.5545,18.4336,10.9309,2.3764,10.9309,2.3764,26.053,9.8791,18.4336,-5.243,10.9309,2.3764,5.243,10.9309,2.3764
T,2026-06-02 12:10:00,12,10,469.22,23.76,0.867,20.81,4,36.29,100,3,0,1.3,cloudy,1,1,26.92,19.0226,7.8974,7.8974,underestimate,11.4945,30.5171,7.8974,-3.5971,7.8974,3.5971,38.8074,19.0226,30.5171,-11.8874,7.8974,-3.5971,11.8874,7.8974,3.5971
T,2026-06-02 12:15:00,12,15,419.78,25.72,0.831,26.92,2,37.9,100,3,0,1.3,sunny,1,1,20.16,12.4798,7.6802,7.6802,underestimate,11.4761,23.9559,7.6802,-3.7959,7.6802,3.7959,37.1044,12.4798,23.9559,-16.9444,7.6802,-3.7959,16.9444,7.6802,3.7959
T,2026-06-02 12:20:00,12,20,398.6,30.83,0.785,20.16,2,32.58,100,3,0,1.3,sunny,1,1,17.08,12.6749,4.4051,4.4051,underestimate,10.0523,22.7272,4.4051,-5.6472,4.4051,5.6472,31.8244,12.6749,22.7272,-14.7444,4.4051,-5.6472,14.7444,4.4051,5.6472
T,2026-06-02 12:25:00,12,25,383.34,28.84,0.725,17.08,2,38.37,100,3,0,1.3,sunny,1,1,8.55,7.286,1.264,1.264,underestimate,8.02,15.306,1.264,-6.756,1.264,6.756,27.8331,7.286,15.306,-19.2831,1.264,-6.756,19.2831,1.264,6.756
T,2026-06-02 12:30:00,12,30,407.08,31.42,0.669,8.55,1,39.15,100,3,0,1.3,sunny,1,1,7.96,1.8944,6.0656,6.0656,underestimate,6.2636,8.158,6.0656,-0.198,6.0656,0.198,22.5541,1.8944,8.158,-14.5941,6.0656,-0.198,14.5941,6.0656,0.198
T,2026-06-02 12:35:00,12,35,372.53,33.64,0.627,7.96,3,30.89,100,3,0,1.3,sunny,1,1,12.63,6.249,6.381,6.381,underestimate,6.5296,12.7786,6.381,-0.1486,6.381,0.1486,21.8171,6.249,12.7786,-9.1871,6.381,-0.1486,9.1871,6.381,0.1486
T,2026-06-02 12:40:00,12,40,441.81,29.68,0.781,12.63,2,35.77,100,3,0,1.3,sunny,1,1,17.44,9.8647,7.5753,7.5753,underestimate,8.7584,18.6231,7.5753,-1.1831,7.5753,1.1831,29.8506,9.8647,18.6231,-12.4106,7.5753,-1.1831,12.4106,7.5753,1.1831
T,2026-06-02 12:45:00,12,45,423.99,25.35,0.844,17.44,3,37.6,100,3,0,1.3,sunny,1,1,15.0,12.8909,2.1091,2.1091,underestimate,9.4102,22.3011,2.1091,-7.3011,2.1091,7.3011,34.0159,12.8909,22.3011,-19.0159,2.1091,-7.3011,19.0159,2.1091,7.3011
T,2026-06-02 12:50:00,12,50,504.91,27.22,0.842,15.0,1,31.93,100,3,0,1.3,rainy,1,1,27.56,15.2436,12.3164,12.3164,underestimate,11.4857,26.7293,12.3164,0.8307,12.3164,0.8307,37.0029,15.2436,26.7293,-9.4429,12.3164,0.8307,9.4429,12.3164,0.8307
T,2026-06-02 12:55:00,12,55,392.54,22.62,0.86,27.56,3,44.13,100,3,0,1.3,sunny,1,1,14.32,17.2574,-2.9374,-2.9374,overestimate,10.1588,27.4162,-2.9374,-13.0962,2.9374,13.0962,36.4122,17.2574,27.4162,-22.0922,-2.9374,-13.0962,22.0922,2.9374,13.0962
T,2026-06-02 13:00:00,13,0,405.33,24.89,0.737,14.32,4,32.53,100,3,0,1.3,sunny,1,1,13.22,10.1425,3.0775,3.0775,underestimate,8.884,19.0265,3.0775,-5.8065,3.0775,5.8065,31.8155,10.1425,19.0265,-18.5955,3.0775,-5.8065,18.5955,3.0775,5.8065
T,2026-06-02 13:05:00,13,5,388.67,33.9,0.674,13.22,1,33.5,100,3,0,1.3,sunny,1,1,20.41,7.5409,12.8691,12.8691,underestimate,7.7944,15.3353,12.8691,5.0747,12.8691,5.0747,24.4844,7.5409,15.3353,-4.0744,12.8691,5.0747,4.0744,12.8691,5.0747
T,2026-06-02 13:10:00,13,10,529.64,18.47,0.951,20.41,1,36.33,100,3,0,1.3,rainy,1,1,31.0,26.4708,4.5292,4.5292,underestimate,13.001,39.4718,4.5292,-8.4718,4.5292,8.4718,45.3578,26.4708,39.4718,-14.3578,4.5292,-8.4718,14.3578,4.5292,8.4718
T,2026-06-02 13:15:00,13,15,428.81,17.29,0.892,31.0,1,37.63,100,3,0,1.3,cloudy,1,1,29.7,21.6155,8.0845,8.0845,underestimate,12.9724,34.5879,8.0845,-4.8879,8.0845,4.8879,44.7679,21.6155,34.5879,-15.0679,8.0845,-4.8879,15.0679,8.0845,4.8879
T,2026-06-02 13:20:00,13,20,400.99,19.55,0.814,29.7,1,35.87,100,3,0,1.3,sunny,1,1,21.76,19.8357,1.9243,1.9243,underestimate,12.1398,31.9755,1.9243,-10.2155,1.9243,10.2155,41.0275,19.8357,31.9755,-19.2675,1.9243,-10.2155,19.2675,1.9243,10.2155
T,2026-06-02 13:25:00,13,25,427.4,22.26,0.822,21.76,1,37.39,100,3,0,1.3,sunny,1,1,18.27,17.3959,0.8741,0.8741,underestimate,10.5705,27.9664,0.8741,-9.6964,0.8741,9.6964,37.0865,17.3959,27.9664,-18.8165,0.8741,-9.6964,18.8165,0.8741,9.6964
T,2026-06-02 13:30:00,13,30,406.99,27.5,0.749,18.27,2,24.44,100,3,0,1.3,sunny,1,1,25.59,13.5255,12.0645,12.0645,underestimate,11.0847,24.6102,12.0645,0.9798,12.0645,0.9798,35.1181,13.5255,24.6102,-9.5281,12.0645,0.9798,9.5281,12.0645,0.9798
T,2026-06-02 13:35:00,13,35,408.02,20.66,0.788,25.59,1,38.0,100,3,0,1.3,sunny,1,1,20.98,18.7672,2.2128,2.2128,underestimate,10.9245,29.6917,2.2128,-8.7117,2.2128,8.7117,37.8107,18.7672,29.6917,-16.8307,2.2128,-8.7117,16.8307,2.2128,8.7117
T,2026-06-02 13:40:00,13,40,399.42,26.81,0.803,20.98,2,31.28,100,3,0,1.3,sunny,1,1,22.94,14.054,8.886,8.886,underestimate,10.5876,24.6416,8.886,-1.7016,8.886,1.7016,35.0651,14.054,24.6416,-12.1251,8.886,-1.7016,12.1251,8.886,1.7016
T,2026-06-02 13:45:00,13,45,463.57,18.71,0.917,22.94,4,32.07,100,3,0,1.3,rainy,1,1,25.9,24.8602,1.0398,1.0398,underestimate,12.7293,37.5895,1.0398,-11.6895,1.0398,11.6895,44.5125,24.8602,37.5895,-18.6125,1.0398,-11.6895,18.6125,1.0398,11.6895
T,2026-06-02 13:50:00,13,50,506.68,15.96,0.974,25.9,1,44.22,100,3,0,1.3,rainy,1,1,20.19,24.2674,-4.0774,-4.0774,overestimate,12.6401,36.9075,-4.0774,-16.7175,4.0774,16.7175,45.783,24.2674,36.9075,-25.593,-4.0774,-16.7175,25.593,4.0774,16.7175
T,2026-06-02 13:55:00,13,55,387.09,27.53,0.789,20.19,3,45.76,100,3,0,1.3,sunny,1,1,9.7,8.3419,1.3581,1.3581,underestimate,7.8142,16.1561,1.3581,-6.4561,1.3581,6.4561,28.7047,8.3419,16.1561,-19.0047,1.3581,-6.4561,19.0047,1.3581,6.4561
T,2026-06-02 14:00:00,14,0,413.65,35.45,0.688,9.7,1,23.02,100,3,0,1.3,sunny,1,1,26.91,9.693,17.217,17.217,underestimate,9.155,18.848,17.217,8.062,17.217,8.062,27.0628,9.693,18.848,-0.1528,17.217,8.062,0.1528,17.217,8.062
T,2026-06-02 14:05:00,14,5,401.7,21.89,0.862,26.91,1,35.84,100,3,0,1.3,cloudy,1,1,23.37,19.5058,3.8642,3.8642,underestimate,11.5304,31.0362,3.8642,-7.6662,3.8642,7.6662,39.7295,19.5058,31.0362,-16.3595,3.8642,-7.6662,16.3595,3.8642,7.6662
T,2026-06-02 14:10:00,14,10,430.57,26.28,0.796,23.37,2,32.26,100,3,0,1.3,cloudy,1,1,28.91,16.1197,12.7903,12.7903,underestimate,11.6932,27.8129,12.7903,1.0971,12.7903,1.0971,36.9918,16.1197,27.8129,-8.0818,12.7903,1.0971,8.0818,12.7903,1.0971
T,2026-06-02 14:15:00,14,15,401.91,22.59,0.849,28.91,3,32.52,100,3,0,1.3,sunny,1,1,29.42,19.8712,9.5488,9.5488,underestimate,12.4907,32.3619,9.5488,-2.9419,9.5488,2.9419,41.0408,19.8712,32.3619,-11.6208,9.5488,-2.9419,11.6208,9.5488,2.9419
T,2026-06-02 14:20:00,14,20,528.11,15.29,0.98,29.42,2,49.21,100,3,0,1.3,rainy,1,1,25.11,23.9146,1.1954,1.1954,underestimate,13.191,37.1056,1.1954,-11.9956,1.1954,11.9956,46.7751,23.9146,37.1056,-21.6651,1.1954,-11.9956,21.6651,1.1954,11.9956
T,2026-06-02 14:25:00,14,25,406.17,20.04,0.922,25.11,3,43.37,100,3,0,1.3,sunny,1,1,17.26,20.6883,-3.4283,-3.4283,overestimate,10.1655,30.8538,-3.4283,-13.5938,3.4283,13.5938,38.8042,20.6883,30.8538,-21.5442,-3.4283,-13.5938,21.5442,3.4283,13.5938
T,2026-06-02 14:30:00,14,30,445.22,22.69,0.813,17.26,4,48.28,100,3,0,1.3,sunny,1,1,8.55,13.1731,-4.6231,-4.6231,overestimate,8.1729,21.346,-4.6231,-12.796,4.6231,12.796,31.8422,13.1731,21.346,-23.2922,-4.6231,-12.796,23.2922,4.6231,12.796
T,2026-06-02 14:35:00,14,35,446.46,32.77,0.758,8.55,2,26.74,100,3,0,1.3,cloudy,1,1,25.6,12.6356,12.9644,12.9644,underestimate,9.2092,21.8448,12.9644,3.7552,12.9644,3.7552,29.392,12.6356,21.8448,-3.792,12.9644,3.7552,3.792,12.9644,3.7552
T,2026-06-02 14:40:00,14,40,434.05,23.05,0.809,25.6,3,36.97,100,3,0,1.3,sunny,1,1,25.48,17.3958,8.0842,8.0842,underestimate,11.6516,29.0474,8.0842,-3.5674,8.0842,3.5674,38.3471,17.3958,29.0474,-12.8671,8.0842,-3.5674,12.8671,8.0842,3.5674
T,2026-06-02 14:45:00,14,45,406.59,21.44,0.834,25.48,4,33.05,100,3,0,1.3,cloudy,1,1,27.4,19.8012,7.5988,7.5988,underestimate,11.7031,31.5043,7.5988,-4.1043,7.5988,4.1043,39.9417,19.8012,31.5043,-12.5417,7.5988,-4.1043,12.5417,7.5988,4.1043
T,2026-06-02 14:50:00,14,50,407.61,19.49,0.893,27.4,4,40.32,100,3,0,1.3,sunny,1,1,29.2,20.352,8.848,8.848,underestimate,11.1803,31.5323,8.848,-2.3323,8.848,2.3323,40.4997,20.352,31.5323,-11.2997,8.848,-2.3323,11.2997,8.848,2.3323
T,2026-06-02 14:55:00,14,55,425.77,21.17,0.918,29.2,1,30.24,100,3,0,1.3,sunny,1,1,28.94,24.458,4.482,4.482,underestimate,13.5967,38.0547,4.482,-9.1147,4.482,9.1147,44.9819,24.458,38.0547,-16.0419,4.482,-9.1147,16.0419,4.482,9.1147
T,2026-06-02 15:00:00,15,0,475.43,17.81,0.962,28.94,2,37.01,100,3,0,1.3,cloudy,1,1,25.04,27.9858,-2.9458,-2.9458,overestimate,13.73,41.7158,-2.9458,-16.6758,2.9458,16.6758,47.0797,27.9858,41.7158,-22.0397,-2.9458,-16.6758,22.0397,2.9458,16.6758
T,2026-06-02 15:05:00,15,5,507.26,19.38,0.966,25.04,4,40.52,100,3,0,1.3,rainy,1,1,28.14,26.1539,1.9861,1.9861,underestimate,12.9413,39.0952,1.9861,-10.9552,1.9861,10.9552,44.7927,26.1539,39.0952,-16.6527,1.9861,-10.9552,16.6527,1.9861,10.9552
T,2026-06-02 15:10:00,15,10,469.24,18.54,0.977,28.14,2,33.19,100,3,0,1.3,cloudy,1,1,31.62,28.6208,2.9992,2.9992,underestimate,14.0114,42.6322,2.9992,-11.0122,2.9992,11.0122,47.7574,28.6208,42.6322,-16.1374,2.9992,-11.0122,16.1374,2.9992,11.0122
T,2026-06-02 15:15:00,15,15,418.14,14.01,0.932,31.62,1,34.41,100,3,0,1.3,sunny,1,1,30.44,26.9057,3.5343,3.5343,underestimate,13.5257,40.4314,3.5343,-9.9914,3.5343,9.9914,48.2214,26.9057,40.4314,-17.7814,3.5343,-9.9914,17.7814,3.5343,9.9914
T,2026-06-02 15:20:00,15,20,450.51,23.07,0.898,30.44,2,34.37,100,3,0,1.3,cloudy,1,1,30.33,23.0005,7.3295,7.3295,underestimate,13.7178,36.7183,7.3295,-6.3883,7.3295,6.3883,43.6173,23.0005,36.7183,-13.2873,7.3295,-6.3883,13.2873,7.3295,6.3883
T,2026-06-02 15:25:00,15,25,482.69,25.46,0.972,30.33,3,36.95,100,3,0,1.3,rainy,1,1,35.47,22.5683,12.9017,12.9017,underestimate,14.0762,36.6445,12.9017,-1.1745,12.9017,1.1745,44.2022,22.5683,36.6445,-8.7322,12.9017,-1.1745,8.7322,12.9017,1.1745
T,2026-06-02 15:30:00,15,30,446.18,16.61,0.963,35.47,3,34.5,100,3,0,1.3,sunny,1,1,26.49,28.7653,-2.2753,-2.2753,overestimate,15.0401,43.8054,-2.2753,-17.3154,2.2753,17.3154,50.0929,28.7653,43.8054,-23.6029,-2.2753,-17.3154,23.6029,2.2753,17.3154
T,2026-06-02 15:35:00,15,35,442.61,21.56,0.847,26.49,1,34.22,100,3,0,1.3,cloudy,1,1,23.41,20.9458,2.4642,2.4642,underestimate,12.581,33.5268,2.4642,-10.1168,2.4642,10.1168,41.5105,20.9458,33.5268,-18.1005,2.4642,-10.1168,18.1005,2.4642,10.1168
T,2026-06-02 15:40:00,15,40,400.48,23.69,0.845,23.41,1,33.97,100,3,0,1.3,sunny,1,1,19.65,16.4222,3.2278,3.2278,underestimate,10.9023,27.3245,3.2278,-7.6745,3.2278,7.6745,37.6373,16.4222,27.3245,-17.9873,3.2278,-7.6745,17.9873,3.2278,7.6745
T,2026-06-02 15:45:00,15,45,501.29,23.53,0.871,19.65,4,32.8,100,3,0,1.3,rainy,1,1,24.96,20.1843,4.7757,4.7757,underestimate,12.4962,32.6805,4.7757,-7.7205,4.7757,7.7205,40.9343,20.1843,32.6805,-15.9743,4.7757,-7.7205,15.9743,4.7757,7.7205
T,2026-06-02 15:50:00,15,50,427.05,22.39,0.849,24.96,4,31.42,100,3,0,1.3,sunny,1,1,28.69,19.4861,9.2039,9.2039,underestimate,12.2969,31.783,9.2039,-3.093,9.2039,3.093,40.8767,19.4861,31.783,-12.1867,9.2039,-3.093,12.1867,9.2039,3.093
T,2026-06-02 15:55:00,15,55,414.42,16.45,0.879,28.69,4,42.77,100,3,0,1.3,sunny,1,1,15.3,19.3803,-4.0803,-4.0803,overestimate,11.2964,30.6767,-4.0803,-15.3767,4.0803,15.3767,41.7165,19.3803,30.6767,-26.4165,-4.0803,-15.3767,26.4165,4.0803,15.3767
T,2026-06-02 16:00:00,16,0,415.82,29.21,0.776,15.3,3,37.25,100,3,0,1.3,sunny,1,1,13.72,7.4914,6.2286,6.2286,underestimate,8.578,16.0694,6.2286,-2.3494,6.2286,2.3494,29.5812,7.4914,16.0694,-15.8612,6.2286,-2.3494,15.8612,6.2286,2.3494
T,2026-06-02 16:05:00,16,5,427.58,29.27,0.722,13.72,3,30.48,100,3,0,1.3,cloudy,1,1,24.12,11.5792,12.5408,12.5408,underestimate,9.4383,21.0175,12.5408,3.1025,12.5408,3.1025,30.5457,11.5792,21.0175,-6.4257,12.5408,3.1025,6.4257,12.5408,3.1025
T,2026-06-02 16:10:00,16,10,378.05,26.18,0.843,24.12,4,31.74,100,3,0,1.3,sunny,1,1,19.11,14.792,4.318,4.318,underestimate,10.8603,25.6523,4.318,-6.5423,4.318,6.5423,36.5146,14.792,25.6523,-17.4046,4.318,-6.5423,17.4046,4.318,6.5423
T,2026-06-02 16:15:00,16,15,422.97,28.12,0.809,19.11,4,29.2,100,3,0,1.3,cloudy,1,1,24.81,15.1664,9.6436,9.6436,underestimate,10.9794,26.1458,9.6436,-1.3358,9.6436,1.3358,35.3565,15.1664,26.1458,-10.5465,9.6436,-1.3358,10.5465,9.6436,1.3358
T,2026-06-02 16:20:00,16,20,361.5,29.39,0.742,24.81,3,37.76,100,3,0,1.3,sunny,1,1,15.27,9.8836,5.3864,5.3864,underestimate,9.4684,19.352,5.3864,-4.082,5.3864,4.082,30.3907,9.8836,19.352,-15.1207,5.3864,-4.082,15.1207,5.3864,4.082
T,2026-06-02 16:25:00,16,25,397.64,26.51,0.763,15.27,1,29.12,100,3,0,1.3,sunny,1,1,17.63,12.366,5.264,5.264,underestimate,9.4791,21.8451,5.264,-4.2151,5.264,4.2151,32.7691,12.366,21.8451,-15.1391,5.264,-4.2151,15.1391,5.264,4.2151
T,2026-06-02 16:30:00,16,30,533.08,25.57,0.949,17.63,1,40.53,100,3,0,1.3,rainy,1,1,21.9,19.7679,2.1321,2.1321,underestimate,11.6015,31.3694,2.1321,-9.4694,2.1321,9.4694,39.25,19.7679,31.3694,-17.35,2.1321,-9.4694,17.35,2.1321,9.4694
T,2026-06-02 16:35:00,16,35,420.88,26.71,0.816,21.9,4,35.65,100,3,0,1.3,sunny,1,1,22.48,13.4215,9.0585,9.0585,underestimate,10.622,24.0435,9.0585,-1.5635,9.0585,1.5635,35.076,13.4215,24.0435,-12.596,9.0585,-1.5635,12.596,9.0585,1.5635
T,2026-06-02 16:40:00,16,40,417.63,25.86,0.864,22.48,1,34.98,100,3,0,1.3,cloudy,1,1,24.34,15.1026,9.2374,9.2374,underestimate,10.8908,25.9934,9.2374,-1.6534,9.2374,1.6534,36.8409,15.1026,25.9934,-12.5009,9.2374,-1.6534,12.5009,9.2374,1.6534
T,2026-06-02 16:45:00,16,45,419.82,22.82,0.867,24.34,3,40.55,100,3,0,1.3,sunny,1,1,21.31,18.6517,2.6583,2.6583,underestimate,10.5771,29.2288,2.6583,-7.9188,2.6583,7.9188,37.403,18.6517,29.2288,-16.093,2.6583,-7.9188,16.093,2.6583,7.9188
T,2026-06-02 16:50:00,16,50,468.35,21.25,0.87,21.31,2,35.17,100,3,0,1.3,cloudy,1,1,26.38,20.7886,5.5914,5.5914,underestimate,11.8297,32.6183,5.5914,-6.2383,5.5914,6.2383,40.709,20.7886,32.6183,-14.329,5.5914,-6.2383,14.329,5.5914,6.2383
T,2026-06-02 16:55:00,16,55,448.66,18.24,0.871,26.38,4,28.24,100,3,0,1.3,sunny,1,1,34.05,22.1085,11.9415,11.9415,underestimate,13.7425,35.851,11.9415,-1.801,11.9415,1.801,45.9285,22.1085,35.851,-11.8785,11.9415,-1.801,11.8785,11.9415,1.801
T,2026-06-02 17:00:00,17,0,939.31,14.73,0.98,34.05,2,37.86,100,3,1,1.3,rainy,1,1,72.69,51.0315,21.6585,21.6585,underestimate,36.3929,87.4244,21.6585,-14.7344,21.6585,14.7344,85.3641,51.0315,87.4244,-12.6741,21.6585,-14.7344,12.6741,21.6585,14.7344
T,2026-06-02 17:05:00,17,5,709.19,5.0,0.98,72.69,1,51.96,100,3,1,1.3,sunny,1,1,67.9,58.1325,9.7675,9.7675,underestimate,38.3772,96.5097,9.7675,-28.6097,9.7675,28.6097,92.4406,58.1325,96.5097,-24.5406,9.7675,-28.6097,24.5406,9.7675,28.6097
T,2026-06-02 17:10:00,17,10,729.17,5.75,0.98,67.9,2,42.48,100,3,1,1.3,sunny,1,1,72.8,61.195,11.605,11.605,underestimate,39.1639,100.3589,11.605,-27.5589,11.605,27.5589,94.1042,61.195,100.3589,-21.3042,11.605,-27.5589,21.3042,11.605,27.5589
T,2026-06-02 17:15:00,17,15,753.3,5.0,0.98,72.8,2,42.98,100,3,1,1.3,sunny,1,1,79.77,65.1771,14.5929,14.5929,underestimate,40.797,105.9741,14.5929,-26.2041,14.5929,26.2041,97.1953,65.1771,105.9741,-17.4253,14.5929,-26.2041,17.4253,14.5929,26.2041
T,2026-06-02 17:20:00,17,20,736.63,5.0,0.98,79.77,2,39.67,100,3,1,1.3,sunny,1,1,84.14,67.5437,16.5963,16.5963,underestimate,42.589,110.1327,16.5963,-25.9927,16.5963,25.9927,100.4922,67.5437,110.1327,-16.3522,16.5963,-25.9927,16.3522,16.5963,25.9927
T,2026-06-02 17:25:00,17,25,774.97,5.0,0.98,84.14,4,41.51,100,3,1,1.3,cloudy,1,1,89.64,65.85,23.79,23.79,underestimate,44.1873,110.0373,23.79,-20.3973,23.79,20.3973,103.0638,65.85,110.0373,-13.4238,23.79,-20.3973,13.4238,23.79,20.3973
T,2026-06-02 17:30:00,17,30,822.15,5.0,0.98,89.64,3,48.3,100,3,1,1.3,cloudy,1,1,95.54,62.3452,33.1948,33.1948,underestimate,45.4728,107.818,33.1948,-12.278,33.1948,12.278,104.7394,62.3452,107.818,-9.1994,33.1948,-12.278,9.1994,33.1948,12.278
T,2026-06-02 17:35:00,17,35,771.5,5.0,0.98,95.54,2,33.27,100,3,1,1.3,sunny,1,1,110.48,68.3888,42.0912,42.0912,underestimate,48.0929,116.4817,42.0912,-6.0017,42.0912,6.0017,110.3114,68.3888,116.4817,0.1686,42.0912,-6.0017,0.1686,42.0912,6.0017
T,2026-06-02 17:40:00,17,40,942.93,5.0,0.98,110.48,3,41.89,100,3,1,1.3,rainy,1,1,125.91,71.181,54.729,54.729,underestimate,54.0926,125.2736,54.729,0.6364,54.729,0.6364,119.829,71.181,125.2736,6.081,54.729,0.6364,6.081,54.729,0.6364
T,2026-06-02 17:45:00,17,45,753.76,5.0,0.98,125.91,1,44.65,100,3,1,1.3,sunny,1,1,121.58,63.6239,57.9561,57.9561,underestimate,53.0774,116.7013,57.9561,4.8787,57.9561,4.8787,117.9732,63.6239,116.7013,3.6068,57.9561,4.8787,3.6068,57.9561,4.8787
T,2026-06-02 17:50:00,17,50,796.19,5.0,0.98,121.58,2,39.27,100,3,1,1.3,cloudy,1,1,122.42,68.9425,53.4775,53.4775,underestimate,53.8471,122.7896,53.4775,-0.3696,53.4775,0.3696,119.6583,68.9425,122.7896,2.7617,53.4775,-0.3696,2.7617,53.4775,0.3696
T,2026-06-02 17:55:00,17,55,746.14,5.0,0.98,122.42,1,36.5,100,3,1,1.3,sunny,1,1,123.93,68.3643,55.5657,55.5657,underestimate,53.3627,121.727,55.5657,2.203,55.5657,2.203,119.0547,68.3643,121.727,4.8753,55.5657,2.203,4.8753,55.5657,2.203
T,2026-06-02 18:00:00,18,0,764.04,5.0,0.98,123.93,4,36.75,100,3,1,1.3,sunny,1,1,122.9,68.3643,54.5357,54.5357,underestimate,54.0793,122.4436,54.5357,0.4564,54.5357,0.4564,120.2493,68.3643,122.4436,2.6507,54.5357,0.4564,2.6507,54.5357,0.4564
T,2026-06-02 18:05:00,18,5,817.17,5.0,0.98,122.9,3,35.46,100,3,1,1.3,cloudy,1,1,132.72,69.4987,63.2213,63.2213,underestimate,55.2248,124.7235,63.2213,7.9965,63.2213,7.9965,122.2721,69.4987,124.7235,10.4479,63.2213,7.9965,10.4479,63.2213,7.9965
T,2026-06-02 18:10:00,18,10,796.78,5.0,0.98,132.72,1,47.74,100,3,1,1.3,cloudy,1,1,121.5,62.1462,59.3538,59.3538,underestimate,55.1598,117.306,59.3538,4.194,59.3538,4.194,121.2759,62.1462,117.306,0.2241,59.3538,4.194,0.2241,59.3538,4.194
T,2026-06-02 18:15:00,18,15,758.35,5.0,0.98,121.5,1,48.24,100,3,1,1.3,sunny,1,1,121.08,60.0755,61.0045,61.0045,underestimate,51.5759,111.6514,61.0045,9.4286,61.0045,9.4286,115.1549,60.0755,111.6514,5.9251,61.0045,9.4286,5.9251,61.0045,9.4286
T,2026-06-02 18:20:00,18,20,731.76,5.0,0.98,121.08,1,44.65,100,3,1,1.3,sunny,1,1,112.53,63.4733,49.0567,49.0567,underestimate,51.4465,114.9198,49.0567,-2.3898,49.0567,2.3898,115.2062,63.4733,114.9198,-2.6762,49.0567,-2.3898,2.6762,49.0567,2.3898
T,2026-06-02 18:25:00,18,25,728.43,5.0,0.98,112.53,2,35.83,100,3,1,1.3,sunny,1,1,113.95,68.3392,45.6108,45.6108,underestimate,50.7387,119.0779,45.6108,-5.1279,45.6108,5.1279,114.6446,68.3392,119.0779,-0.6946,45.6108,-5.1279,0.6946,45.6108,5.1279
T,2026-06-02 18:30:00,18,30,800.86,5.0,0.98,113.95,2,39.67,100,3,1,1.3,cloudy,1,1,118.3,68.6454,49.6546,49.6546,underestimate,52.0882,120.7336,49.6546,-2.4336,49.6546,2.4336,116.6339,68.6454,120.7336,1.6661,49.6546,-2.4336,1.6661,49.6546,2.4336
T,2026-06-02 18:35:00,18,35,950.49,5.0,0.98,118.3,1,41.19,100,3,1,1.3,rainy,1,1,131.16,71.2778,59.8822,59.8822,underestimate,56.2164,127.4942,59.8822,3.6658,59.8822,3.6658,123.4916,71.2778,127.4942,7.6684,59.8822,3.6658,7.6684,59.8822,3.6658
T,2026-06-02 18:40:00,18,40,692.75,5.0,0.98,131.16,3,47.8,100,3,1,1.3,sunny,1,1,113.24,58.7603,54.4797,54.4797,underestimate,52.4599,111.2202,54.4797,2.0198,54.4797,2.0198,116.7167,58.7603,111.2202,-3.4767,54.4797,2.0198,3.4767,54.4797,2.0198
T,2026-06-02 18:45:00,18,45,743.11,5.0,0.98,113.24,3,43.22,100,3,1,1.3,sunny,1,1,112.93,64.1406,48.7894,48.7894,underestimate,50.0743,114.2149,48.7894,-1.2849,48.7894,1.2849,112.9706,64.1406,114.2149,-0.0406,48.7894,-1.2849,0.0406,48.7894,1.2849
T,2026-06-02 18:50:00,18,50,724.85,5.0,0.98,112.93,3,34.34,100,3,1,1.3,sunny,1,1,116.17,67.9105,48.2595,48.2595,underestimate,50.987,118.8975,48.2595,-2.7275,48.2595,2.7275,115.177,67.9105,118.8975,0.993,48.2595,-2.7275,0.993,48.2595,2.7275
T,2026-06-02 18:55:00,18,55,742.25,5.0,0.98,116.17,4,41.23,100,3,1,1.3,sunny,1,1,110.37,65.8139,44.5561,44.5561,underestimate,51.0588,116.8727,44.5561,-6.5027,44.5561,6.5027,114.7911,65.8139,116.8727,-4.4211,44.5561,-6.5027,4.4211,44.5561,6.5027
T,2026-06-02 19:00:00,19,0,757.39,5.0,0.98,110.37,2,36.01,100,3,1,1.3,cloudy,1,1,114.61,68.3436,46.2664,46.2664,underestimate,50.8473,119.1909,46.2664,-4.5809,46.2664,4.5809,114.8052,68.3436,119.1909,-0.1952,46.2664,-4.5809,0.1952,46.2664,4.5809
T,2026-06-02 19:05:00,19,5,752.78,5.0,0.98,114.61,4,40.22,100,3,1,1.3,sunny,1,1,112.3,67.3863,44.9137,44.9137,underestimate,51.0842,118.4705,44.9137,-6.1705,44.9137,6.1705,114.9039,67.3863,118.4705,-2.6039,44.9137,-6.1705,2.6039,44.9137,6.1705
T,2026-06-02 19:10:00,19,10,818.44,5.0,0.98,112.3,2,36.76,100,3,1,1.3,cloudy,1,1,123.28,69.5547,53.7253,53.7253,underestimate,52.5479,122.1026,53.7253,1.1774,53.7253,1.1774,117.6213,69.5547,122.1026,5.6587,53.7253,1.1774,5.6587,53.7253,1.1774
T,2026-06-02 19:15:00,19,15,927.24,5.0,0.98,123.28,3,44.11,100,3,1,1.3,rainy,1,1,132.72,70.412,62.308,62.308,underestimate,56.4143,126.8263,62.308,5.8937,62.308,5.8937,123.6248,70.412,126.8263,9.0952,62.308,5.8937,9.0952,62.308,5.8937
T,2026-06-02 19:20:00,19,20,780.31,5.0,0.98,132.72,1,39.25,100,3,1,1.3,cloudy,1,1,132.51,67.8459,64.6641,64.6641,underestimate,56.1244,123.9703,64.6641,8.5397,64.6641,8.5397,123.5415,67.8459,123.9703,8.9685,64.6641,8.5397,8.9685,64.6641,8.5397
T,2026-06-02 19:25:00,19,25,928.33,5.0,0.98,132.51,2,48.58,100,3,1,1.3,rainy,1,1,133.35,66.4247,66.9253,66.9253,underestimate,57.9151,124.3398,66.9253,9.0102,66.9253,9.0102,125.8534,66.4247,124.3398,7.4966,66.9253,9.0102,7.4966,66.9253,9.0102
T,2026-06-02 19:30:00,19,30,771.22,5.0,0.98,133.35,4,41.75,100,3,1,1.3,sunny,1,1,130.0,65.7708,64.2292,64.2292,underestimate,55.6778,121.4486,64.2292,8.5514,64.2292,8.5514,122.6031,65.7708,121.4486,7.3969,64.2292,8.5514,7.3969,64.2292,8.5514
T,2026-06-02 19:35:00,19,35,734.14,5.0,0.98,130.0,2,43.45,100,3,1,1.3,sunny,1,1,119.25,64.0519,55.1981,55.1981,underestimate,53.7928,117.8447,55.1981,1.4053,55.1981,1.4053,119.2856,64.0519,117.8447,-0.0356,55.1981,1.4053,0.0356,55.1981,1.4053
T,2026-06-02 19:40:00,19,40,731.03,5.0,0.98,119.25,1,30.45,100,3,1,1.3,sunny,1,1,128.83,68.3599,60.4701,60.4701,underestimate,53.2267,121.5866,60.4701,7.2434,60.4701,7.2434,119.2693,68.3599,121.5866,9.5607,60.4701,7.2434,9.5607,60.4701,7.2434
T,2026-06-02 19:45:00,19,45,746.8,5.0,0.98,128.83,4,43.88,100,3,1,1.3,sunny,1,1,117.79,63.8489,53.9411,53.9411,underestimate,53.7318,117.5807,53.9411,0.2093,53.9411,0.2093,119.1458,63.8489,117.5807,-1.3558,53.9411,0.2093,1.3558,53.9411,0.2093
T,2026-06-02 19:50:00,19,50,815.76,5.0,0.98,117.79,2,40.72,100,3,1,1.3,cloudy,1,1,122.75,68.2735,54.4765,54.4765,underestimate,53.1621,121.4356,54.4765,1.3144,54.4765,1.3144,118.3796,68.2735,121.4356,4.3704,54.4765,1.3144,4.3704,54.4765,1.3144
T,2026-06-02 19:55:00,19,55,780.3,5.0,0.98,122.75,1,33.18,100,3,1,1.3,cloudy,1,1,125.01,68.3771,56.6329,56.6329,underestimate,54.7241,123.1012,56.6329,1.9088,56.6329,1.9088,121.6001,68.3771,123.1012,3.4099,56.6329,1.9088,3.4099,56.6329,1.9088
T,2026-06-02 20:00:00,20,0,268.1,5.0,0.98,125.01,3,39.53,100,3,0,1.3,sunny,1,1,86.85,56.8658,29.9842,29.9842,underestimate,31.6903,88.5561,29.9842,-1.7061,29.9842,1.7061,83.9668,56.8658,88.5561,2.8832,29.9842,-1.7061,2.8832,29.9842,1.7061
T,2026-06-02 20:05:00,20,5,332.47,5.0,0.98,86.85,2,37.24,100,3,0,1.3,cloudy,1,1,60.83,57.8347,2.9953,2.9953,underestimate,24.4822,82.3169,2.9953,-21.4869,2.9953,21.4869,71.8414,57.8347,82.3169,-11.0114,2.9953,-21.4869,11.0114,2.9953,21.4869
T,2026-06-02 20:10:00,20,10,347.73,8.04,0.98,60.83,3,42.18,100,3,0,1.3,cloudy,1,1,32.07,47.76,-15.69,-15.69,overestimate,17.8403,65.6003,-15.69,-33.5303,15.69,33.5303,58.7236,47.76,65.6003,-26.6536,-15.69,-33.5303,26.6536,15.69,33.5303
T,2026-06-02 20:15:00,20,15,421.61,20.34,0.861,32.07,1,34.11,100,3,0,1.3,rainy,1,1,32.57,20.9789,11.5911,11.5911,underestimate,13.4968,34.4757,11.5911,-1.9057,11.5911,1.9057,43.9151,20.9789,34.4757,-11.3451,11.5911,-1.9057,11.3451,11.5911,1.9057
T,2026-06-02 20:20:00,20,20,388.79,18.99,0.893,32.57,1,31.49,100,3,0,1.3,rainy,1,1,29.98,22.4102,7.5698,7.5698,underestimate,13.3768,35.787,7.5698,-5.807,7.5698,5.807,45.1259,22.4102,35.787,-15.1459,7.5698,-5.807,15.1459,7.5698,5.807
T,2026-06-02 20:25:00,20,25,306.57,25.74,0.749,29.98,3,35.16,100,3,0,1.3,sunny,1,1,16.89,11.2222,5.6678,5.6678,underestimate,9.963,21.1852,5.6678,-4.2952,5.6678,4.2952,33.3065,11.2222,21.1852,-16.4165,5.6678,-4.2952,16.4165,5.6678,4.2952
T,2026-06-02 20:30:00,20,30,380.18,28.42,0.746,16.89,4,39.82,100,3,0,1.3,rainy,1,1,8.71,7.0144,1.6956,1.6956,underestimate,7.7216,14.736,1.6956,-6.026,1.6956,6.026,27.7941,7.0144,14.736,-19.0841,1.6956,-6.026,19.0841,1.6956,6.026
T,2026-06-02 20:35:00,20,35,317.83,32.76,0.637,8.71,4,34.77,100,3,0,1.3,sunny,1,1,2.63,2.6507,-0.0207,-0.0207,overestimate,4.9129,7.5636,-0.0207,-4.9336,0.0207,4.9336,19.4014,2.6507,7.5636,-16.7714,-0.0207,-4.9336,16.7714,0.0207,4.9336
T,2026-06-02 20:40:00,20,40,351.38,38.98,0.624,2.63,4,39.89,100,3,0,1.3,cloudy,1,1,0.24,0.652,-0.412,-0.412,overestimate,3.2636,3.9156,-0.412,-3.6756,0.412,3.6756,13.0141,0.652,3.9156,-12.7741,-0.412,-3.6756,12.7741,0.412,3.6756
T,2026-06-02 20:45:00,20,45,328.72,36.75,0.513,0.24,4,25.79,100,3,0,1.3,sunny,1,1,9.72,5.3572,4.3628,4.3628,underestimate,4.2701,9.6273,4.3628,0.0927,4.3628,0.0927,14.8531,5.3572,9.6273,-5.1331,4.3628,0.0927,5.1331,4.3628,0.0927
T,2026-06-02 20:50:00,20,50,300.98,28.4,0.6,9.72,4,28.78,100,3,0,1.3,sunny,1,1,4.66,8.4633,-3.8033,-3.8033,overestimate,5.7499,14.2132,-3.8033,-9.5532,3.8033,9.5532,22.6891,8.4633,14.2132,-18.0291,-3.8033,-9.5532,18.0291,3.8033,9.5532
T,2026-06-02 20:55:00,20,55,288.6,41.78,0.535,4.66,2,41.5,100,3,0,1.3,sunny,1,1,0.0,0.1079,-0.1079,-0.1079,overestimate,1.8772,1.9851,-0.1079,-1.9851,0.1079,1.9851,7.6466,0.1079,1.9851,-7.6466,-0.1079,-1.9851,7.6466,0.1079,1.9851
T,2026-06-02 21:00:00,21,0,293.51,41.67,0.565,0.0,1,37.21,100,3,0,1.3,sunny,1,1,0.0,0.1045,-0.1045,-0.1045,overestimate,1.6131,1.7176,-0.1045,-1.7176,0.1045,1.7176,8.0926,0.1045,1.7176,-8.0926,-0.1045,-1.7176,8.0926,0.1045,1.7176
T,2026-06-02 21:05:00,21,5,346.96,37.55,0.606,0.0,4,40.81,100,3,0,1.3,cloudy,1,1,0.0,0.7105,-0.7105,-0.7105,overestimate,2.4016,3.1121,-0.7105,-3.1121,0.7105,3.1121,11.8437,0.7105,3.1121,-11.8437,-0.7105,-3.1121,11.8437,0.7105,3.1121
T,2026-06-02 21:10:00,21,10,315.72,41.8,0.574,0.0,2,42.52,100,3,0,1.3,cloudy,1,1,0.0,0.1553,-0.1553,-0.1553,overestimate,1.2878,1.4431,-0.1553,-1.4431,0.1553,1.4431,7.242,0.1553,1.4431,-7.242,-0.1553,-1.4431,7.242,0.1553,1.4431
T,2026-06-02 21:15:00,21,15,283.13,39.65,0.429,0.0,4,29.97,100,3,0,1.3,sunny,1,1,0.0,0.9187,-0.9187,-0.9187,overestimate,2.3346,3.2533,-0.9187,-3.2533,0.9187,3.2533,8.3987,0.9187,3.2533,-8.3987,-0.9187,-3.2533,8.3987,0.9187,3.2533
T,2026-06-02 21:20:00,21,20,316.15,40.77,0.509,0.0,2,37.84,100,3,0,1.3,sunny,1,1,0.0,0.0277,-0.0277,-0.0277,overestimate,1.9458,1.9735,-0.0277,-1.9735,0.0277,1.9735,8.0388,0.0277,1.9735,-8.0388,-0.0277,-1.9735,8.0388,0.0277,1.9735
